(Generated by PartKam Version 0.05)

G20 G90 G40

(profile 1)
G0 Z0.5
T0 M6
G17
M3
G0 X5.3423 Y5.8945
G1 Z-0.075 F15
G1 X4.7179 Y5.8945 F30
G1 Z-0.05 F15
G1 X4.2179 Y5.8945 F30
G1 Z-0.075 F15
G1 X1.4191 Y5.8945 F30
G1 Z-0.05 F15
G1 X0.9191 Y5.8945 F30
G1 Z-0.075 F15
G1 X0.5473 Y5.8945 F30
G3 X0.4848 Y5.832 I0 J-0.0625
G1 X0.4848 Y5.332
G1 X0.4848 Y4.832
G1 X0.4848 Y4.598
G3 X0.4967 Y4.5613 I0.0625 J0
G3 X0.8116 Y4.19 I2.5744 J1.864
G3 X1.1633 Y3.8876 I2.0459 J2.0242
G3 X1.5591 Y3.6456 I1.6942 J2.3266
G3 X2.0092 Y3.4599 I1.4339 J2.8365
G3 X2.4824 Y3.3451 I0.9838 J3.0223
G3 X2.9448 Y3.3077 I0.4623 J2.8407
G3 X3.4071 Y3.3451 I0 J2.8781
G3 X3.8803 Y3.4599 I-0.5106 J3.1371
G3 X4.3304 Y3.6456 I-0.9838 J3.0223
G3 X4.7262 Y3.8876 I-1.2984 J2.5685
G3 X5.0779 Y4.19 I-1.6942 J2.3266
G3 X5.3929 Y4.5613 I-2.2594 J2.2354
G3 X5.4048 Y4.598 I-0.0506 J0.0367
G1 X5.4048 Y4.832
G1 X5.4048 Y5.332
G1 X5.4048 Y5.832
G3 X5.3423 Y5.8945 I-0.0625 J0
G1 Z-0.15 F15
G1 X4.7179 Y5.8945 F30
G1 Z-0.05 F15
G1 X4.2179 Y5.8945 F30
G1 Z-0.15 F15
G1 X1.4191 Y5.8945 F30
G1 Z-0.05 F15
G1 X0.9191 Y5.8945 F30
G1 Z-0.15 F15
G1 X0.5473 Y5.8945 F30
G3 X0.4848 Y5.832 I0 J-0.0625
G1 X0.4848 Y5.332
G1 X0.4848 Y4.832
G1 X0.4848 Y4.598
G3 X0.4967 Y4.5613 I0.0625 J0
G3 X0.8116 Y4.19 I2.5744 J1.864
G3 X1.1633 Y3.8876 I2.0459 J2.0242
G3 X1.5591 Y3.6456 I1.6942 J2.3266
G3 X2.0092 Y3.4599 I1.4339 J2.8365
G3 X2.4824 Y3.3451 I0.9838 J3.0223
G3 X2.9448 Y3.3077 I0.4623 J2.8407
G3 X3.4071 Y3.3451 I0 J2.8781
G3 X3.8803 Y3.4599 I-0.5106 J3.1371
G3 X4.3304 Y3.6456 I-0.9838 J3.0223
G3 X4.7262 Y3.8876 I-1.2984 J2.5685
G3 X5.0779 Y4.19 I-1.6942 J2.3266
G3 X5.3929 Y4.5613 I-2.2594 J2.2354
G3 X5.4048 Y4.598 I-0.0506 J0.0367
G1 X5.4048 Y4.832
G1 X5.4048 Y5.332
G1 X5.4048 Y5.832
G3 X5.3423 Y5.8945 I-0.0625 J0
G0 Z0.5
G0 X5.3361 Y2.9302
G1 Z-0.075 F15
G1 X5.0959 Y2.9302 F30
G1 Z-0.05 F15
G1 X4.5959 Y2.9302 F30
G1 Z-0.075 F15
G1 X1.4526 Y2.9302 F30
G1 Z-0.05 F15
G1 X0.9526 Y2.9302 F30
G1 Z-0.075 F15
G1 X0.5411 Y2.9302 F30
G3 X0.4786 Y2.8677 I0 J-0.0625
G1 X0.4786 Y2.3677
G1 X0.4786 Y1.8677
G1 X0.4786 Y1.6337
G3 X0.4904 Y1.5971 I0.0625 J0
G3 X0.8054 Y1.2257 I2.5744 J1.864
G3 X1.1571 Y0.9233 I2.0459 J2.0242
G3 X1.5529 Y0.6814 I1.6942 J2.3266
G3 X2.003 Y0.4956 I1.4339 J2.8365
G3 X2.4762 Y0.3808 I0.9838 J3.0223
G3 X2.9386 Y0.3435 I0.4623 J2.8407
G3 X3.4009 Y0.3808 I0 J2.8781
G3 X3.8741 Y0.4956 I-0.5106 J3.1371
G3 X4.3242 Y0.6814 I-0.9838 J3.0223
G3 X4.72 Y0.9233 I-1.2984 J2.5685
G3 X5.0717 Y1.2257 I-1.6942 J2.3266
G3 X5.3867 Y1.5971 I-2.2594 J2.2354
G3 X5.3986 Y1.6337 I-0.0506 J0.0367
G1 X5.3986 Y1.8677
G1 X5.3986 Y2.3677
G1 X5.3986 Y2.8677
G3 X5.3361 Y2.9302 I-0.0625 J0
G1 Z-0.15 F15
G1 X5.0959 Y2.9302 F30
G1 Z-0.05 F15
G1 X4.5959 Y2.9302 F30
G1 Z-0.15 F15
G1 X1.4526 Y2.9302 F30
G1 Z-0.05 F15
G1 X0.9526 Y2.9302 F30
G1 Z-0.15 F15
G1 X0.5411 Y2.9302 F30
G3 X0.4786 Y2.8677 I0 J-0.0625
G1 X0.4786 Y2.3677
G1 X0.4786 Y1.8677
G1 X0.4786 Y1.6337
G3 X0.4904 Y1.5971 I0.0625 J0
G3 X0.8054 Y1.2257 I2.5744 J1.864
G3 X1.1571 Y0.9233 I2.0459 J2.0242
G3 X1.5529 Y0.6814 I1.6942 J2.3266
G3 X2.003 Y0.4956 I1.4339 J2.8365
G3 X2.4762 Y0.3808 I0.9838 J3.0223
G3 X2.9386 Y0.3435 I0.4623 J2.8407
G3 X3.4009 Y0.3808 I0 J2.8781
G3 X3.8741 Y0.4956 I-0.5106 J3.1371
G3 X4.3242 Y0.6814 I-0.9838 J3.0223
G3 X4.72 Y0.9233 I-1.2984 J2.5685
G3 X5.0717 Y1.2257 I-1.6942 J2.3266
G3 X5.3867 Y1.5971 I-2.2594 J2.2354
G3 X5.3986 Y1.6337 I-0.0506 J0.0367
G1 X5.3986 Y1.8677
G1 X5.3986 Y2.3677
G1 X5.3986 Y2.8677
G3 X5.3361 Y2.9302 I-0.0625 J0

(follow path 2)
G0 Z0.5
G0 X0.6098 Y5.332
G1 Z-0.07 F15
G1 X0.6098 Y4.832 F30
G0 Z0.5
G0 X1.7448 Y5.332
G1 Z-0.07 F15
G1 X1.7448 Y4.832 F30
G0 Z0.5
G0 X2.9448 Y5.332
G1 Z-0.07 F15
G1 X2.9448 Y4.832 F30
G0 Z0.5
G0 X4.1448 Y5.332
G1 Z-0.07 F15
G1 X4.1448 Y4.832 F30
G0 Z0.5
G0 X5.2798 Y5.332
G1 Z-0.07 F15
G1 X5.2798 Y4.832 F30
G0 Z0.5
G0 X0.6036 Y2.3677
G1 Z-0.07 F15
G1 X0.6036 Y1.8677 F30
G0 Z0.5
G0 X1.7386 Y2.3677
G1 Z-0.07 F15
G1 X1.7386 Y1.8677 F30
G0 Z0.5
G0 X2.9386 Y2.3677
G1 Z-0.07 F15
G1 X2.9386 Y1.8677 F30
G0 Z0.5
G0 X4.1386 Y2.3677
G1 Z-0.07 F15
G1 X4.1386 Y1.8677 F30
G0 Z0.5
G0 X5.2736 Y2.3677
G1 Z-0.07 F15
G1 X5.2736 Y1.8677 F30
G0 Z0.5
M5
M30
