(Generated by PartKam Version 0.05)

G20 G90 G40

(profile 1)
G0 Z0.5
T0 M6
G17
M3
G0 X8.1218 Y3.3065
G1 Z-0.075 F15
G1 X8.1218 Y4.6565 F30
G1 X8.1218 Y3.3065
G1 X8.1218 Y3.3065
G3 X8.1843 Y3.244 I0.0625 J0
G1 X9.2593 Y3.244
G3 X9.3218 Y3.3065 I0 J0.0625
G3 X9.3843 Y3.244 I0.0625 J0
G1 X10.3849 Y3.244
G3 X10.4474 Y3.3065 I0 J0.0625
G1 X10.4474 Y3.3454
G1 Z-0.05 F15
G1 X10.4474 Y3.8454 F30
G1 Z-0.075 F15
G1 X10.4474 Y3.9315 F30
G3 X10.3849 Y3.994 I-0.0625 J0
G1 X10.5099 Y3.994
G3 X10.5724 Y4.0565 I0 J0.0625
G3 X10.5603 Y4.0934 I-0.0625 J0
G3 X10.2454 Y4.461 I-2.5627 J-1.8768
G3 X9.8944 Y4.7603 I-2.0378 J-2.0347
G3 X9.5 Y4.9997 I-1.6868 J-2.334
G3 X9.0522 Y5.1834 I-1.4256 J-2.8386
G3 X8.5817 Y5.2968 I-0.9778 J-3.0222
G3 X8.1218 Y5.3338 I-0.4598 J-2.8427
G3 X7.662 Y5.2968 I0 J-2.8797
G3 X7.1914 Y5.1834 I0.5072 J-3.1357
G3 X6.7436 Y4.9997 I0.9778 J-3.0222
G3 X6.3492 Y4.7603 I1.2924 J-2.5734
G3 X5.9982 Y4.461 I1.6868 J-2.334
G3 X5.6833 Y4.0934 I2.2478 J-2.2444
G3 X5.6712 Y4.0565 I0.0504 J-0.0369
G3 X5.7337 Y3.994 I0.0625 J0
G1 X5.8587 Y3.994
G3 X5.7962 Y3.9315 I0 J-0.0625
G1 X5.7962 Y3.8856
G1 Z-0.05 F15
G1 X5.7962 Y3.3856 F30
G1 Z-0.075 F15
G1 X5.7962 Y3.3065 F30
G3 X5.8587 Y3.244 I0.0625 J0
G1 X6.8593 Y3.244
G3 X6.9218 Y3.3065 I0 J0.0625
G3 X6.9843 Y3.244 I0.0625 J0
G1 X8.0593 Y3.244
G3 X8.1218 Y3.3065 I0 J0.0625
G1 X8.1218 Y3.3065
G1 Z-0.15 F15
G1 X8.1218 Y4.6565 F30
G1 X8.1218 Y3.3065
G1 X8.1218 Y3.3065
G3 X8.1843 Y3.244 I0.0625 J0
G1 X9.2593 Y3.244
G3 X9.3218 Y3.3065 I0 J0.0625
G3 X9.3843 Y3.244 I0.0625 J0
G1 X10.3849 Y3.244
G3 X10.4474 Y3.3065 I0 J0.0625
G1 X10.4474 Y3.3454
G1 Z-0.05 F15
G1 X10.4474 Y3.8454 F30
G1 Z-0.15 F15
G1 X10.4474 Y3.9315 F30
G3 X10.3849 Y3.994 I-0.0625 J0
G1 X10.5099 Y3.994
G3 X10.5724 Y4.0565 I0 J0.0625
G3 X10.5603 Y4.0934 I-0.0625 J0
G3 X10.2454 Y4.461 I-2.5627 J-1.8768
G3 X9.8944 Y4.7603 I-2.0378 J-2.0347
G3 X9.5 Y4.9997 I-1.6868 J-2.334
G3 X9.0522 Y5.1834 I-1.4256 J-2.8386
G3 X8.5817 Y5.2968 I-0.9778 J-3.0222
G3 X8.1218 Y5.3338 I-0.4598 J-2.8427
G3 X7.662 Y5.2968 I0 J-2.8797
G3 X7.1914 Y5.1834 I0.5072 J-3.1357
G3 X6.7436 Y4.9997 I0.9778 J-3.0222
G3 X6.3492 Y4.7603 I1.2924 J-2.5734
G3 X5.9982 Y4.461 I1.6868 J-2.334
G3 X5.6833 Y4.0934 I2.2478 J-2.2444
G3 X5.6712 Y4.0565 I0.0504 J-0.0369
G3 X5.7337 Y3.994 I0.0625 J0
G1 X5.8587 Y3.994
G3 X5.7962 Y3.9315 I0 J-0.0625
G1 X5.7962 Y3.8856
G1 Z-0.05 F15
G1 X5.7962 Y3.3856 F30
G1 Z-0.15 F15
G1 X5.7962 Y3.3065 F30
G3 X5.8587 Y3.244 I0.0625 J0
G1 X6.8593 Y3.244
G3 X6.9218 Y3.3065 I0 J0.0625
G3 X6.9843 Y3.244 I0.0625 J0
G1 X8.0593 Y3.244
G3 X8.1218 Y3.3065 I0 J0.0625
G1 X8.1218 Y3.3065
G0 Z0.5
G0 X2.8012 Y3.3047
G1 Z-0.075 F15
G1 X2.8012 Y4.6547 F30
G1 X2.8012 Y3.3047
G1 X2.8012 Y3.3047
G3 X2.8637 Y3.2422 I0.0625 J0
G1 X3.9387 Y3.2422
G3 X4.0012 Y3.3047 I0 J0.0625
G3 X4.0637 Y3.2422 I0.0625 J0
G1 X5.0643 Y3.2422
G3 X5.1268 Y3.3047 I0 J0.0625
G1 X5.1268 Y3.3589
G1 Z-0.05 F15
G1 X5.1268 Y3.8589 F30
G1 Z-0.075 F15
G1 X5.1268 Y3.9297 F30
G3 X5.0643 Y3.9922 I-0.0625 J0
G1 X5.1893 Y3.9922
G3 X5.2518 Y4.0547 I0 J0.0625
G3 X5.2397 Y4.0917 I-0.0625 J0
G3 X4.9248 Y4.4593 I-2.5627 J-1.8768
G3 X4.5737 Y4.7586 I-2.0378 J-2.0347
G3 X4.1794 Y4.998 I-1.6868 J-2.334
G3 X3.7315 Y5.1816 I-1.4256 J-2.8386
G3 X3.261 Y5.2951 I-0.9778 J-3.0222
G3 X2.8012 Y5.332 I-0.4598 J-2.8427
G3 X2.3413 Y5.2951 I0 J-2.8797
G3 X1.8708 Y5.1816 I0.5072 J-3.1357
G3 X1.4229 Y4.998 I0.9778 J-3.0222
G3 X1.0286 Y4.7586 I1.2924 J-2.5734
G3 X0.6775 Y4.4593 I1.6868 J-2.334
G3 X0.3626 Y4.0917 I2.2478 J-2.2444
G3 X0.3506 Y4.0547 I0.0504 J-0.0369
G3 X0.4131 Y3.9922 I0.0625 J0
G1 X0.5381 Y3.9922
G3 X0.4756 Y3.9297 I0 J-0.0625
G1 X0.4756 Y3.8533
G1 Z-0.05 F15
G1 X0.4756 Y3.3533 F30
G1 Z-0.075 F15
G1 X0.4756 Y3.3047 F30
G3 X0.5381 Y3.2422 I0.0625 J0
G1 X1.5387 Y3.2422
G3 X1.6012 Y3.3047 I0 J0.0625
G3 X1.6637 Y3.2422 I0.0625 J0
G1 X2.7387 Y3.2422
G3 X2.8012 Y3.3047 I0 J0.0625
G1 X2.8012 Y3.3047
G1 Z-0.15 F15
G1 X2.8012 Y4.6547 F30
G1 X2.8012 Y3.3047
G1 X2.8012 Y3.3047
G3 X2.8637 Y3.2422 I0.0625 J0
G1 X3.9387 Y3.2422
G3 X4.0012 Y3.3047 I0 J0.0625
G3 X4.0637 Y3.2422 I0.0625 J0
G1 X5.0643 Y3.2422
G3 X5.1268 Y3.3047 I0 J0.0625
G1 X5.1268 Y3.3589
G1 Z-0.05 F15
G1 X5.1268 Y3.8589 F30
G1 Z-0.15 F15
G1 X5.1268 Y3.9297 F30
G3 X5.0643 Y3.9922 I-0.0625 J0
G1 X5.1893 Y3.9922
G3 X5.2518 Y4.0547 I0 J0.0625
G3 X5.2397 Y4.0917 I-0.0625 J0
G3 X4.9248 Y4.4593 I-2.5627 J-1.8768
G3 X4.5737 Y4.7586 I-2.0378 J-2.0347
G3 X4.1794 Y4.998 I-1.6868 J-2.334
G3 X3.7315 Y5.1816 I-1.4256 J-2.8386
G3 X3.261 Y5.2951 I-0.9778 J-3.0222
G3 X2.8012 Y5.332 I-0.4598 J-2.8427
G3 X2.3413 Y5.2951 I0 J-2.8797
G3 X1.8708 Y5.1816 I0.5072 J-3.1357
G3 X1.4229 Y4.998 I0.9778 J-3.0222
G3 X1.0286 Y4.7586 I1.2924 J-2.5734
G3 X0.6775 Y4.4593 I1.6868 J-2.334
G3 X0.3626 Y4.0917 I2.2478 J-2.2444
G3 X0.3506 Y4.0547 I0.0504 J-0.0369
G3 X0.4131 Y3.9922 I0.0625 J0
G1 X0.5381 Y3.9922
G3 X0.4756 Y3.9297 I0 J-0.0625
G1 X0.4756 Y3.8533
G1 Z-0.05 F15
G1 X0.4756 Y3.3533 F30
G1 Z-0.15 F15
G1 X0.4756 Y3.3047 F30
G3 X0.5381 Y3.2422 I0.0625 J0
G1 X1.5387 Y3.2422
G3 X1.6012 Y3.3047 I0 J0.0625
G3 X1.6637 Y3.2422 I0.0625 J0
G1 X2.7387 Y3.2422
G3 X2.8012 Y3.3047 I0 J0.0625
G1 X2.8012 Y3.3047
G0 Z0.5
G0 X6.9604 Y1.9489
G1 Z-0.075 F15
G1 X6.9604 Y0.5989 F30
G1 X6.9604 Y0.5989
G3 X7.0229 Y0.5364 I0.0625 J0
G1 X7.0354 Y0.5364
G3 X7.0979 Y0.5989 I0 J0.0625
G1 X7.0979 Y0.4789
G3 X7.1604 Y0.4164 I0.0625 J0
G1 X7.8604 Y0.4164
G3 X7.9229 Y0.4789 I0 J0.0625
G1 X7.9229 Y0.5989
G3 X7.9854 Y0.5364 I0.0625 J0
G1 X8.0979 Y0.5364
G3 X8.1604 Y0.5989 I0 J0.0625
G3 X8.2229 Y0.5364 I0.0625 J0
G1 X8.3354 Y0.5364
G3 X8.3979 Y0.5989 I0 J0.0625
G1 X8.3979 Y0.4789
G3 X8.4604 Y0.4164 I0.0625 J0
G1 X9.1604 Y0.4164
G3 X9.2229 Y0.4789 I0 J0.0625
G1 X9.2229 Y0.5989
G3 X9.2854 Y0.5364 I0.0625 J0
G1 X9.2979 Y0.5364
G3 X9.3604 Y0.5989 I0 J0.0625
G3 X9.4229 Y0.5364 I0.0625 J0
G1 X10.4235 Y0.5364
G3 X10.486 Y0.5989 I0 J0.0625
G1 X10.486 Y0.6737
G1 Z-0.05 F15
G1 X10.486 Y1.1737 F30
G1 Z-0.075 F15
G1 X10.486 Y1.2239 F30
G3 X10.4235 Y1.2864 I-0.0625 J0
G1 X10.5485 Y1.2864
G3 X10.611 Y1.3489 I0 J0.0625
G3 X10.599 Y1.3858 I-0.0625 J0
G3 X10.2841 Y1.7534 I-2.5627 J-1.8768
G3 X9.933 Y2.0527 I-2.0378 J-2.0347
G3 X9.5386 Y2.2921 I-1.6868 J-2.334
G3 X9.0908 Y2.4758 I-1.4256 J-2.8386
G3 X8.6203 Y2.5892 I-0.9778 J-3.0222
G3 X8.1604 Y2.6262 I-0.4598 J-2.8427
G3 X7.7006 Y2.5892 I0 J-2.8797
G3 X7.2301 Y2.4758 I0.5072 J-3.1357
G3 X6.7822 Y2.2921 I0.9778 J-3.0222
G3 X6.3879 Y2.0527 I1.2924 J-2.5734
G3 X6.0368 Y1.7534 I1.6868 J-2.334
G3 X5.7219 Y1.3858 I2.2478 J-2.2444
G3 X5.7098 Y1.3489 I0.0504 J-0.0369
G3 X5.7723 Y1.2864 I0.0625 J0
G1 X5.8973 Y1.2864
G3 X5.8348 Y1.2239 I0 J-0.0625
G1 X5.8348 Y1.1752
G1 Z-0.05 F15
G1 X5.8348 Y0.6752 F30
G1 Z-0.075 F15
G1 X5.8348 Y0.5989 F30
G3 X5.8973 Y0.5364 I0.0625 J0
G1 X6.8979 Y0.5364
G3 X6.9604 Y0.5989 I0 J0.0625
G1 X6.9604 Y0.5989
G1 X6.9604 Y1.9489
G1 Z-0.15 F15
G1 X6.9604 Y0.5989 F30
G1 X6.9604 Y0.5989
G3 X7.0229 Y0.5364 I0.0625 J0
G1 X7.0354 Y0.5364
G3 X7.0979 Y0.5989 I0 J0.0625
G1 X7.0979 Y0.4789
G3 X7.1604 Y0.4164 I0.0625 J0
G1 X7.8604 Y0.4164
G3 X7.9229 Y0.4789 I0 J0.0625
G1 X7.9229 Y0.5989
G3 X7.9854 Y0.5364 I0.0625 J0
G1 X8.0979 Y0.5364
G3 X8.1604 Y0.5989 I0 J0.0625
G3 X8.2229 Y0.5364 I0.0625 J0
G1 X8.3354 Y0.5364
G3 X8.3979 Y0.5989 I0 J0.0625
G1 X8.3979 Y0.4789
G3 X8.4604 Y0.4164 I0.0625 J0
G1 X9.1604 Y0.4164
G3 X9.2229 Y0.4789 I0 J0.0625
G1 X9.2229 Y0.5989
G3 X9.2854 Y0.5364 I0.0625 J0
G1 X9.2979 Y0.5364
G3 X9.3604 Y0.5989 I0 J0.0625
G3 X9.4229 Y0.5364 I0.0625 J0
G1 X10.4235 Y0.5364
G3 X10.486 Y0.5989 I0 J0.0625
G1 X10.486 Y0.6737
G1 Z-0.05 F15
G1 X10.486 Y1.1737 F30
G1 Z-0.15 F15
G1 X10.486 Y1.2239 F30
G3 X10.4235 Y1.2864 I-0.0625 J0
G1 X10.5485 Y1.2864
G3 X10.611 Y1.3489 I0 J0.0625
G3 X10.599 Y1.3858 I-0.0625 J0
G3 X10.2841 Y1.7534 I-2.5627 J-1.8768
G3 X9.933 Y2.0527 I-2.0378 J-2.0347
G3 X9.5386 Y2.2921 I-1.6868 J-2.334
G3 X9.0908 Y2.4758 I-1.4256 J-2.8386
G3 X8.6203 Y2.5892 I-0.9778 J-3.0222
G3 X8.1604 Y2.6262 I-0.4598 J-2.8427
G3 X7.7006 Y2.5892 I0 J-2.8797
G3 X7.2301 Y2.4758 I0.5072 J-3.1357
G3 X6.7822 Y2.2921 I0.9778 J-3.0222
G3 X6.3879 Y2.0527 I1.2924 J-2.5734
G3 X6.0368 Y1.7534 I1.6868 J-2.334
G3 X5.7219 Y1.3858 I2.2478 J-2.2444
G3 X5.7098 Y1.3489 I0.0504 J-0.0369
G3 X5.7723 Y1.2864 I0.0625 J0
G1 X5.8973 Y1.2864
G3 X5.8348 Y1.2239 I0 J-0.0625
G1 X5.8348 Y1.1752
G1 Z-0.05 F15
G1 X5.8348 Y0.6752 F30
G1 Z-0.15 F15
G1 X5.8348 Y0.5989 F30
G3 X5.8973 Y0.5364 I0.0625 J0
G1 X6.8979 Y0.5364
G3 X6.9604 Y0.5989 I0 J0.0625
G1 X6.9604 Y0.5989
G1 X6.9604 Y1.9489
G0 Z0.5
G0 X1.6398 Y0.5971
G1 Z-0.075 F15
G1 X1.6398 Y1.9471 F30
G1 X1.6398 Y0.5971
G1 X1.6398 Y0.5971
G3 X1.7023 Y0.5346 I0.0625 J0
G1 X1.7148 Y0.5346
G3 X1.7773 Y0.5971 I0 J0.0625
G1 X1.7773 Y0.4771
G3 X1.8398 Y0.4146 I0.0625 J0
G1 X2.5398 Y0.4146
G3 X2.6023 Y0.4771 I0 J0.0625
G1 X2.6023 Y0.5971
G3 X2.6648 Y0.5346 I0.0625 J0
G1 X2.7773 Y0.5346
G3 X2.8398 Y0.5971 I0 J0.0625
G3 X2.9023 Y0.5346 I0.0625 J0
G1 X3.0148 Y0.5346
G3 X3.0773 Y0.5971 I0 J0.0625
G1 X3.0773 Y0.4771
G3 X3.1398 Y0.4146 I0.0625 J0
G1 X3.8398 Y0.4146
G3 X3.9023 Y0.4771 I0 J0.0625
G1 X3.9023 Y0.5971
G3 X3.9648 Y0.5346 I0.0625 J0
G1 X3.9773 Y0.5346
G3 X4.0398 Y0.5971 I0 J0.0625
G3 X4.1023 Y0.5346 I0.0625 J0
G1 X5.1029 Y0.5346
G3 X5.1654 Y0.5971 I0 J0.0625
G1 X5.1654 Y0.6382
G1 Z-0.05 F15
G1 X5.1654 Y1.1382 F30
G1 Z-0.075 F15
G1 X5.1654 Y1.2221 F30
G3 X5.1029 Y1.2846 I-0.0625 J0
G1 X5.2279 Y1.2846
G3 X5.2904 Y1.3471 I0 J0.0625
G3 X5.2783 Y1.3841 I-0.0625 J0
G3 X4.9634 Y1.7516 I-2.5627 J-1.8768
G3 X4.6124 Y2.051 I-2.0378 J-2.0347
G3 X4.218 Y2.2904 I-1.6868 J-2.334
G3 X3.7702 Y2.474 I-1.4256 J-2.8386
G3 X3.2996 Y2.5875 I-0.9778 J-3.0222
G3 X2.8398 Y2.6244 I-0.4598 J-2.8427
G3 X2.3799 Y2.5875 I0 J-2.8797
G3 X1.9094 Y2.474 I0.5072 J-3.1357
G3 X1.4616 Y2.2904 I0.9778 J-3.0222
G3 X1.0672 Y2.051 I1.2924 J-2.5734
G3 X0.7162 Y1.7516 I1.6868 J-2.334
G3 X0.4013 Y1.3841 I2.2478 J-2.2444
G3 X0.3892 Y1.3471 I0.0504 J-0.0369
G3 X0.4517 Y1.2846 I0.0625 J0
G1 X0.5767 Y1.2846
G3 X0.5142 Y1.2221 I0 J-0.0625
G1 X0.5142 Y1.159
G1 Z-0.05 F15
G1 X0.5142 Y0.659 F30
G1 Z-0.075 F15
G1 X0.5142 Y0.5971 F30
G3 X0.5767 Y0.5346 I0.0625 J0
G1 X1.5773 Y0.5346
G3 X1.6398 Y0.5971 I0 J0.0625
G1 X1.6398 Y0.5971
G1 Z-0.15 F15
G1 X1.6398 Y1.9471 F30
G1 X1.6398 Y0.5971
G1 X1.6398 Y0.5971
G3 X1.7023 Y0.5346 I0.0625 J0
G1 X1.7148 Y0.5346
G3 X1.7773 Y0.5971 I0 J0.0625
G1 X1.7773 Y0.4771
G3 X1.8398 Y0.4146 I0.0625 J0
G1 X2.5398 Y0.4146
G3 X2.6023 Y0.4771 I0 J0.0625
G1 X2.6023 Y0.5971
G3 X2.6648 Y0.5346 I0.0625 J0
G1 X2.7773 Y0.5346
G3 X2.8398 Y0.5971 I0 J0.0625
G3 X2.9023 Y0.5346 I0.0625 J0
G1 X3.0148 Y0.5346
G3 X3.0773 Y0.5971 I0 J0.0625
G1 X3.0773 Y0.4771
G3 X3.1398 Y0.4146 I0.0625 J0
G1 X3.8398 Y0.4146
G3 X3.9023 Y0.4771 I0 J0.0625
G1 X3.9023 Y0.5971
G3 X3.9648 Y0.5346 I0.0625 J0
G1 X3.9773 Y0.5346
G3 X4.0398 Y0.5971 I0 J0.0625
G3 X4.1023 Y0.5346 I0.0625 J0
G1 X5.1029 Y0.5346
G3 X5.1654 Y0.5971 I0 J0.0625
G1 X5.1654 Y0.6382
G1 Z-0.05 F15
G1 X5.1654 Y1.1382 F30
G1 Z-0.15 F15
G1 X5.1654 Y1.2221 F30
G3 X5.1029 Y1.2846 I-0.0625 J0
G1 X5.2279 Y1.2846
G3 X5.2904 Y1.3471 I0 J0.0625
G3 X5.2783 Y1.3841 I-0.0625 J0
G3 X4.9634 Y1.7516 I-2.5627 J-1.8768
G3 X4.6124 Y2.051 I-2.0378 J-2.0347
G3 X4.218 Y2.2904 I-1.6868 J-2.334
G3 X3.7702 Y2.474 I-1.4256 J-2.8386
G3 X3.2996 Y2.5875 I-0.9778 J-3.0222
G3 X2.8398 Y2.6244 I-0.4598 J-2.8427
G3 X2.3799 Y2.5875 I0 J-2.8797
G3 X1.9094 Y2.474 I0.5072 J-3.1357
G3 X1.4616 Y2.2904 I0.9778 J-3.0222
G3 X1.0672 Y2.051 I1.2924 J-2.5734
G3 X0.7162 Y1.7516 I1.6868 J-2.334
G3 X0.4013 Y1.3841 I2.2478 J-2.2444
G3 X0.3892 Y1.3471 I0.0504 J-0.0369
G3 X0.4517 Y1.2846 I0.0625 J0
G1 X0.5767 Y1.2846
G3 X0.5142 Y1.2221 I0 J-0.0625
G1 X0.5142 Y1.159
G1 Z-0.05 F15
G1 X0.5142 Y0.659 F30
G1 Z-0.15 F15
G1 X0.5142 Y0.5971 F30
G3 X0.5767 Y0.5346 I0.0625 J0
G1 X1.5773 Y0.5346
G3 X1.6398 Y0.5971 I0 J0.0625
G1 X1.6398 Y0.5971

(follow path 2)
G0 Z0.5
G0 X1.6012 Y4.6547
G1 Z-0.075 F15
G1 X1.6012 Y3.3047 F30
G0 Z0.5
G0 X1.6012 Y4.6547
G1 Z-0.15 F15
G1 X1.6012 Y3.3047 F30
G0 Z0.5
G0 X2.8012 Y4.6547
G1 Z-0.075 F15
G1 X2.8012 Y3.3055 F30
G0 Z0.5
G0 X2.8012 Y4.6547
G1 Z-0.15 F15
G1 X2.8012 Y3.3055 F30
G0 Z0.5
G0 X4.0012 Y4.6547
G1 Z-0.075 F15
G1 X4.0012 Y3.3055 F30
G0 Z0.5
G0 X4.0012 Y4.6547
G1 Z-0.15 F15
G1 X4.0012 Y3.3055 F30
G0 Z0.5
G0 X1.6398 Y1.9471
G1 Z-0.075 F15
G1 X1.6398 Y0.5971 F30
G0 Z0.5
G0 X1.6398 Y1.9471
G1 Z-0.15 F15
G1 X1.6398 Y0.5971 F30
G0 Z0.5
G0 X2.8398 Y1.9471
G1 Z-0.075 F15
G1 X2.8398 Y0.5971 F30
G0 Z0.5
G0 X2.8398 Y1.9471
G1 Z-0.15 F15
G1 X2.8398 Y0.5971 F30
G0 Z0.5
G0 X4.0398 Y1.9471
G1 Z-0.075 F15
G1 X4.0398 Y0.5971 F30
G0 Z0.5
G0 X4.0398 Y1.9471
G1 Z-0.15 F15
G1 X4.0398 Y0.5971 F30

(follow path 3)
G0 Z0.5
G0 X6.9218 Y4.6565
G1 Z-0.075 F15
G1 X6.9218 Y3.3065 F30
G0 Z0.5
G0 X6.9218 Y4.6565
G1 Z-0.15 F15
G1 X6.9218 Y3.3065 F30
G0 Z0.5
G0 X8.1218 Y4.6565
G1 Z-0.075 F15
G1 X8.1218 Y3.3073 F30
G0 Z0.5
G0 X8.1218 Y4.6565
G1 Z-0.15 F15
G1 X8.1218 Y3.3073 F30
G0 Z0.5
G0 X9.3218 Y4.6565
G1 Z-0.075 F15
G1 X9.3218 Y3.3073 F30
G0 Z0.5
G0 X9.3218 Y4.6565
G1 Z-0.15 F15
G1 X9.3218 Y3.3073 F30
G0 Z0.5
G0 X6.9604 Y1.9489
G1 Z-0.075 F15
G1 X6.9604 Y0.5989 F30
G0 Z0.5
G0 X6.9604 Y1.9489
G1 Z-0.15 F15
G1 X6.9604 Y0.5989 F30
G0 Z0.5
G0 X8.1604 Y1.9489
G1 Z-0.075 F15
G1 X8.1604 Y0.5989 F30
G0 Z0.5
G0 X8.1604 Y1.9489
G1 Z-0.15 F15
G1 X8.1604 Y0.5989 F30
G0 Z0.5
G0 X9.3604 Y1.9489
G1 Z-0.075 F15
G1 X9.3604 Y0.5989 F30
G0 Z0.5
G0 X9.3604 Y1.9489
G1 Z-0.15 F15
G1 X9.3604 Y0.5989 F30
G0 Z0.5
M5
M30
