(Generated by PartKam Version 0.05)

G20 G90 G40

(profile 1)
G0 Z0.5
T0 M6
G17
M3
G0 X1.8005 Y9.7853
G1 Z-0.075 F15
G1 X2.2312 Y10.4004 F30
G1 Z-0.05 F15
G1 X2.518 Y10.81 F30
G1 Z-0.075 F15
G1 X3.1273 Y11.6801 F30
G3 X3.1386 Y11.716 I-0.0512 J0.0358
G1 X3.1386 Y12.4575
G3 X3.0761 Y12.52 I-0.0625 J0
G3 X3.1386 Y12.5825 I0 J0.0625
G1 X3.1386 Y13.645
G3 X3.0761 Y13.7075 I-0.0625 J0
G1 X2.5911 Y13.7075
G3 X2.5286 Y13.645 I0 J-0.0625
G1 X2.5286 Y13.77
G3 X2.4661 Y13.8325 I-0.0625 J0
G1 X2.2171 Y13.8325
G1 Z-0.05 F15
G1 X1.7171 Y13.8325 F30
G1 Z-0.075 F15
G1 X1.1161 Y13.8325 F30
G3 X1.0536 Y13.77 I0 J-0.0625
G1 X1.0536 Y13.145
G3 X1.1161 Y13.0825 I0.0625 J0
G1 X0.9961 Y13.0825
G3 X0.9336 Y13.02 I0 J-0.0625
G1 X0.9336 Y12.02
G3 X0.9961 Y11.9575 I0.0625 J0
G1 X1.1161 Y11.9575
G3 X1.0536 Y11.895 I0 J-0.0625
G1 X1.0536 Y11.395
G3 X1.1161 Y11.3325 I0.0625 J0
G1 X0.9961 Y11.3325
G3 X0.9336 Y11.27 I0 J-0.0625
G1 X0.9336 Y11.0484
G1 Z-0.05 F15
G1 X0.9336 Y10.5484 F30
G1 Z-0.075 F15
G1 X0.9336 Y10.27 F30
G3 X0.9961 Y10.2075 I0.0625 J0
G1 X1.1161 Y10.2075
G3 X1.0536 Y10.145 I0 J-0.0625
G1 X1.0536 Y9.745
G3 X1.1161 Y9.6825 I0.0625 J0
G1 X0.9961 Y9.6825
G3 X0.9336 Y9.62 I0 J-0.0625
G1 X0.9336 Y8.62
G3 X0.9961 Y8.5575 I0.0625 J0
G1 X1.1161 Y8.5575
G3 X1.0536 Y8.495 I0 J-0.0625
G1 X1.0536 Y7.312
G3 X1.1161 Y7.2495 I0.0625 J0
G1 X1.7411 Y7.2495
G3 X1.8036 Y7.312 I0 J0.0625
G1 X1.8036 Y8.645
G3 X1.7411 Y8.7075 I-0.0625 J0
G1 X1.8036 Y8.7075
G3 X1.8661 Y8.77 I0 J0.0625
G1 X1.8661 Y9.27
G3 X1.8036 Y9.3325 I-0.0625 J0
G1 X1.7411 Y9.3325
G3 X1.8036 Y9.395 I0 J0.0625
G1 X1.8036 Y9.766
G3 X1.8005 Y9.7853 I-0.0625 J0
G1 Z-0.15 F15
G1 X2.2312 Y10.4004 F30
G1 Z-0.05 F15
G1 X2.518 Y10.81 F30
G1 Z-0.15 F15
G1 X3.1273 Y11.6801 F30
G3 X3.1386 Y11.716 I-0.0512 J0.0358
G1 X3.1386 Y12.4575
G3 X3.0761 Y12.52 I-0.0625 J0
G3 X3.1386 Y12.5825 I0 J0.0625
G1 X3.1386 Y13.645
G3 X3.0761 Y13.7075 I-0.0625 J0
G1 X2.5911 Y13.7075
G3 X2.5286 Y13.645 I0 J-0.0625
G1 X2.5286 Y13.77
G3 X2.4661 Y13.8325 I-0.0625 J0
G1 X2.2171 Y13.8325
G1 Z-0.05 F15
G1 X1.7171 Y13.8325 F30
G1 Z-0.15 F15
G1 X1.1161 Y13.8325 F30
G3 X1.0536 Y13.77 I0 J-0.0625
G1 X1.0536 Y13.145
G3 X1.1161 Y13.0825 I0.0625 J0
G1 X0.9961 Y13.0825
G3 X0.9336 Y13.02 I0 J-0.0625
G1 X0.9336 Y12.02
G3 X0.9961 Y11.9575 I0.0625 J0
G1 X1.1161 Y11.9575
G3 X1.0536 Y11.895 I0 J-0.0625
G1 X1.0536 Y11.395
G3 X1.1161 Y11.3325 I0.0625 J0
G1 X0.9961 Y11.3325
G3 X0.9336 Y11.27 I0 J-0.0625
G1 X0.9336 Y11.0484
G1 Z-0.05 F15
G1 X0.9336 Y10.5484 F30
G1 Z-0.15 F15
G1 X0.9336 Y10.27 F30
G3 X0.9961 Y10.2075 I0.0625 J0
G1 X1.1161 Y10.2075
G3 X1.0536 Y10.145 I0 J-0.0625
G1 X1.0536 Y9.745
G3 X1.1161 Y9.6825 I0.0625 J0
G1 X0.9961 Y9.6825
G3 X0.9336 Y9.62 I0 J-0.0625
G1 X0.9336 Y8.62
G3 X0.9961 Y8.5575 I0.0625 J0
G1 X1.1161 Y8.5575
G3 X1.0536 Y8.495 I0 J-0.0625
G1 X1.0536 Y7.312
G3 X1.1161 Y7.2495 I0.0625 J0
G1 X1.7411 Y7.2495
G3 X1.8036 Y7.312 I0 J0.0625
G1 X1.8036 Y8.645
G3 X1.7411 Y8.7075 I-0.0625 J0
G1 X1.8036 Y8.7075
G3 X1.8661 Y8.77 I0 J0.0625
G1 X1.8661 Y9.27
G3 X1.8036 Y9.3325 I-0.0625 J0
G1 X1.7411 Y9.3325
G3 X1.8036 Y9.395 I0 J0.0625
G1 X1.8036 Y9.766
G3 X1.8005 Y9.7853 I-0.0625 J0
G0 Z0.5
G0 X4.4319 Y9.0368
G1 Z-0.075 F15
G1 X4.7519 Y9.4938 F30
G1 Z-0.05 F15
G1 X5.0387 Y9.9034 F30
G1 Z-0.075 F15
G1 X5.5494 Y10.6328 F30
G3 X5.5607 Y10.6686 I-0.0512 J0.0358
G1 X5.5607 Y11.709
G3 X5.4982 Y11.7715 I-0.0625 J0
G3 X5.5607 Y11.834 I0 J0.0625
G1 X5.5607 Y12.8965
G3 X5.4982 Y12.959 I-0.0625 J0
G1 X5.2225 Y12.959
G3 X5.16 Y12.8965 I0 J-0.0625
G1 X5.16 Y13.0215
G3 X5.0975 Y13.084 I-0.0625 J0
G1 X4.6734 Y13.084
G1 Z-0.05 F15
G1 X4.1734 Y13.084 F30
G1 Z-0.075 F15
G1 X3.7475 Y13.084 F30
G3 X3.685 Y13.0215 I0 J-0.0625
G1 X3.685 Y12.3965
G3 X3.7475 Y12.334 I0.0625 J0
G1 X3.6275 Y12.334
G3 X3.565 Y12.2715 I0 J-0.0625
G1 X3.565 Y11.2715
G3 X3.6275 Y11.209 I0.0625 J0
G1 X3.7475 Y11.209
G3 X3.685 Y11.1465 I0 J-0.0625
G1 X3.685 Y10.6465
G3 X3.7475 Y10.584 I0.0625 J0
G1 X3.6275 Y10.584
G3 X3.565 Y10.5215 I0 J-0.0625
G1 X3.565 Y10.271
G1 Z-0.05 F15
G1 X3.565 Y9.771 F30
G1 Z-0.075 F15
G1 X3.565 Y9.5215 F30
G3 X3.6275 Y9.459 I0.0625 J0
G1 X3.7475 Y9.459
G3 X3.685 Y9.3965 I0 J-0.0625
G1 X3.685 Y8.9965
G3 X3.7475 Y8.934 I0.0625 J0
G1 X3.6275 Y8.934
G3 X3.565 Y8.8715 I0 J-0.0625
G1 X3.565 Y7.8715
G3 X3.6275 Y7.809 I0.0625 J0
G1 X3.7475 Y7.809
G3 X3.685 Y7.7465 I0 J-0.0625
G1 X3.685 Y6.7682
G3 X3.7475 Y6.7057 I0.0625 J0
G1 X4.3725 Y6.7057
G3 X4.435 Y6.7682 I0 J0.0625
G1 X4.435 Y7.8965
G3 X4.3725 Y7.959 I-0.0625 J0
G1 X4.435 Y7.959
G3 X4.4975 Y8.0215 I0 J0.0625
G1 X4.4975 Y8.5215
G3 X4.435 Y8.584 I-0.0625 J0
G1 X4.3725 Y8.584
G3 X4.435 Y8.6465 I0 J0.0625
G1 X4.435 Y9.0175
G3 X4.4319 Y9.0368 I-0.0625 J0
G1 Z-0.15 F15
G1 X4.7519 Y9.4938 F30
G1 Z-0.05 F15
G1 X5.0387 Y9.9034 F30
G1 Z-0.15 F15
G1 X5.5494 Y10.6328 F30
G3 X5.5607 Y10.6686 I-0.0512 J0.0358
G1 X5.5607 Y11.709
G3 X5.4982 Y11.7715 I-0.0625 J0
G3 X5.5607 Y11.834 I0 J0.0625
G1 X5.5607 Y12.8965
G3 X5.4982 Y12.959 I-0.0625 J0
G1 X5.2225 Y12.959
G3 X5.16 Y12.8965 I0 J-0.0625
G1 X5.16 Y13.0215
G3 X5.0975 Y13.084 I-0.0625 J0
G1 X4.6734 Y13.084
G1 Z-0.05 F15
G1 X4.1734 Y13.084 F30
G1 Z-0.15 F15
G1 X3.7475 Y13.084 F30
G3 X3.685 Y13.0215 I0 J-0.0625
G1 X3.685 Y12.3965
G3 X3.7475 Y12.334 I0.0625 J0
G1 X3.6275 Y12.334
G3 X3.565 Y12.2715 I0 J-0.0625
G1 X3.565 Y11.2715
G3 X3.6275 Y11.209 I0.0625 J0
G1 X3.7475 Y11.209
G3 X3.685 Y11.1465 I0 J-0.0625
G1 X3.685 Y10.6465
G3 X3.7475 Y10.584 I0.0625 J0
G1 X3.6275 Y10.584
G3 X3.565 Y10.5215 I0 J-0.0625
G1 X3.565 Y10.271
G1 Z-0.05 F15
G1 X3.565 Y9.771 F30
G1 Z-0.15 F15
G1 X3.565 Y9.5215 F30
G3 X3.6275 Y9.459 I0.0625 J0
G1 X3.7475 Y9.459
G3 X3.685 Y9.3965 I0 J-0.0625
G1 X3.685 Y8.9965
G3 X3.7475 Y8.934 I0.0625 J0
G1 X3.6275 Y8.934
G3 X3.565 Y8.8715 I0 J-0.0625
G1 X3.565 Y7.8715
G3 X3.6275 Y7.809 I0.0625 J0
G1 X3.7475 Y7.809
G3 X3.685 Y7.7465 I0 J-0.0625
G1 X3.685 Y6.7682
G3 X3.7475 Y6.7057 I0.0625 J0
G1 X4.3725 Y6.7057
G3 X4.435 Y6.7682 I0 J0.0625
G1 X4.435 Y7.8965
G3 X4.3725 Y7.959 I-0.0625 J0
G1 X4.435 Y7.959
G3 X4.4975 Y8.0215 I0 J0.0625
G1 X4.4975 Y8.5215
G3 X4.435 Y8.584 I-0.0625 J0
G1 X4.3725 Y8.584
G3 X4.435 Y8.6465 I0 J0.0625
G1 X4.435 Y9.0175
G3 X4.4319 Y9.0368 I-0.0625 J0
G0 Z0.5
G0 X7.0425 Y8.9847
G1 Z-0.075 F15
G1 X7.4019 Y9.498 F30
G1 Z-0.05 F15
G1 X7.6887 Y9.9075 F30
G1 Z-0.075 F15
G1 X8.16 Y10.5806 F30
G3 X8.1713 Y10.6164 I-0.0512 J0.0358
G1 X8.1713 Y11.6569
G3 X8.1088 Y11.7194 I-0.0625 J0
G3 X8.1713 Y11.7819 I0 J0.0625
G1 X8.1713 Y12.8444
G3 X8.1088 Y12.9069 I-0.0625 J0
G1 X7.8331 Y12.9069
G3 X7.7706 Y12.8444 I0 J-0.0625
G1 X7.7706 Y12.9694
G3 X7.7081 Y13.0319 I-0.0625 J0
G1 X7.4215 Y13.0319
G1 Z-0.05 F15
G1 X6.9215 Y13.0319 F30
G1 Z-0.075 F15
G1 X6.3581 Y13.0319 F30
G3 X6.2956 Y12.9694 I0 J-0.0625
G1 X6.2956 Y12.3444
G3 X6.3581 Y12.2819 I0.0625 J0
G1 X6.2381 Y12.2819
G3 X6.1756 Y12.2194 I0 J-0.0625
G1 X6.1756 Y11.2194
G3 X6.2381 Y11.1569 I0.0625 J0
G1 X6.3581 Y11.1569
G3 X6.2956 Y11.0944 I0 J-0.0625
G1 X6.2956 Y10.5944
G3 X6.3581 Y10.5319 I0.0625 J0
G1 X6.2381 Y10.5319
G3 X6.1756 Y10.4694 I0 J-0.0625
G1 X6.1756 Y10.2188
G1 Z-0.05 F15
G1 X6.1756 Y9.7188 F30
G1 Z-0.075 F15
G1 X6.1756 Y9.4694 F30
G3 X6.2381 Y9.4069 I0.0625 J0
G1 X6.3581 Y9.4069
G3 X6.2956 Y9.3444 I0 J-0.0625
G1 X6.2956 Y8.9444
G3 X6.3581 Y8.8819 I0.0625 J0
G1 X6.2381 Y8.8819
G3 X6.1756 Y8.8194 I0 J-0.0625
G1 X6.1756 Y7.8194
G3 X6.2381 Y7.7569 I0.0625 J0
G1 X6.3581 Y7.7569
G3 X6.2956 Y7.6944 I0 J-0.0625
G1 X6.2956 Y6.7161
G3 X6.3581 Y6.6536 I0.0625 J0
G1 X6.9831 Y6.6536
G3 X7.0456 Y6.7161 I0 J0.0625
G1 X7.0456 Y7.8444
G3 X6.9831 Y7.9069 I-0.0625 J0
G1 X7.0456 Y7.9069
G3 X7.1081 Y7.9694 I0 J0.0625
G1 X7.1081 Y8.4694
G3 X7.0456 Y8.5319 I-0.0625 J0
G1 X6.9831 Y8.5319
G3 X7.0456 Y8.5944 I0 J0.0625
G1 X7.0456 Y8.9653
G3 X7.0425 Y8.9847 I-0.0625 J0
G1 Z-0.15 F15
G1 X7.4019 Y9.498 F30
G1 Z-0.05 F15
G1 X7.6887 Y9.9075 F30
G1 Z-0.15 F15
G1 X8.16 Y10.5806 F30
G3 X8.1713 Y10.6164 I-0.0512 J0.0358
G1 X8.1713 Y11.6569
G3 X8.1088 Y11.7194 I-0.0625 J0
G3 X8.1713 Y11.7819 I0 J0.0625
G1 X8.1713 Y12.8444
G3 X8.1088 Y12.9069 I-0.0625 J0
G1 X7.8331 Y12.9069
G3 X7.7706 Y12.8444 I0 J-0.0625
G1 X7.7706 Y12.9694
G3 X7.7081 Y13.0319 I-0.0625 J0
G1 X7.4215 Y13.0319
G1 Z-0.05 F15
G1 X6.9215 Y13.0319 F30
G1 Z-0.15 F15
G1 X6.3581 Y13.0319 F30
G3 X6.2956 Y12.9694 I0 J-0.0625
G1 X6.2956 Y12.3444
G3 X6.3581 Y12.2819 I0.0625 J0
G1 X6.2381 Y12.2819
G3 X6.1756 Y12.2194 I0 J-0.0625
G1 X6.1756 Y11.2194
G3 X6.2381 Y11.1569 I0.0625 J0
G1 X6.3581 Y11.1569
G3 X6.2956 Y11.0944 I0 J-0.0625
G1 X6.2956 Y10.5944
G3 X6.3581 Y10.5319 I0.0625 J0
G1 X6.2381 Y10.5319
G3 X6.1756 Y10.4694 I0 J-0.0625
G1 X6.1756 Y10.2188
G1 Z-0.05 F15
G1 X6.1756 Y9.7188 F30
G1 Z-0.15 F15
G1 X6.1756 Y9.4694 F30
G3 X6.2381 Y9.4069 I0.0625 J0
G1 X6.3581 Y9.4069
G3 X6.2956 Y9.3444 I0 J-0.0625
G1 X6.2956 Y8.9444
G3 X6.3581 Y8.8819 I0.0625 J0
G1 X6.2381 Y8.8819
G3 X6.1756 Y8.8194 I0 J-0.0625
G1 X6.1756 Y7.8194
G3 X6.2381 Y7.7569 I0.0625 J0
G1 X6.3581 Y7.7569
G3 X6.2956 Y7.6944 I0 J-0.0625
G1 X6.2956 Y6.7161
G3 X6.3581 Y6.6536 I0.0625 J0
G1 X6.9831 Y6.6536
G3 X7.0456 Y6.7161 I0 J0.0625
G1 X7.0456 Y7.8444
G3 X6.9831 Y7.9069 I-0.0625 J0
G1 X7.0456 Y7.9069
G3 X7.1081 Y7.9694 I0 J0.0625
G1 X7.1081 Y8.4694
G3 X7.0456 Y8.5319 I-0.0625 J0
G1 X6.9831 Y8.5319
G3 X7.0456 Y8.5944 I0 J0.0625
G1 X7.0456 Y8.9653
G3 X7.0425 Y8.9847 I-0.0625 J0
G0 Z0.5
G0 X1.4431 Y2.6922
G1 Z-0.075 F15
G1 X1.7335 Y3.107 F30
G1 Z-0.05 F15
G1 X2.0203 Y3.5165 F30
G1 Z-0.075 F15
G1 X2.5606 Y4.2881 F30
G3 X2.5719 Y4.324 I-0.0512 J0.0358
G1 X2.5719 Y5.3644
G3 X2.5094 Y5.4269 I-0.0625 J0
G3 X2.5719 Y5.4894 I0 J0.0625
G1 X2.5719 Y6.5519
G3 X2.5094 Y6.6144 I-0.0625 J0
G1 X2.2337 Y6.6144
G3 X2.1712 Y6.5519 I0 J-0.0625
G1 X2.1712 Y6.6769
G3 X2.1087 Y6.7394 I-0.0625 J0
G1 X1.6502 Y6.7394
G1 Z-0.05 F15
G1 X1.1502 Y6.7394 F30
G1 Z-0.075 F15
G1 X0.7587 Y6.7394 F30
G3 X0.6962 Y6.6769 I0 J-0.0625
G1 X0.6962 Y6.0519
G3 X0.7587 Y5.9894 I0.0625 J0
G1 X0.6387 Y5.9894
G3 X0.5762 Y5.9269 I0 J-0.0625
G1 X0.5762 Y4.9269
G3 X0.6387 Y4.8644 I0.0625 J0
G1 X0.7587 Y4.8644
G3 X0.6962 Y4.8019 I0 J-0.0625
G1 X0.6962 Y4.3019
G3 X0.7587 Y4.2394 I0.0625 J0
G1 X0.6387 Y4.2394
G3 X0.5762 Y4.1769 I0 J-0.0625
G1 X0.5762 Y3.9092
G1 Z-0.05 F15
G1 X0.5762 Y3.4092 F30
G1 Z-0.075 F15
G1 X0.5762 Y3.1769 F30
G3 X0.6387 Y3.1144 I0.0625 J0
G1 X0.7587 Y3.1144
G3 X0.6962 Y3.0519 I0 J-0.0625
G1 X0.6962 Y2.6519
G3 X0.7587 Y2.5894 I0.0625 J0
G1 X0.6387 Y2.5894
G3 X0.5762 Y2.5269 I0 J-0.0625
G1 X0.5762 Y1.5269
G3 X0.6387 Y1.4644 I0.0625 J0
G1 X0.7587 Y1.4644
G3 X0.6962 Y1.4019 I0 J-0.0625
G1 X0.6962 Y0.4236
G3 X0.7587 Y0.3611 I0.0625 J0
G1 X1.3837 Y0.3611
G3 X1.4462 Y0.4236 I0 J0.0625
G1 X1.4462 Y1.5519
G3 X1.3837 Y1.6144 I-0.0625 J0
G1 X1.4462 Y1.6144
G3 X1.5087 Y1.6769 I0 J0.0625
G1 X1.5087 Y2.1769
G3 X1.4462 Y2.2394 I-0.0625 J0
G1 X1.3837 Y2.2394
G3 X1.4462 Y2.3019 I0 J0.0625
G1 X1.4462 Y2.6729
G3 X1.4431 Y2.6922 I-0.0625 J0
G1 Z-0.15 F15
G1 X1.7335 Y3.107 F30
G1 Z-0.05 F15
G1 X2.0203 Y3.5165 F30
G1 Z-0.15 F15
G1 X2.5606 Y4.2881 F30
G3 X2.5719 Y4.324 I-0.0512 J0.0358
G1 X2.5719 Y5.3644
G3 X2.5094 Y5.4269 I-0.0625 J0
G3 X2.5719 Y5.4894 I0 J0.0625
G1 X2.5719 Y6.5519
G3 X2.5094 Y6.6144 I-0.0625 J0
G1 X2.2337 Y6.6144
G3 X2.1712 Y6.5519 I0 J-0.0625
G1 X2.1712 Y6.6769
G3 X2.1087 Y6.7394 I-0.0625 J0
G1 X1.6502 Y6.7394
G1 Z-0.05 F15
G1 X1.1502 Y6.7394 F30
G1 Z-0.15 F15
G1 X0.7587 Y6.7394 F30
G3 X0.6962 Y6.6769 I0 J-0.0625
G1 X0.6962 Y6.0519
G3 X0.7587 Y5.9894 I0.0625 J0
G1 X0.6387 Y5.9894
G3 X0.5762 Y5.9269 I0 J-0.0625
G1 X0.5762 Y4.9269
G3 X0.6387 Y4.8644 I0.0625 J0
G1 X0.7587 Y4.8644
G3 X0.6962 Y4.8019 I0 J-0.0625
G1 X0.6962 Y4.3019
G3 X0.7587 Y4.2394 I0.0625 J0
G1 X0.6387 Y4.2394
G3 X0.5762 Y4.1769 I0 J-0.0625
G1 X0.5762 Y3.9092
G1 Z-0.05 F15
G1 X0.5762 Y3.4092 F30
G1 Z-0.15 F15
G1 X0.5762 Y3.1769 F30
G3 X0.6387 Y3.1144 I0.0625 J0
G1 X0.7587 Y3.1144
G3 X0.6962 Y3.0519 I0 J-0.0625
G1 X0.6962 Y2.6519
G3 X0.7587 Y2.5894 I0.0625 J0
G1 X0.6387 Y2.5894
G3 X0.5762 Y2.5269 I0 J-0.0625
G1 X0.5762 Y1.5269
G3 X0.6387 Y1.4644 I0.0625 J0
G1 X0.7587 Y1.4644
G3 X0.6962 Y1.4019 I0 J-0.0625
G1 X0.6962 Y0.4236
G3 X0.7587 Y0.3611 I0.0625 J0
G1 X1.3837 Y0.3611
G3 X1.4462 Y0.4236 I0 J0.0625
G1 X1.4462 Y1.5519
G3 X1.3837 Y1.6144 I-0.0625 J0
G1 X1.4462 Y1.6144
G3 X1.5087 Y1.6769 I0 J0.0625
G1 X1.5087 Y2.1769
G3 X1.4462 Y2.2394 I-0.0625 J0
G1 X1.3837 Y2.2394
G3 X1.4462 Y2.3019 I0 J0.0625
G1 X1.4462 Y2.6729
G3 X1.4431 Y2.6922 I-0.0625 J0
G0 Z0.5
G0 X8.4756 Y2.5115
G1 Z-0.075 F15
G1 X8.4756 Y4.3231 F30
G3 X8.4131 Y4.3856 I-0.0625 J0
G1 X8.3506 Y4.3856
G1 X8.3506 Y4.7606
G1 X8.4131 Y4.7606
G3 X8.4756 Y4.8231 I0 J0.0625
G1 X8.4756 Y5.5731
G3 X8.4131 Y5.6356 I-0.0625 J0
G1 X8.3506 Y5.6356
G1 X8.3506 Y5.8231
G3 X8.2881 Y5.8856 I-0.0625 J0
G1 X8.1483 Y5.8856
G1 Z-0.05 F15
G1 X7.6483 Y5.8856 F30
G1 Z-0.075 F15
G1 X7.5381 Y5.8856 F30
G3 X7.4756 Y5.8231 I0 J-0.0625
G1 X7.4756 Y5.1981
G3 X7.5381 Y5.1356 I0.0625 J0
G1 X7.4181 Y5.1356
G3 X7.3556 Y5.0731 I0 J-0.0625
G1 X7.3556 Y4.0731
G3 X7.4181 Y4.0106 I0.0625 J0
G1 X7.5381 Y4.0106
G3 X7.4756 Y3.9481 I0 J-0.0625
G1 X7.4756 Y3.4481
G3 X7.5381 Y3.3856 I0.0625 J0
G1 X7.4181 Y3.3856
G3 X7.3556 Y3.3231 I0 J-0.0625
G1 X7.3556 Y2.3231
G3 X7.4181 Y2.2606 I0.0625 J0
G1 X7.5381 Y2.2606
G3 X7.4756 Y2.1981 I0 J-0.0625
G1 X7.4756 Y1.7981
G3 X7.5381 Y1.7356 I0.0625 J0
G1 X7.4181 Y1.7356
G3 X7.3556 Y1.6731 I0 J-0.0625
G1 X7.3556 Y0.6731
G3 X7.4181 Y0.6106 I0.0625 J0
G1 X7.5381 Y0.6106
G3 X7.4756 Y0.5481 I0 J-0.0625
G1 X7.4756 Y0.4481
G3 X7.5381 Y0.3856 I0.0625 J0
G1 X7.6069 Y0.3856
G1 Z-0.05 F15
G1 X8.1069 Y0.3856 F30
G1 Z-0.075 F15
G1 X8.1631 Y0.3856 F30
G3 X8.2256 Y0.4481 I0 J0.0625
G1 X8.2256 Y0.6981
G3 X8.1631 Y0.7606 I-0.0625 J0
G1 X8.2256 Y0.7606
G3 X8.2881 Y0.8231 I0 J0.0625
G1 X8.2881 Y1.3231
G3 X8.2256 Y1.3856 I-0.0625 J0
G1 X8.1631 Y1.3856
G3 X8.2256 Y1.4481 I0 J0.0625
G1 X8.2256 Y1.8191
G3 X8.2226 Y1.8384 I-0.0625 J0
G1 X8.3393 Y2.0052
G3 X8.3506 Y2.041 I-0.0512 J0.0358
G1 X8.3506 Y2.449
G1 X8.4131 Y2.449
G3 X8.4756 Y2.5115 I0 J0.0625
G1 Z-0.15 F15
G1 X8.4756 Y4.3231 F30
G3 X8.4131 Y4.3856 I-0.0625 J0
G1 X8.3506 Y4.3856
G1 X8.3506 Y4.7606
G1 X8.4131 Y4.7606
G3 X8.4756 Y4.8231 I0 J0.0625
G1 X8.4756 Y5.5731
G3 X8.4131 Y5.6356 I-0.0625 J0
G1 X8.3506 Y5.6356
G1 X8.3506 Y5.8231
G3 X8.2881 Y5.8856 I-0.0625 J0
G1 X8.1483 Y5.8856
G1 Z-0.05 F15
G1 X7.6483 Y5.8856 F30
G1 Z-0.15 F15
G1 X7.5381 Y5.8856 F30
G3 X7.4756 Y5.8231 I0 J-0.0625
G1 X7.4756 Y5.1981
G3 X7.5381 Y5.1356 I0.0625 J0
G1 X7.4181 Y5.1356
G3 X7.3556 Y5.0731 I0 J-0.0625
G1 X7.3556 Y4.0731
G3 X7.4181 Y4.0106 I0.0625 J0
G1 X7.5381 Y4.0106
G3 X7.4756 Y3.9481 I0 J-0.0625
G1 X7.4756 Y3.4481
G3 X7.5381 Y3.3856 I0.0625 J0
G1 X7.4181 Y3.3856
G3 X7.3556 Y3.3231 I0 J-0.0625
G1 X7.3556 Y2.3231
G3 X7.4181 Y2.2606 I0.0625 J0
G1 X7.5381 Y2.2606
G3 X7.4756 Y2.1981 I0 J-0.0625
G1 X7.4756 Y1.7981
G3 X7.5381 Y1.7356 I0.0625 J0
G1 X7.4181 Y1.7356
G3 X7.3556 Y1.6731 I0 J-0.0625
G1 X7.3556 Y0.6731
G3 X7.4181 Y0.6106 I0.0625 J0
G1 X7.5381 Y0.6106
G3 X7.4756 Y0.5481 I0 J-0.0625
G1 X7.4756 Y0.4481
G3 X7.5381 Y0.3856 I0.0625 J0
G1 X7.6069 Y0.3856
G1 Z-0.05 F15
G1 X8.1069 Y0.3856 F30
G1 Z-0.15 F15
G1 X8.1631 Y0.3856 F30
G3 X8.2256 Y0.4481 I0 J0.0625
G1 X8.2256 Y0.6981
G3 X8.1631 Y0.7606 I-0.0625 J0
G1 X8.2256 Y0.7606
G3 X8.2881 Y0.8231 I0 J0.0625
G1 X8.2881 Y1.3231
G3 X8.2256 Y1.3856 I-0.0625 J0
G1 X8.1631 Y1.3856
G3 X8.2256 Y1.4481 I0 J0.0625
G1 X8.2256 Y1.8191
G3 X8.2226 Y1.8384 I-0.0625 J0
G1 X8.3393 Y2.0052
G3 X8.3506 Y2.041 I-0.0512 J0.0358
G1 X8.3506 Y2.449
G1 X8.4131 Y2.449
G3 X8.4756 Y2.5115 I0 J0.0625
G0 Z0.5
G0 X6.6917 Y2.5081
G1 Z-0.075 F15
G1 X6.6917 Y4.3198 F30
G3 X6.6292 Y4.3823 I-0.0625 J0
G1 X6.5667 Y4.3823
G1 X6.5667 Y4.7573
G1 X6.6292 Y4.7573
G3 X6.6917 Y4.8198 I0 J0.0625
G1 X6.6917 Y5.5698
G3 X6.6292 Y5.6323 I-0.0625 J0
G1 X6.5667 Y5.6323
G1 X6.5667 Y5.8198
G3 X6.5042 Y5.8823 I-0.0625 J0
G1 X6.3931 Y5.8823
G1 Z-0.05 F15
G1 X5.8931 Y5.8823 F30
G1 Z-0.075 F15
G1 X5.7542 Y5.8823 F30
G3 X5.6917 Y5.8198 I0 J-0.0625
G1 X5.6917 Y5.1948
G3 X5.7542 Y5.1323 I0.0625 J0
G1 X5.6342 Y5.1323
G3 X5.5717 Y5.0698 I0 J-0.0625
G1 X5.5717 Y4.0698
G3 X5.6342 Y4.0073 I0.0625 J0
G1 X5.7542 Y4.0073
G3 X5.6917 Y3.9448 I0 J-0.0625
G1 X5.6917 Y3.4448
G3 X5.7542 Y3.3823 I0.0625 J0
G1 X5.6342 Y3.3823
G3 X5.5717 Y3.3198 I0 J-0.0625
G1 X5.5717 Y2.3198
G3 X5.6342 Y2.2573 I0.0625 J0
G1 X5.7542 Y2.2573
G3 X5.6917 Y2.1948 I0 J-0.0625
G1 X5.6917 Y1.7948
G3 X5.7542 Y1.7323 I0.0625 J0
G1 X5.6342 Y1.7323
G3 X5.5717 Y1.6698 I0 J-0.0625
G1 X5.5717 Y0.6698
G3 X5.6342 Y0.6073 I0.0625 J0
G1 X5.7542 Y0.6073
G3 X5.6917 Y0.5448 I0 J-0.0625
G1 X5.6917 Y0.4448
G3 X5.7542 Y0.3823 I0.0625 J0
G1 X5.823 Y0.3823
G1 Z-0.05 F15
G1 X6.323 Y0.3823 F30
G1 Z-0.075 F15
G1 X6.3792 Y0.3823 F30
G3 X6.4417 Y0.4448 I0 J0.0625
G1 X6.4417 Y0.6948
G3 X6.3792 Y0.7573 I-0.0625 J0
G1 X6.4417 Y0.7573
G3 X6.5042 Y0.8198 I0 J0.0625
G1 X6.5042 Y1.3198
G3 X6.4417 Y1.3823 I-0.0625 J0
G1 X6.3792 Y1.3823
G3 X6.4417 Y1.4448 I0 J0.0625
G1 X6.4417 Y1.8157
G3 X6.4387 Y1.8351 I-0.0625 J0
G1 X6.5554 Y2.0019
G3 X6.5667 Y2.0377 I-0.0512 J0.0358
G1 X6.5667 Y2.4456
G1 X6.6292 Y2.4456
G3 X6.6917 Y2.5081 I0 J0.0625
G1 Z-0.15 F15
G1 X6.6917 Y4.3198 F30
G3 X6.6292 Y4.3823 I-0.0625 J0
G1 X6.5667 Y4.3823
G1 X6.5667 Y4.7573
G1 X6.6292 Y4.7573
G3 X6.6917 Y4.8198 I0 J0.0625
G1 X6.6917 Y5.5698
G3 X6.6292 Y5.6323 I-0.0625 J0
G1 X6.5667 Y5.6323
G1 X6.5667 Y5.8198
G3 X6.5042 Y5.8823 I-0.0625 J0
G1 X6.3931 Y5.8823
G1 Z-0.05 F15
G1 X5.8931 Y5.8823 F30
G1 Z-0.15 F15
G1 X5.7542 Y5.8823 F30
G3 X5.6917 Y5.8198 I0 J-0.0625
G1 X5.6917 Y5.1948
G3 X5.7542 Y5.1323 I0.0625 J0
G1 X5.6342 Y5.1323
G3 X5.5717 Y5.0698 I0 J-0.0625
G1 X5.5717 Y4.0698
G3 X5.6342 Y4.0073 I0.0625 J0
G1 X5.7542 Y4.0073
G3 X5.6917 Y3.9448 I0 J-0.0625
G1 X5.6917 Y3.4448
G3 X5.7542 Y3.3823 I0.0625 J0
G1 X5.6342 Y3.3823
G3 X5.5717 Y3.3198 I0 J-0.0625
G1 X5.5717 Y2.3198
G3 X5.6342 Y2.2573 I0.0625 J0
G1 X5.7542 Y2.2573
G3 X5.6917 Y2.1948 I0 J-0.0625
G1 X5.6917 Y1.7948
G3 X5.7542 Y1.7323 I0.0625 J0
G1 X5.6342 Y1.7323
G3 X5.5717 Y1.6698 I0 J-0.0625
G1 X5.5717 Y0.6698
G3 X5.6342 Y0.6073 I0.0625 J0
G1 X5.7542 Y0.6073
G3 X5.6917 Y0.5448 I0 J-0.0625
G1 X5.6917 Y0.4448
G3 X5.7542 Y0.3823 I0.0625 J0
G1 X5.823 Y0.3823
G1 Z-0.05 F15
G1 X6.323 Y0.3823 F30
G1 Z-0.15 F15
G1 X6.3792 Y0.3823 F30
G3 X6.4417 Y0.4448 I0 J0.0625
G1 X6.4417 Y0.6948
G3 X6.3792 Y0.7573 I-0.0625 J0
G1 X6.4417 Y0.7573
G3 X6.5042 Y0.8198 I0 J0.0625
G1 X6.5042 Y1.3198
G3 X6.4417 Y1.3823 I-0.0625 J0
G1 X6.3792 Y1.3823
G3 X6.4417 Y1.4448 I0 J0.0625
G1 X6.4417 Y1.8157
G3 X6.4387 Y1.8351 I-0.0625 J0
G1 X6.5554 Y2.0019
G3 X6.5667 Y2.0377 I-0.0512 J0.0358
G1 X6.5667 Y2.4456
G1 X6.6292 Y2.4456
G3 X6.6917 Y2.5081 I0 J0.0625
G0 Z0.5
G0 X4.6324 Y2.5145
G1 Z-0.075 F15
G1 X4.6324 Y4.3262 F30
G3 X4.5699 Y4.3887 I-0.0625 J0
G1 X4.5074 Y4.3887
G1 X4.5074 Y4.7637
G1 X4.5699 Y4.7637
G3 X4.6324 Y4.8262 I0 J0.0625
G1 X4.6324 Y5.5762
G3 X4.5699 Y5.6387 I-0.0625 J0
G1 X4.5074 Y5.6387
G1 X4.5074 Y5.8262
G3 X4.4449 Y5.8887 I-0.0625 J0
G1 X4.2907 Y5.8887
G1 Z-0.05 F15
G1 X3.7907 Y5.8887 F30
G1 Z-0.075 F15
G1 X3.6949 Y5.8887 F30
G3 X3.6324 Y5.8262 I0 J-0.0625
G1 X3.6324 Y5.2012
G3 X3.6949 Y5.1387 I0.0625 J0
G1 X3.5749 Y5.1387
G3 X3.5124 Y5.0762 I0 J-0.0625
G1 X3.5124 Y4.0762
G3 X3.5749 Y4.0137 I0.0625 J0
G1 X3.6949 Y4.0137
G3 X3.6324 Y3.9512 I0 J-0.0625
G1 X3.6324 Y3.4512
G3 X3.6949 Y3.3887 I0.0625 J0
G1 X3.5749 Y3.3887
G3 X3.5124 Y3.3262 I0 J-0.0625
G1 X3.5124 Y2.3262
G3 X3.5749 Y2.2637 I0.0625 J0
G1 X3.6949 Y2.2637
G3 X3.6324 Y2.2012 I0 J-0.0625
G1 X3.6324 Y1.8012
G3 X3.6949 Y1.7387 I0.0625 J0
G1 X3.5749 Y1.7387
G3 X3.5124 Y1.6762 I0 J-0.0625
G1 X3.5124 Y0.6762
G3 X3.5749 Y0.6137 I0.0625 J0
G1 X3.6949 Y0.6137
G3 X3.6324 Y0.5512 I0 J-0.0625
G1 X3.6324 Y0.4512
G3 X3.6949 Y0.3887 I0.0625 J0
G1 X3.778 Y0.3887
G1 Z-0.05 F15
G1 X4.278 Y0.3887 F30
G1 Z-0.075 F15
G1 X4.3199 Y0.3887 F30
G3 X4.3824 Y0.4512 I0 J0.0625
G1 X4.3824 Y0.7012
G3 X4.3199 Y0.7637 I-0.0625 J0
G1 X4.3824 Y0.7637
G3 X4.4449 Y0.8262 I0 J0.0625
G1 X4.4449 Y1.3262
G3 X4.3824 Y1.3887 I-0.0625 J0
G1 X4.3199 Y1.3887
G3 X4.3824 Y1.4512 I0 J0.0625
G1 X4.3824 Y1.8221
G3 X4.3793 Y1.8415 I-0.0625 J0
G1 X4.4961 Y2.0082
G3 X4.5074 Y2.0441 I-0.0512 J0.0358
G1 X4.5074 Y2.452
G1 X4.5699 Y2.452
G3 X4.6324 Y2.5145 I0 J0.0625
G1 Z-0.15 F15
G1 X4.6324 Y4.3262 F30
G3 X4.5699 Y4.3887 I-0.0625 J0
G1 X4.5074 Y4.3887
G1 X4.5074 Y4.7637
G1 X4.5699 Y4.7637
G3 X4.6324 Y4.8262 I0 J0.0625
G1 X4.6324 Y5.5762
G3 X4.5699 Y5.6387 I-0.0625 J0
G1 X4.5074 Y5.6387
G1 X4.5074 Y5.8262
G3 X4.4449 Y5.8887 I-0.0625 J0
G1 X4.2907 Y5.8887
G1 Z-0.05 F15
G1 X3.7907 Y5.8887 F30
G1 Z-0.15 F15
G1 X3.6949 Y5.8887 F30
G3 X3.6324 Y5.8262 I0 J-0.0625
G1 X3.6324 Y5.2012
G3 X3.6949 Y5.1387 I0.0625 J0
G1 X3.5749 Y5.1387
G3 X3.5124 Y5.0762 I0 J-0.0625
G1 X3.5124 Y4.0762
G3 X3.5749 Y4.0137 I0.0625 J0
G1 X3.6949 Y4.0137
G3 X3.6324 Y3.9512 I0 J-0.0625
G1 X3.6324 Y3.4512
G3 X3.6949 Y3.3887 I0.0625 J0
G1 X3.5749 Y3.3887
G3 X3.5124 Y3.3262 I0 J-0.0625
G1 X3.5124 Y2.3262
G3 X3.5749 Y2.2637 I0.0625 J0
G1 X3.6949 Y2.2637
G3 X3.6324 Y2.2012 I0 J-0.0625
G1 X3.6324 Y1.8012
G3 X3.6949 Y1.7387 I0.0625 J0
G1 X3.5749 Y1.7387
G3 X3.5124 Y1.6762 I0 J-0.0625
G1 X3.5124 Y0.6762
G3 X3.5749 Y0.6137 I0.0625 J0
G1 X3.6949 Y0.6137
G3 X3.6324 Y0.5512 I0 J-0.0625
G1 X3.6324 Y0.4512
G3 X3.6949 Y0.3887 I0.0625 J0
G1 X3.778 Y0.3887
G1 Z-0.05 F15
G1 X4.278 Y0.3887 F30
G1 Z-0.15 F15
G1 X4.3199 Y0.3887 F30
G3 X4.3824 Y0.4512 I0 J0.0625
G1 X4.3824 Y0.7012
G3 X4.3199 Y0.7637 I-0.0625 J0
G1 X4.3824 Y0.7637
G3 X4.4449 Y0.8262 I0 J0.0625
G1 X4.4449 Y1.3262
G3 X4.3824 Y1.3887 I-0.0625 J0
G1 X4.3199 Y1.3887
G3 X4.3824 Y1.4512 I0 J0.0625
G1 X4.3824 Y1.8221
G3 X4.3793 Y1.8415 I-0.0625 J0
G1 X4.4961 Y2.0082
G3 X4.5074 Y2.0441 I-0.0512 J0.0358
G1 X4.5074 Y2.452
G1 X4.5699 Y2.452
G3 X4.6324 Y2.5145 I0 J0.0625
G0 Z0.5
M5
M30
