(Generated by PartKam Version 0.05)

G20 G90 G40

(profile 1)
G0 Z0.5
T0 M6
G17
M3
G0 X1.6109 Y6.316
G1 Z-0.075 F15
G1 X2.0403 Y6.316 F30
G1 Z-0.05 F15
G1 X2.5403 Y6.316 F30
G1 Z-0.075 F15
G1 X5.3112 Y6.316 F30
G1 Z-0.05 F15
G1 X5.8112 Y6.316 F30
G1 Z-0.075 F15
G1 X6.4859 Y6.316 F30
G3 X6.5484 Y6.3785 I0 J0.0625
G1 X6.5484 Y6.4501
G3 X6.5481 Y6.457 I-0.0625 J0
G3 X6.4544 Y6.9215 I-2.6761 J-0.2979
G3 X6.2891 Y7.3335 I-2.2585 J-0.6668
G3 X6.0495 Y7.7071 I-2.0933 J-1.0788
G3 X5.7256 Y8.0529 I-2.1195 J-1.6607
G3 X5.346 Y8.3366 I-1.7955 J-2.0065
G3 X4.9482 Y8.5334 I-1.2384 J-2.003
G3 X4.5204 Y8.6521 I-0.8405 J-2.1998
G3 X4.0484 Y8.6937 I-0.472 J-2.6509
G3 X3.5764 Y8.6521 I0 J-2.6926
G3 X3.1487 Y8.5334 I0.4128 J-2.3184
G3 X2.7508 Y8.3366 I0.8405 J-2.1998
G3 X2.3713 Y8.0529 I1.416 J-2.2902
G3 X2.0474 Y7.7071 I1.7955 J-2.0065
G3 X1.8077 Y7.3335 I1.8536 J-1.4524
G3 X1.6425 Y6.9215 I2.0933 J-1.0788
G3 X1.5488 Y6.457 I2.5824 J-0.7624
G3 X1.5484 Y6.4501 I0.0621 J-0.0069
G1 X1.5484 Y6.3785
G3 X1.6109 Y6.316 I0.0625 J0
G1 Z-0.15 F15
G1 X2.0403 Y6.316 F30
G1 Z-0.05 F15
G1 X2.5403 Y6.316 F30
G1 Z-0.15 F15
G1 X5.3112 Y6.316 F30
G1 Z-0.05 F15
G1 X5.8112 Y6.316 F30
G1 Z-0.15 F15
G1 X6.4859 Y6.316 F30
G3 X6.5484 Y6.3785 I0 J0.0625
G1 X6.5484 Y6.4501
G3 X6.5481 Y6.457 I-0.0625 J0
G3 X6.4544 Y6.9215 I-2.6761 J-0.2979
G3 X6.2891 Y7.3335 I-2.2585 J-0.6668
G3 X6.0495 Y7.7071 I-2.0933 J-1.0788
G3 X5.7256 Y8.0529 I-2.1195 J-1.6607
G3 X5.346 Y8.3366 I-1.7955 J-2.0065
G3 X4.9482 Y8.5334 I-1.2384 J-2.003
G3 X4.5204 Y8.6521 I-0.8405 J-2.1998
G3 X4.0484 Y8.6937 I-0.472 J-2.6509
G3 X3.5764 Y8.6521 I0 J-2.6926
G3 X3.1487 Y8.5334 I0.4128 J-2.3184
G3 X2.7508 Y8.3366 I0.8405 J-2.1998
G3 X2.3713 Y8.0529 I1.416 J-2.2902
G3 X2.0474 Y7.7071 I1.7955 J-2.0065
G3 X1.8077 Y7.3335 I1.8536 J-1.4524
G3 X1.6425 Y6.9215 I2.0933 J-1.0788
G3 X1.5488 Y6.457 I2.5824 J-0.7624
G3 X1.5484 Y6.4501 I0.0621 J-0.0069
G1 X1.5484 Y6.3785
G3 X1.6109 Y6.316 I0.0625 J0
G0 Z0.5
G0 X1.8474 Y2.9729
G1 Z-0.075 F15
G1 X2.4403 Y2.9729 F30
G1 Z-0.05 F15
G1 X2.9403 Y2.9729 F30
G1 Z-0.075 F15
G1 X5.447 Y2.9729 F30
G1 Z-0.05 F15
G1 X5.947 Y2.9729 F30
G1 Z-0.075 F15
G1 X6.7224 Y2.9729 F30
G3 X6.7849 Y3.0354 I0 J0.0625
G1 X6.7849 Y3.107
G3 X6.7845 Y3.1139 I-0.0625 J0
G3 X6.6908 Y3.5784 I-2.6761 J-0.2979
G3 X6.5256 Y3.9904 I-2.2585 J-0.6668
G3 X6.286 Y4.3641 I-2.0933 J-1.0788
G3 X5.962 Y4.7099 I-2.1195 J-1.6607
G3 X5.5825 Y4.9936 I-1.7955 J-2.0065
G3 X5.1846 Y5.1904 I-1.2384 J-2.003
G3 X4.7569 Y5.309 I-0.8405 J-2.1998
G3 X4.2849 Y5.3507 I-0.472 J-2.6509
G3 X3.8129 Y5.309 I0 J-2.6926
G3 X3.3852 Y5.1904 I0.4128 J-2.3184
G3 X2.9873 Y4.9936 I0.8405 J-2.1998
G3 X2.6078 Y4.7099 I1.416 J-2.2902
G3 X2.2838 Y4.3641 I1.7955 J-2.0065
G3 X2.0442 Y3.9904 I1.8536 J-1.4524
G3 X1.8789 Y3.5784 I2.0933 J-1.0788
G3 X1.7853 Y3.1139 I2.5824 J-0.7624
G3 X1.7849 Y3.107 I0.0621 J-0.0069
G1 X1.7849 Y3.0354
G3 X1.8474 Y2.9729 I0.0625 J0
G1 Z-0.15 F15
G1 X2.4403 Y2.9729 F30
G1 Z-0.05 F15
G1 X2.9403 Y2.9729 F30
G1 Z-0.15 F15
G1 X5.447 Y2.9729 F30
G1 Z-0.05 F15
G1 X5.947 Y2.9729 F30
G1 Z-0.15 F15
G1 X6.7224 Y2.9729 F30
G3 X6.7849 Y3.0354 I0 J0.0625
G1 X6.7849 Y3.107
G3 X6.7845 Y3.1139 I-0.0625 J0
G3 X6.6908 Y3.5784 I-2.6761 J-0.2979
G3 X6.5256 Y3.9904 I-2.2585 J-0.6668
G3 X6.286 Y4.3641 I-2.0933 J-1.0788
G3 X5.962 Y4.7099 I-2.1195 J-1.6607
G3 X5.5825 Y4.9936 I-1.7955 J-2.0065
G3 X5.1846 Y5.1904 I-1.2384 J-2.003
G3 X4.7569 Y5.309 I-0.8405 J-2.1998
G3 X4.2849 Y5.3507 I-0.472 J-2.6509
G3 X3.8129 Y5.309 I0 J-2.6926
G3 X3.3852 Y5.1904 I0.4128 J-2.3184
G3 X2.9873 Y4.9936 I0.8405 J-2.1998
G3 X2.6078 Y4.7099 I1.416 J-2.2902
G3 X2.2838 Y4.3641 I1.7955 J-2.0065
G3 X2.0442 Y3.9904 I1.8536 J-1.4524
G3 X1.8789 Y3.5784 I2.0933 J-1.0788
G3 X1.7853 Y3.1139 I2.5824 J-0.7624
G3 X1.7849 Y3.107 I0.0621 J-0.0069
G1 X1.7849 Y3.0354
G3 X1.8474 Y2.9729 I0.0625 J0
G0 Z0.5
M5
M30
