(Generated by PartKam Version 0.05)

G20 G90 G40

(profile 1)
G0 Z0.5
T0 M6
G17
M3
G0 X4.5029 Y2.7584
G1 Z-0.075 F15
G1 X4.1442 Y3.0095 F30
G1 Z-0.05 F15
G1 X3.7347 Y3.2963 F30
G1 Z-0.075 F15
G1 X3.1691 Y3.6923 F30
G3 X3.1332 Y3.7036 I-0.0358 J-0.0512
G1 X2.4601 Y3.7036
G3 X2.3976 Y3.6411 I0 J-0.0625
G3 X2.3351 Y3.7036 I-0.0625 J0
G1 X0.7101 Y3.7036
G3 X0.6476 Y3.6411 I0 J-0.0625
G1 X0.6476 Y3.4572
G1 X0.5851 Y3.4572
G3 X0.5226 Y3.3947 I0 J-0.0625
G1 X0.5226 Y3.2921
G1 Z-0.05 F15
G1 X0.5226 Y2.7921 F30
G1 Z-0.075 F15
G1 X0.5226 Y2.7072 F30
G3 X0.5851 Y2.6447 I0.0625 J0
G1 X1.2101 Y2.6447
G3 X1.2726 Y2.7072 I0 J0.0625
G1 X1.2726 Y2.6072
G3 X1.3351 Y2.5447 I0.0625 J0
G1 X1.8351 Y2.5447
G3 X1.8976 Y2.6072 I0 J0.0625
G1 X1.8976 Y2.7072
G3 X1.9601 Y2.6447 I0.0625 J0
G1 X2.7101 Y2.6447
G3 X2.7726 Y2.7072 I0 J0.0625
G1 X2.7726 Y2.6072
G3 X2.8351 Y2.5447 I0.0625 J0
G1 X3.3351 Y2.5447
G3 X3.3976 Y2.6072 I0 J0.0625
G1 X3.3976 Y2.7072
G3 X3.4601 Y2.6447 I0.0625 J0
G1 X4.467 Y2.6447
G3 X4.5295 Y2.7072 I0 J0.0625
G3 X4.5029 Y2.7584 I-0.0625 J0
G1 Z-0.15 F15
G1 X4.1442 Y3.0095 F30
G1 Z-0.05 F15
G1 X3.7347 Y3.2963 F30
G1 Z-0.15 F15
G1 X3.1691 Y3.6923 F30
G3 X3.1332 Y3.7036 I-0.0358 J-0.0512
G1 X2.4601 Y3.7036
G3 X2.3976 Y3.6411 I0 J-0.0625
G3 X2.3351 Y3.7036 I-0.0625 J0
G1 X0.7101 Y3.7036
G3 X0.6476 Y3.6411 I0 J-0.0625
G1 X0.6476 Y3.4572
G1 X0.5851 Y3.4572
G3 X0.5226 Y3.3947 I0 J-0.0625
G1 X0.5226 Y3.2921
G1 Z-0.05 F15
G1 X0.5226 Y2.7921 F30
G1 Z-0.15 F15
G1 X0.5226 Y2.7072 F30
G3 X0.5851 Y2.6447 I0.0625 J0
G1 X1.2101 Y2.6447
G3 X1.2726 Y2.7072 I0 J0.0625
G1 X1.2726 Y2.6072
G3 X1.3351 Y2.5447 I0.0625 J0
G1 X1.8351 Y2.5447
G3 X1.8976 Y2.6072 I0 J0.0625
G1 X1.8976 Y2.7072
G3 X1.9601 Y2.6447 I0.0625 J0
G1 X2.7101 Y2.6447
G3 X2.7726 Y2.7072 I0 J0.0625
G1 X2.7726 Y2.6072
G3 X2.8351 Y2.5447 I0.0625 J0
G1 X3.3351 Y2.5447
G3 X3.3976 Y2.6072 I0 J0.0625
G1 X3.3976 Y2.7072
G3 X3.4601 Y2.6447 I0.0625 J0
G1 X4.467 Y2.6447
G3 X4.5295 Y2.7072 I0 J0.0625
G3 X4.5029 Y2.7584 I-0.0625 J0
G0 Z0.5
G0 X9.379 Y2.6453
G1 Z-0.075 F15
G1 X8.9872 Y2.9196 F30
G1 Z-0.05 F15
G1 X8.5776 Y3.2064 F30
G1 Z-0.075 F15
G1 X8.0452 Y3.5792 F30
G3 X8.0093 Y3.5905 I-0.0358 J-0.0512
G1 X7.3362 Y3.5905
G3 X7.2737 Y3.528 I0 J-0.0625
G3 X7.2112 Y3.5905 I-0.0625 J0
G1 X5.5862 Y3.5905
G3 X5.5237 Y3.528 I0 J-0.0625
G1 X5.5237 Y3.3441
G1 X5.4612 Y3.3441
G3 X5.3987 Y3.2816 I0 J-0.0625
G1 X5.3987 Y3.1486
G1 Z-0.05 F15
G1 X5.3987 Y2.6486 F30
G1 Z-0.075 F15
G1 X5.3987 Y2.5941 F30
G3 X5.4612 Y2.5316 I0.0625 J0
G1 X6.0862 Y2.5316
G3 X6.1487 Y2.5941 I0 J0.0625
G1 X6.1487 Y2.4941
G3 X6.2112 Y2.4316 I0.0625 J0
G1 X6.7112 Y2.4316
G3 X6.7737 Y2.4941 I0 J0.0625
G1 X6.7737 Y2.5941
G3 X6.8362 Y2.5316 I0.0625 J0
G1 X7.5862 Y2.5316
G3 X7.6487 Y2.5941 I0 J0.0625
G1 X7.6487 Y2.4941
G3 X7.7112 Y2.4316 I0.0625 J0
G1 X8.2112 Y2.4316
G3 X8.2737 Y2.4941 I0 J0.0625
G1 X8.2737 Y2.5941
G3 X8.3362 Y2.5316 I0.0625 J0
G1 X9.3431 Y2.5316
G3 X9.4056 Y2.5941 I0 J0.0625
G3 X9.379 Y2.6453 I-0.0625 J0
G1 Z-0.15 F15
G1 X8.9872 Y2.9196 F30
G1 Z-0.05 F15
G1 X8.5776 Y3.2064 F30
G1 Z-0.15 F15
G1 X8.0452 Y3.5792 F30
G3 X8.0093 Y3.5905 I-0.0358 J-0.0512
G1 X7.3362 Y3.5905
G3 X7.2737 Y3.528 I0 J-0.0625
G3 X7.2112 Y3.5905 I-0.0625 J0
G1 X5.5862 Y3.5905
G3 X5.5237 Y3.528 I0 J-0.0625
G1 X5.5237 Y3.3441
G1 X5.4612 Y3.3441
G3 X5.3987 Y3.2816 I0 J-0.0625
G1 X5.3987 Y3.1486
G1 Z-0.05 F15
G1 X5.3987 Y2.6486 F30
G1 Z-0.15 F15
G1 X5.3987 Y2.5941 F30
G3 X5.4612 Y2.5316 I0.0625 J0
G1 X6.0862 Y2.5316
G3 X6.1487 Y2.5941 I0 J0.0625
G1 X6.1487 Y2.4941
G3 X6.2112 Y2.4316 I0.0625 J0
G1 X6.7112 Y2.4316
G3 X6.7737 Y2.4941 I0 J0.0625
G1 X6.7737 Y2.5941
G3 X6.8362 Y2.5316 I0.0625 J0
G1 X7.5862 Y2.5316
G3 X7.6487 Y2.5941 I0 J0.0625
G1 X7.6487 Y2.4941
G3 X7.7112 Y2.4316 I0.0625 J0
G1 X8.2112 Y2.4316
G3 X8.2737 Y2.4941 I0 J0.0625
G1 X8.2737 Y2.5941
G3 X8.3362 Y2.5316 I0.0625 J0
G1 X9.3431 Y2.5316
G3 X9.4056 Y2.5941 I0 J0.0625
G3 X9.379 Y2.6453 I-0.0625 J0
G0 Z0.5
G0 X2.3846 Y5.7971
G1 Z-0.075 F15
G1 X1.7567 Y5.7971 F30
G1 Z-0.05 F15
G1 X1.2567 Y5.7971 F30
G1 Z-0.075 F15
G1 X0.7596 Y5.7971 F30
G3 X0.6971 Y5.7346 I0 J-0.0625
G1 X0.6971 Y5.1497
G1 X0.6346 Y5.1497
G3 X0.5721 Y5.0872 I0 J-0.0625
G1 X0.5721 Y4.3997
G3 X0.6346 Y4.3372 I0.0625 J0
G1 X1.2596 Y4.3372
G3 X1.3221 Y4.3997 I0 J0.0625
G1 X1.3221 Y4.2997
G3 X1.3846 Y4.2372 I0.0625 J0
G1 X1.8846 Y4.2372
G3 X1.9471 Y4.2997 I0 J0.0625
G1 X1.9471 Y4.3997
G3 X2.0096 Y4.3372 I0.0625 J0
G1 X2.7596 Y4.3372
G3 X2.8221 Y4.3997 I0 J0.0625
G1 X2.8221 Y4.2997
G3 X2.8846 Y4.2372 I0.0625 J0
G1 X2.8917 Y4.2372
G1 Z-0.05 F15
G1 X3.3846 Y4.2372 F30
G3 X3.3917 Y4.2376 I0 J0.0625
G1 Z-0.075 F15
G3 X3.4471 Y4.2997 I-0.0071 J0.0621 F30
G1 X3.4471 Y4.3997
G3 X3.5096 Y4.3372 I0.0625 J0
G1 X4.5166 Y4.3372
G3 X4.5791 Y4.3997 I0 J0.0625
G3 X4.5524 Y4.4509 I-0.0625 J0
G1 X3.8971 Y4.9097
G3 X3.8101 Y4.8944 I-0.0358 J-0.0512
G1 X3.7742 Y4.8432
G1 X3.0575 Y5.3451
G1 X3.0933 Y5.3963
G3 X3.1046 Y5.4321 I-0.0512 J0.0358
G3 X3.078 Y5.4833 I-0.0625 J0
G1 X2.646 Y5.7858
G3 X2.6101 Y5.7971 I-0.0358 J-0.0512
G1 X2.5096 Y5.7971
G3 X2.4471 Y5.7346 I0 J-0.0625
G3 X2.3846 Y5.7971 I-0.0625 J0
G1 Z-0.15 F15
G1 X1.7567 Y5.7971 F30
G1 Z-0.05 F15
G1 X1.2567 Y5.7971 F30
G1 Z-0.15 F15
G1 X0.7596 Y5.7971 F30
G3 X0.6971 Y5.7346 I0 J-0.0625
G1 X0.6971 Y5.1497
G1 X0.6346 Y5.1497
G3 X0.5721 Y5.0872 I0 J-0.0625
G1 X0.5721 Y4.3997
G3 X0.6346 Y4.3372 I0.0625 J0
G1 X1.2596 Y4.3372
G3 X1.3221 Y4.3997 I0 J0.0625
G1 X1.3221 Y4.2997
G3 X1.3846 Y4.2372 I0.0625 J0
G1 X1.8846 Y4.2372
G3 X1.9471 Y4.2997 I0 J0.0625
G1 X1.9471 Y4.3997
G3 X2.0096 Y4.3372 I0.0625 J0
G1 X2.7596 Y4.3372
G3 X2.8221 Y4.3997 I0 J0.0625
G1 X2.8221 Y4.2997
G3 X2.8846 Y4.2372 I0.0625 J0
G1 X2.8917 Y4.2372
G1 Z-0.05 F15
G1 X3.3846 Y4.2372 F30
G3 X3.3917 Y4.2376 I0 J0.0625
G1 Z-0.15 F15
G3 X3.4471 Y4.2997 I-0.0071 J0.0621 F30
G1 X3.4471 Y4.3997
G3 X3.5096 Y4.3372 I0.0625 J0
G1 X4.5166 Y4.3372
G3 X4.5791 Y4.3997 I0 J0.0625
G3 X4.5524 Y4.4509 I-0.0625 J0
G1 X3.8971 Y4.9097
G3 X3.8101 Y4.8944 I-0.0358 J-0.0512
G1 X3.7742 Y4.8432
G1 X3.0575 Y5.3451
G1 X3.0933 Y5.3963
G3 X3.1046 Y5.4321 I-0.0512 J0.0358
G3 X3.078 Y5.4833 I-0.0625 J0
G1 X2.646 Y5.7858
G3 X2.6101 Y5.7971 I-0.0358 J-0.0512
G1 X2.5096 Y5.7971
G3 X2.4471 Y5.7346 I0 J-0.0625
G3 X2.3846 Y5.7971 I-0.0625 J0
G0 Z0.5
G0 X4.615 Y0.5895
G1 Z-0.075 F15
G1 X4.8254 Y0.5895 F30
G1 Z-0.05 F15
G1 X5.3254 Y0.5895 F30
G1 Z-0.075 F15
G1 X5.4673 Y0.5895 F30
G3 X5.5298 Y0.652 I0 J0.0625
G3 X5.5195 Y0.6864 I-0.0625 J0
G3 X5.2046 Y1.0902 I-2.6734 J-1.7601
G3 X4.8473 Y1.4189 I-2.1148 J-1.9403
G3 X4.4397 Y1.6826 I-1.7575 J-2.269
G3 X3.97 Y1.8866 I-1.5055 J-2.8246
G3 X3.4737 Y2.013 I-1.0357 J-3.0286
G3 X2.99 Y2.054 I-0.4837 J-2.829
G3 X2.5063 Y2.013 I0 J-2.87
G3 X2.01 Y1.8866 I0.5395 J-3.155
G3 X1.5403 Y1.6826 I1.0357 J-3.0286
G3 X1.1327 Y1.4189 I1.3499 J-2.5328
G3 X0.7754 Y1.0902 I1.7575 J-2.269
G3 X0.4605 Y0.6864 I2.3585 J-2.1639
G3 X0.4502 Y0.652 I0.0522 J-0.0344
G3 X0.5127 Y0.5895 I0.0625 J0
G1 X0.6848 Y0.5895
G1 Z-0.05 F15
G1 X1.1848 Y0.5895 F30
G1 Z-0.075 F15
G1 X1.365 Y0.5895 F30
G3 X1.4275 Y0.652 I0 J0.0625
G3 X1.49 Y0.5895 I0.0625 J0
G1 X1.615 Y0.5895
G3 X1.6775 Y0.652 I0 J0.0625
G1 X1.6775 Y0.552
G3 X1.74 Y0.4895 I0.0625 J0
G1 X2.49 Y0.4895
G3 X2.5525 Y0.552 I0 J0.0625
G1 X2.5525 Y0.652
G3 X2.615 Y0.5895 I0.0625 J0
G1 X2.9275 Y0.5895
G3 X2.99 Y0.652 I0 J0.0625
G3 X3.0525 Y0.5895 I0.0625 J0
G1 X3.365 Y0.5895
G3 X3.4275 Y0.652 I0 J0.0625
G1 X3.4275 Y0.552
G3 X3.49 Y0.4895 I0.0625 J0
G1 X4.24 Y0.4895
G3 X4.3025 Y0.552 I0 J0.0625
G1 X4.3025 Y0.652
G3 X4.365 Y0.5895 I0.0625 J0
G1 X4.49 Y0.5895
G3 X4.5525 Y0.652 I0 J0.0625
G3 X4.615 Y0.5895 I0.0625 J0
G1 Z-0.15 F15
G1 X4.8254 Y0.5895 F30
G1 Z-0.05 F15
G1 X5.3254 Y0.5895 F30
G1 Z-0.15 F15
G1 X5.4673 Y0.5895 F30
G3 X5.5298 Y0.652 I0 J0.0625
G3 X5.5195 Y0.6864 I-0.0625 J0
G3 X5.2046 Y1.0902 I-2.6734 J-1.7601
G3 X4.8473 Y1.4189 I-2.1148 J-1.9403
G3 X4.4397 Y1.6826 I-1.7575 J-2.269
G3 X3.97 Y1.8866 I-1.5055 J-2.8246
G3 X3.4737 Y2.013 I-1.0357 J-3.0286
G3 X2.99 Y2.054 I-0.4837 J-2.829
G3 X2.5063 Y2.013 I0 J-2.87
G3 X2.01 Y1.8866 I0.5395 J-3.155
G3 X1.5403 Y1.6826 I1.0357 J-3.0286
G3 X1.1327 Y1.4189 I1.3499 J-2.5328
G3 X0.7754 Y1.0902 I1.7575 J-2.269
G3 X0.4605 Y0.6864 I2.3585 J-2.1639
G3 X0.4502 Y0.652 I0.0522 J-0.0344
G3 X0.5127 Y0.5895 I0.0625 J0
G1 X0.6848 Y0.5895
G1 Z-0.05 F15
G1 X1.1848 Y0.5895 F30
G1 Z-0.15 F15
G1 X1.365 Y0.5895 F30
G3 X1.4275 Y0.652 I0 J0.0625
G3 X1.49 Y0.5895 I0.0625 J0
G1 X1.615 Y0.5895
G3 X1.6775 Y0.652 I0 J0.0625
G1 X1.6775 Y0.552
G3 X1.74 Y0.4895 I0.0625 J0
G1 X2.49 Y0.4895
G3 X2.5525 Y0.552 I0 J0.0625
G1 X2.5525 Y0.652
G3 X2.615 Y0.5895 I0.0625 J0
G1 X2.9275 Y0.5895
G3 X2.99 Y0.652 I0 J0.0625
G3 X3.0525 Y0.5895 I0.0625 J0
G1 X3.365 Y0.5895
G3 X3.4275 Y0.652 I0 J0.0625
G1 X3.4275 Y0.552
G3 X3.49 Y0.4895 I0.0625 J0
G1 X4.24 Y0.4895
G3 X4.3025 Y0.552 I0 J0.0625
G1 X4.3025 Y0.652
G3 X4.365 Y0.5895 I0.0625 J0
G1 X4.49 Y0.5895
G3 X4.5525 Y0.652 I0 J0.0625
G3 X4.615 Y0.5895 I0.0625 J0
G0 Z0.5
G0 X5.104 Y4.3216
G1 Z-0.075 F15
G1 X5.2053 Y4.3216 F30
G1 Z-0.05 F15
G1 X5.7053 Y4.3216 F30
G1 Z-0.075 F15
G1 X5.9563 Y4.3216 F30
G3 X6.0188 Y4.3841 I0 J0.0625
G3 X6.0813 Y4.3216 I0.0625 J0
G1 X6.2063 Y4.3216
G3 X6.2688 Y4.3841 I0 J0.0625
G1 X6.2688 Y4.2841
G3 X6.3313 Y4.2216 I0.0625 J0
G1 X7.0813 Y4.2216
G3 X7.1438 Y4.2841 I0 J0.0625
G1 X7.1438 Y4.3841
G3 X7.2063 Y4.3216 I0.0625 J0
G1 X7.5188 Y4.3216
G3 X7.5813 Y4.3841 I0 J0.0625
G3 X7.6438 Y4.3216 I0.0625 J0
G1 X7.9563 Y4.3216
G3 X8.0188 Y4.3841 I0 J0.0625
G1 X8.0188 Y4.2841
G3 X8.0813 Y4.2216 I0.0625 J0
G1 X8.8313 Y4.2216
G3 X8.8938 Y4.2841 I0 J0.0625
G1 X8.8938 Y4.3841
G3 X8.9563 Y4.3216 I0.0625 J0
G1 X9.0813 Y4.3216
G3 X9.1438 Y4.3841 I0 J0.0625
G3 X9.2063 Y4.3216 I0.0625 J0
G1 X9.3701 Y4.3216
G1 Z-0.05 F15
G1 X9.8701 Y4.3216 F30
G1 Z-0.075 F15
G1 X10.0586 Y4.3216 F30
G3 X10.1211 Y4.3841 I0 J0.0625
G3 X10.1108 Y4.4185 I-0.0625 J0
G3 X9.7959 Y4.8223 I-2.6734 J-1.7601
G3 X9.4386 Y5.151 I-2.1148 J-1.9403
G3 X9.031 Y5.4148 I-1.7575 J-2.269
G3 X8.5613 Y5.6187 I-1.5055 J-2.8246
G3 X8.065 Y5.7451 I-1.0357 J-3.0286
G3 X7.5813 Y5.7862 I-0.4837 J-2.829
G3 X7.0975 Y5.7451 I0 J-2.87
G3 X6.6013 Y5.6187 I0.5395 J-3.155
G3 X6.1316 Y5.4148 I1.0357 J-3.0286
G3 X5.724 Y5.151 I1.3499 J-2.5328
G3 X5.3667 Y4.8223 I1.7575 J-2.269
G3 X5.0518 Y4.4185 I2.3585 J-2.1639
G3 X5.0415 Y4.3841 I0.0522 J-0.0344
G3 X5.104 Y4.3216 I0.0625 J0
G1 Z-0.15 F15
G1 X5.2053 Y4.3216 F30
G1 Z-0.05 F15
G1 X5.7053 Y4.3216 F30
G1 Z-0.15 F15
G1 X5.9563 Y4.3216 F30
G3 X6.0188 Y4.3841 I0 J0.0625
G3 X6.0813 Y4.3216 I0.0625 J0
G1 X6.2063 Y4.3216
G3 X6.2688 Y4.3841 I0 J0.0625
G1 X6.2688 Y4.2841
G3 X6.3313 Y4.2216 I0.0625 J0
G1 X7.0813 Y4.2216
G3 X7.1438 Y4.2841 I0 J0.0625
G1 X7.1438 Y4.3841
G3 X7.2063 Y4.3216 I0.0625 J0
G1 X7.5188 Y4.3216
G3 X7.5813 Y4.3841 I0 J0.0625
G3 X7.6438 Y4.3216 I0.0625 J0
G1 X7.9563 Y4.3216
G3 X8.0188 Y4.3841 I0 J0.0625
G1 X8.0188 Y4.2841
G3 X8.0813 Y4.2216 I0.0625 J0
G1 X8.8313 Y4.2216
G3 X8.8938 Y4.2841 I0 J0.0625
G1 X8.8938 Y4.3841
G3 X8.9563 Y4.3216 I0.0625 J0
G1 X9.0813 Y4.3216
G3 X9.1438 Y4.3841 I0 J0.0625
G3 X9.2063 Y4.3216 I0.0625 J0
G1 X9.3701 Y4.3216
G1 Z-0.05 F15
G1 X9.8701 Y4.3216 F30
G1 Z-0.15 F15
G1 X10.0586 Y4.3216 F30
G3 X10.1211 Y4.3841 I0 J0.0625
G3 X10.1108 Y4.4185 I-0.0625 J0
G3 X9.7959 Y4.8223 I-2.6734 J-1.7601
G3 X9.4386 Y5.151 I-2.1148 J-1.9403
G3 X9.031 Y5.4148 I-1.7575 J-2.269
G3 X8.5613 Y5.6187 I-1.5055 J-2.8246
G3 X8.065 Y5.7451 I-1.0357 J-3.0286
G3 X7.5813 Y5.7862 I-0.4837 J-2.829
G3 X7.0975 Y5.7451 I0 J-2.87
G3 X6.6013 Y5.6187 I0.5395 J-3.155
G3 X6.1316 Y5.4148 I1.0357 J-3.0286
G3 X5.724 Y5.151 I1.3499 J-2.5328
G3 X5.3667 Y4.8223 I1.7575 J-2.269
G3 X5.0518 Y4.4185 I2.3585 J-2.1639
G3 X5.0415 Y4.3841 I0.0522 J-0.0344
G3 X5.104 Y4.3216 I0.0625 J0
G0 Z0.5
M5
M30
