(Generated by PartKam Version 0.05)

G20 G90 G40

(Outer)
G0 Z0.5
T0 M6
G17
M3
G0 X0.5064 Y0.4302
G1 Z-0.075 F15
G1 X5.9224 Y0.4302 F30
G3 X5.9849 Y0.4927 I0 J0.0625
G1 X5.9849 Y0.789
G1 Z-0.05 F15
G1 X5.9849 Y1.289 F30
G1 Z-0.075 F15
G1 X5.9849 Y1.7427 F30
G3 X5.9224 Y1.8052 I-0.0625 J0
G1 X5.3614 Y1.8052
G3 X5.2989 Y1.7427 I0 J-0.0625
G1 X5.2989 Y0.9302
G1 X3.4583 Y0.9302
G1 Z-0.05 F15
G1 X2.9583 Y0.9302 F30
G1 Z-0.075 F15
G1 X1.1299 Y0.9302 F30
G1 X1.1299 Y1.7427
G3 X1.0674 Y1.8052 I-0.0625 J0
G1 X0.5064 Y1.8052
G3 X0.4439 Y1.7427 I0 J-0.0625
G1 X0.4439 Y1.1996
G1 Z-0.05 F15
G1 X0.4439 Y0.6996 F30
G1 Z-0.075 F15
G1 X0.4439 Y0.4927 F30
G3 X0.5064 Y0.4302 I0.0625 J0
G1 Z-0.15 F15
G1 X5.9224 Y0.4302 F30
G3 X5.9849 Y0.4927 I0 J0.0625
G1 X5.9849 Y0.789
G1 Z-0.05 F15
G1 X5.9849 Y1.289 F30
G1 Z-0.15 F15
G1 X5.9849 Y1.7427 F30
G3 X5.9224 Y1.8052 I-0.0625 J0
G1 X5.3614 Y1.8052
G3 X5.2989 Y1.7427 I0 J-0.0625
G1 X5.2989 Y0.9302
G1 X3.4583 Y0.9302
G1 Z-0.05 F15
G1 X2.9583 Y0.9302 F30
G1 Z-0.15 F15
G1 X1.1299 Y0.9302 F30
G1 X1.1299 Y1.7427
G3 X1.0674 Y1.8052 I-0.0625 J0
G1 X0.5064 Y1.8052
G3 X0.4439 Y1.7427 I0 J-0.0625
G1 X0.4439 Y1.1996
G1 Z-0.05 F15
G1 X0.4439 Y0.6996 F30
G1 Z-0.15 F15
G1 X0.4439 Y0.4927 F30
G3 X0.5064 Y0.4302 I0.0625 J0
G0 Z0.5
G0 X1.0981 Y3.0398
G1 Z-0.075 F15
G1 X3.0268 Y3.0398 F30
G1 Z-0.05 F15
G1 X3.5268 Y3.0398 F30
G1 Z-0.075 F15
G1 X5.2671 Y3.0398 F30
G1 X5.2671 Y2.2273
G3 X5.3296 Y2.1648 I0.0625 J0
G1 X5.8906 Y2.1648
G3 X5.9531 Y2.2273 I0 J0.0625
G1 X5.9531 Y2.6238
G1 Z-0.05 F15
G1 X5.9531 Y3.1238 F30
G1 Z-0.075 F15
G1 X5.9531 Y3.6542 F30
G3 X5.9425 Y3.6889 I-0.0625 J0
G3 X5.5972 Y4.1264 I-2.9151 J-1.9461
G3 X5.2064 Y4.4824 I-2.3071 J-2.1399
G3 X4.7615 Y4.768 I-1.9163 J-2.496
G3 X4.2497 Y4.9886 I-1.6389 J-3.0982
G3 X3.7093 Y5.1253 I-1.1271 J-3.3188
G3 X3.1826 Y5.1697 I-0.5268 J-3.1023
G3 X2.6558 Y5.1253 I0 J-3.1468
G3 X2.1154 Y4.9886 I0.5868 J-3.4555
G3 X1.6036 Y4.768 I1.1271 J-3.3188
G3 X1.1587 Y4.4824 I1.4714 J-2.7815
G3 X0.7679 Y4.1264 I1.9163 J-2.496
G3 X0.4226 Y3.6889 I2.5698 J-2.3836
G3 X0.4121 Y3.6542 I0.052 J-0.0347
G1 X0.4121 Y3.3041
G1 Z-0.05 F15
G1 X0.4121 Y2.8041 F30
G1 Z-0.075 F15
G1 X0.4121 Y2.2273 F30
G3 X0.4746 Y2.1648 I0.0625 J0
G1 X1.0356 Y2.1648
G3 X1.0981 Y2.2273 I0 J0.0625
G1 X1.0981 Y3.0398
G1 Z-0.15 F15
G1 X3.0268 Y3.0398 F30
G1 Z-0.05 F15
G1 X3.5268 Y3.0398 F30
G1 Z-0.15 F15
G1 X5.2671 Y3.0398 F30
G1 X5.2671 Y2.2273
G3 X5.3296 Y2.1648 I0.0625 J0
G1 X5.8906 Y2.1648
G3 X5.9531 Y2.2273 I0 J0.0625
G1 X5.9531 Y2.6238
G1 Z-0.05 F15
G1 X5.9531 Y3.1238 F30
G1 Z-0.15 F15
G1 X5.9531 Y3.6542 F30
G3 X5.9425 Y3.6889 I-0.0625 J0
G3 X5.5972 Y4.1264 I-2.9151 J-1.9461
G3 X5.2064 Y4.4824 I-2.3071 J-2.1399
G3 X4.7615 Y4.768 I-1.9163 J-2.496
G3 X4.2497 Y4.9886 I-1.6389 J-3.0982
G3 X3.7093 Y5.1253 I-1.1271 J-3.3188
G3 X3.1826 Y5.1697 I-0.5268 J-3.1023
G3 X2.6558 Y5.1253 I0 J-3.1468
G3 X2.1154 Y4.9886 I0.5868 J-3.4555
G3 X1.6036 Y4.768 I1.1271 J-3.3188
G3 X1.1587 Y4.4824 I1.4714 J-2.7815
G3 X0.7679 Y4.1264 I1.9163 J-2.496
G3 X0.4226 Y3.6889 I2.5698 J-2.3836
G3 X0.4121 Y3.6542 I0.052 J-0.0347
G1 X0.4121 Y3.3041
G1 Z-0.05 F15
G1 X0.4121 Y2.8041 F30
G1 Z-0.15 F15
G1 X0.4121 Y2.2273 F30
G3 X0.4746 Y2.1648 I0.0625 J0
G1 X1.0356 Y2.1648
G3 X1.0981 Y2.2273 I0 J0.0625
G1 X1.0981 Y3.0398
G0 Z0.5
G0 X2.1897 Y1.6098
G1 Z-0.075 F15
G1 X2.9297 Y1.6098 F30
G1 Z-0.05 F15
G1 X3.4297 Y1.6098 F30
G1 Z-0.075 F15
G1 X4.1897 Y1.6098 F30
G3 X4.2522 Y1.6723 I0 J0.0625
G1 X4.2522 Y2.4223
G3 X4.1897 Y2.4848 I-0.0625 J0
G1 X2.1897 Y2.4848
G3 X2.1272 Y2.4223 I0 J-0.0625
G1 X2.1272 Y1.6723
G3 X2.1897 Y1.6098 I0.0625 J0
G1 Z-0.15 F15
G1 X2.9297 Y1.6098 F30
G1 Z-0.05 F15
G1 X3.4297 Y1.6098 F30
G1 Z-0.15 F15
G1 X4.1897 Y1.6098 F30
G3 X4.2522 Y1.6723 I0 J0.0625
G1 X4.2522 Y2.4223
G3 X4.1897 Y2.4848 I-0.0625 J0
G1 X2.1897 Y2.4848
G3 X2.1272 Y2.4223 I0 J-0.0625
G1 X2.1272 Y1.6723
G3 X2.1897 Y1.6098 I0.0625 J0
G0 Z0.5
M5
M30
