(Generated by PartKam Version 0.05)

G20 G90 G40

(profile 1)
G0 Z0.5
T0 M6
G17
M3
G0 X4.4133 Y3.9843
G1 Z-0.075 F15
G1 X3.9435 Y3.9843 F30
G1 Z-0.05 F15
G1 X3.4435 Y3.9843 F30
G1 Z-0.075 F15
G1 X2.9033 Y3.9843 F30
G3 X2.8408 Y3.9218 I0 J-0.0625
G1 X2.8408 Y3.3593
G3 X2.9033 Y3.2968 I0.0625 J0
G1 X2.9658 Y3.2968
G1 X2.9658 Y2.7968
G3 X2.9841 Y2.7526 I0.0625 J0
G1 X3.1091 Y2.6276
G3 X3.1533 Y2.6093 I0.0442 J0.0442
G1 X4.1633 Y2.6093
G3 X4.2075 Y2.6276 I0 J0.0625
G1 X4.3325 Y2.7526
G3 X4.3508 Y2.7968 I-0.0442 J0.0442
G1 X4.3508 Y3.2968
G1 X4.4133 Y3.2968
G3 X4.4758 Y3.3593 I0 J0.0625
G1 X4.4758 Y3.9218
G3 X4.4133 Y3.9843 I-0.0625 J0
G1 Z-0.15 F15
G1 X3.9435 Y3.9843 F30
G1 Z-0.05 F15
G1 X3.4435 Y3.9843 F30
G1 Z-0.15 F15
G1 X2.9033 Y3.9843 F30
G3 X2.8408 Y3.9218 I0 J-0.0625
G1 X2.8408 Y3.3593
G3 X2.9033 Y3.2968 I0.0625 J0
G1 X2.9658 Y3.2968
G1 X2.9658 Y2.7968
G3 X2.9841 Y2.7526 I0.0625 J0
G1 X3.1091 Y2.6276
G3 X3.1533 Y2.6093 I0.0442 J0.0442
G1 X4.1633 Y2.6093
G3 X4.2075 Y2.6276 I0 J0.0625
G1 X4.3325 Y2.7526
G3 X4.3508 Y2.7968 I-0.0442 J0.0442
G1 X4.3508 Y3.2968
G1 X4.4133 Y3.2968
G3 X4.4758 Y3.3593 I0 J0.0625
G1 X4.4758 Y3.9218
G3 X4.4133 Y3.9843 I-0.0625 J0
G0 Z0.5
G0 X6.4288 Y3.9492
G1 Z-0.075 F15
G1 X5.8333 Y3.9492 F30
G1 Z-0.05 F15
G1 X5.3333 Y3.9492 F30
G1 Z-0.075 F15
G1 X4.9188 Y3.9492 F30
G3 X4.8563 Y3.8867 I0 J-0.0625
G1 X4.8563 Y3.3242
G3 X4.9188 Y3.2617 I0.0625 J0
G1 X4.9813 Y3.2617
G1 X4.9813 Y2.7617
G3 X4.9996 Y2.7175 I0.0625 J0
G1 X5.1246 Y2.5925
G3 X5.1688 Y2.5742 I0.0442 J0.0442
G1 X6.1788 Y2.5742
G3 X6.2229 Y2.5925 I0 J0.0625
G1 X6.3479 Y2.7175
G3 X6.3663 Y2.7617 I-0.0442 J0.0442
G1 X6.3663 Y3.2617
G1 X6.4288 Y3.2617
G3 X6.4913 Y3.3242 I0 J0.0625
G1 X6.4913 Y3.8867
G3 X6.4288 Y3.9492 I-0.0625 J0
G1 Z-0.15 F15
G1 X5.8333 Y3.9492 F30
G1 Z-0.05 F15
G1 X5.3333 Y3.9492 F30
G1 Z-0.15 F15
G1 X4.9188 Y3.9492 F30
G3 X4.8563 Y3.8867 I0 J-0.0625
G1 X4.8563 Y3.3242
G3 X4.9188 Y3.2617 I0.0625 J0
G1 X4.9813 Y3.2617
G1 X4.9813 Y2.7617
G3 X4.9996 Y2.7175 I0.0625 J0
G1 X5.1246 Y2.5925
G3 X5.1688 Y2.5742 I0.0442 J0.0442
G1 X6.1788 Y2.5742
G3 X6.2229 Y2.5925 I0 J0.0625
G1 X6.3479 Y2.7175
G3 X6.3663 Y2.7617 I-0.0442 J0.0442
G1 X6.3663 Y3.2617
G1 X6.4288 Y3.2617
G3 X6.4913 Y3.3242 I0 J0.0625
G1 X6.4913 Y3.8867
G3 X6.4288 Y3.9492 I-0.0625 J0
G0 Z0.5
G0 X8.621 Y3.9989
G1 Z-0.075 F15
G1 X8.2769 Y3.9989 F30
G1 Z-0.05 F15
G1 X7.7769 Y3.9989 F30
G1 Z-0.075 F15
G1 X7.111 Y3.9989 F30
G3 X7.0485 Y3.9364 I0 J-0.0625
G1 X7.0485 Y3.3739
G3 X7.111 Y3.3114 I0.0625 J0
G1 X7.1735 Y3.3114
G1 X7.1735 Y2.8114
G3 X7.1919 Y2.7672 I0.0625 J0
G1 X7.3169 Y2.6422
G3 X7.361 Y2.6239 I0.0442 J0.0442
G1 X8.371 Y2.6239
G3 X8.4152 Y2.6422 I0 J0.0625
G1 X8.5402 Y2.7672
G3 X8.5585 Y2.8114 I-0.0442 J0.0442
G1 X8.5585 Y3.3114
G1 X8.621 Y3.3114
G3 X8.6835 Y3.3739 I0 J0.0625
G1 X8.6835 Y3.9364
G3 X8.621 Y3.9989 I-0.0625 J0
G1 Z-0.15 F15
G1 X8.2769 Y3.9989 F30
G1 Z-0.05 F15
G1 X7.7769 Y3.9989 F30
G1 Z-0.15 F15
G1 X7.111 Y3.9989 F30
G3 X7.0485 Y3.9364 I0 J-0.0625
G1 X7.0485 Y3.3739
G3 X7.111 Y3.3114 I0.0625 J0
G1 X7.1735 Y3.3114
G1 X7.1735 Y2.8114
G3 X7.1919 Y2.7672 I0.0625 J0
G1 X7.3169 Y2.6422
G3 X7.361 Y2.6239 I0.0442 J0.0442
G1 X8.371 Y2.6239
G3 X8.4152 Y2.6422 I0 J0.0625
G1 X8.5402 Y2.7672
G3 X8.5585 Y2.8114 I-0.0442 J0.0442
G1 X8.5585 Y3.3114
G1 X8.621 Y3.3114
G3 X8.6835 Y3.3739 I0 J0.0625
G1 X8.6835 Y3.9364
G3 X8.621 Y3.9989 I-0.0625 J0
G0 Z0.5
G0 X4.4319 Y6.2198
G1 Z-0.075 F15
G1 X4.0421 Y6.2198 F30
G1 Z-0.05 F15
G1 X3.5421 Y6.2198 F30
G1 Z-0.075 F15
G1 X2.9219 Y6.2198 F30
G3 X2.8594 Y6.1573 I0 J-0.0625
G1 X2.8594 Y5.5948
G3 X2.9219 Y5.5323 I0.0625 J0
G1 X2.9844 Y5.5323
G1 X2.9844 Y5.0323
G3 X3.0027 Y4.9881 I0.0625 J0
G1 X3.1277 Y4.8631
G3 X3.1719 Y4.8448 I0.0442 J0.0442
G1 X4.1819 Y4.8448
G3 X4.2261 Y4.8631 I0 J0.0625
G1 X4.3511 Y4.9881
G3 X4.3694 Y5.0323 I-0.0442 J0.0442
G1 X4.3694 Y5.5323
G1 X4.4319 Y5.5323
G3 X4.4944 Y5.5948 I0 J0.0625
G1 X4.4944 Y6.1573
G3 X4.4319 Y6.2198 I-0.0625 J0
G1 Z-0.15 F15
G1 X4.0421 Y6.2198 F30
G1 Z-0.05 F15
G1 X3.5421 Y6.2198 F30
G1 Z-0.15 F15
G1 X2.9219 Y6.2198 F30
G3 X2.8594 Y6.1573 I0 J-0.0625
G1 X2.8594 Y5.5948
G3 X2.9219 Y5.5323 I0.0625 J0
G1 X2.9844 Y5.5323
G1 X2.9844 Y5.0323
G3 X3.0027 Y4.9881 I0.0625 J0
G1 X3.1277 Y4.8631
G3 X3.1719 Y4.8448 I0.0442 J0.0442
G1 X4.1819 Y4.8448
G3 X4.2261 Y4.8631 I0 J0.0625
G1 X4.3511 Y4.9881
G3 X4.3694 Y5.0323 I-0.0442 J0.0442
G1 X4.3694 Y5.5323
G1 X4.4319 Y5.5323
G3 X4.4944 Y5.5948 I0 J0.0625
G1 X4.4944 Y6.1573
G3 X4.4319 Y6.2198 I-0.0625 J0
G0 Z0.5
G0 X6.4474 Y6.1847
G1 Z-0.075 F15
G1 X5.9605 Y6.1847 F30
G1 Z-0.05 F15
G1 X5.4605 Y6.1847 F30
G1 Z-0.075 F15
G1 X4.9374 Y6.1847 F30
G3 X4.8749 Y6.1222 I0 J-0.0625
G1 X4.8749 Y5.5597
G3 X4.9374 Y5.4972 I0.0625 J0
G1 X4.9999 Y5.4972
G1 X4.9999 Y4.9972
G3 X5.0182 Y4.953 I0.0625 J0
G1 X5.1432 Y4.828
G3 X5.1874 Y4.8097 I0.0442 J0.0442
G1 X6.1974 Y4.8097
G3 X6.2416 Y4.828 I0 J0.0625
G1 X6.3666 Y4.953
G3 X6.3849 Y4.9972 I-0.0442 J0.0442
G1 X6.3849 Y5.4972
G1 X6.4474 Y5.4972
G3 X6.5099 Y5.5597 I0 J0.0625
G1 X6.5099 Y6.1222
G3 X6.4474 Y6.1847 I-0.0625 J0
G1 Z-0.15 F15
G1 X5.9605 Y6.1847 F30
G1 Z-0.05 F15
G1 X5.4605 Y6.1847 F30
G1 Z-0.15 F15
G1 X4.9374 Y6.1847 F30
G3 X4.8749 Y6.1222 I0 J-0.0625
G1 X4.8749 Y5.5597
G3 X4.9374 Y5.4972 I0.0625 J0
G1 X4.9999 Y5.4972
G1 X4.9999 Y4.9972
G3 X5.0182 Y4.953 I0.0625 J0
G1 X5.1432 Y4.828
G3 X5.1874 Y4.8097 I0.0442 J0.0442
G1 X6.1974 Y4.8097
G3 X6.2416 Y4.828 I0 J0.0625
G1 X6.3666 Y4.953
G3 X6.3849 Y4.9972 I-0.0442 J0.0442
G1 X6.3849 Y5.4972
G1 X6.4474 Y5.4972
G3 X6.5099 Y5.5597 I0 J0.0625
G1 X6.5099 Y6.1222
G3 X6.4474 Y6.1847 I-0.0625 J0
G0 Z0.5
G0 X4.4488 Y1.9675
G1 Z-0.075 F15
G1 X3.9447 Y1.9675 F30
G1 Z-0.05 F15
G1 X3.4447 Y1.9675 F30
G1 Z-0.075 F15
G1 X2.9388 Y1.9675 F30
G3 X2.8763 Y1.905 I0 J-0.0625
G1 X2.8763 Y1.3425
G3 X2.9388 Y1.28 I0.0625 J0
G1 X3.0013 Y1.28
G1 X3.0013 Y0.78
G3 X3.0196 Y0.7358 I0.0625 J0
G1 X3.1446 Y0.6108
G3 X3.1888 Y0.5925 I0.0442 J0.0442
G1 X4.1988 Y0.5925
G3 X4.243 Y0.6108 I0 J0.0625
G1 X4.368 Y0.7358
G3 X4.3863 Y0.78 I-0.0442 J0.0442
G1 X4.3863 Y1.28
G1 X4.4488 Y1.28
G3 X4.5113 Y1.3425 I0 J0.0625
G1 X4.5113 Y1.905
G3 X4.4488 Y1.9675 I-0.0625 J0
G1 Z-0.15 F15
G1 X3.9447 Y1.9675 F30
G1 Z-0.05 F15
G1 X3.4447 Y1.9675 F30
G1 Z-0.15 F15
G1 X2.9388 Y1.9675 F30
G3 X2.8763 Y1.905 I0 J-0.0625
G1 X2.8763 Y1.3425
G3 X2.9388 Y1.28 I0.0625 J0
G1 X3.0013 Y1.28
G1 X3.0013 Y0.78
G3 X3.0196 Y0.7358 I0.0625 J0
G1 X3.1446 Y0.6108
G3 X3.1888 Y0.5925 I0.0442 J0.0442
G1 X4.1988 Y0.5925
G3 X4.243 Y0.6108 I0 J0.0625
G1 X4.368 Y0.7358
G3 X4.3863 Y0.78 I-0.0442 J0.0442
G1 X4.3863 Y1.28
G1 X4.4488 Y1.28
G3 X4.5113 Y1.3425 I0 J0.0625
G1 X4.5113 Y1.905
G3 X4.4488 Y1.9675 I-0.0625 J0
G0 Z0.5
G0 X2.2761 Y1.9963
G1 Z-0.075 F15
G1 X1.7778 Y1.9963 F30
G1 Z-0.05 F15
G1 X1.2778 Y1.9963 F30
G1 Z-0.075 F15
G1 X0.7661 Y1.9963 F30
G3 X0.7036 Y1.9338 I0 J-0.0625
G1 X0.7036 Y1.3713
G3 X0.7661 Y1.3088 I0.0625 J0
G1 X0.8286 Y1.3088
G1 X0.8286 Y0.8088
G3 X0.847 Y0.7646 I0.0625 J0
G1 X0.972 Y0.6396
G3 X1.0161 Y0.6213 I0.0442 J0.0442
G1 X2.0261 Y0.6213
G3 X2.0703 Y0.6396 I0 J0.0625
G1 X2.1953 Y0.7646
G3 X2.2136 Y0.8088 I-0.0442 J0.0442
G1 X2.2136 Y1.3088
G1 X2.2761 Y1.3088
G3 X2.3386 Y1.3713 I0 J0.0625
G1 X2.3386 Y1.9338
G3 X2.2761 Y1.9963 I-0.0625 J0
G1 Z-0.15 F15
G1 X1.7778 Y1.9963 F30
G1 Z-0.05 F15
G1 X1.2778 Y1.9963 F30
G1 Z-0.15 F15
G1 X0.7661 Y1.9963 F30
G3 X0.7036 Y1.9338 I0 J-0.0625
G1 X0.7036 Y1.3713
G3 X0.7661 Y1.3088 I0.0625 J0
G1 X0.8286 Y1.3088
G1 X0.8286 Y0.8088
G3 X0.847 Y0.7646 I0.0625 J0
G1 X0.972 Y0.6396
G3 X1.0161 Y0.6213 I0.0442 J0.0442
G1 X2.0261 Y0.6213
G3 X2.0703 Y0.6396 I0 J0.0625
G1 X2.1953 Y0.7646
G3 X2.2136 Y0.8088 I-0.0442 J0.0442
G1 X2.2136 Y1.3088
G1 X2.2761 Y1.3088
G3 X2.3386 Y1.3713 I0 J0.0625
G1 X2.3386 Y1.9338
G3 X2.2761 Y1.9963 I-0.0625 J0
G0 Z0.5
G0 X2.2407 Y4.0132
G1 Z-0.075 F15
G1 X1.8394 Y4.0132 F30
G1 Z-0.05 F15
G1 X1.3394 Y4.0132 F30
G1 Z-0.075 F15
G1 X0.7307 Y4.0132 F30
G3 X0.6682 Y3.9507 I0 J-0.0625
G1 X0.6682 Y3.3882
G3 X0.7307 Y3.3257 I0.0625 J0
G1 X0.7932 Y3.3257
G1 X0.7932 Y2.8257
G3 X0.8115 Y2.7815 I0.0625 J0
G1 X0.9365 Y2.6565
G3 X0.9807 Y2.6382 I0.0442 J0.0442
G1 X1.9907 Y2.6382
G3 X2.0349 Y2.6565 I0 J0.0625
G1 X2.1599 Y2.7815
G3 X2.1782 Y2.8257 I-0.0442 J0.0442
G1 X2.1782 Y3.3257
G1 X2.2407 Y3.3257
G3 X2.3032 Y3.3882 I0 J0.0625
G1 X2.3032 Y3.9507
G3 X2.2407 Y4.0132 I-0.0625 J0
G1 Z-0.15 F15
G1 X1.8394 Y4.0132 F30
G1 Z-0.05 F15
G1 X1.3394 Y4.0132 F30
G1 Z-0.15 F15
G1 X0.7307 Y4.0132 F30
G3 X0.6682 Y3.9507 I0 J-0.0625
G1 X0.6682 Y3.3882
G3 X0.7307 Y3.3257 I0.0625 J0
G1 X0.7932 Y3.3257
G1 X0.7932 Y2.8257
G3 X0.8115 Y2.7815 I0.0625 J0
G1 X0.9365 Y2.6565
G3 X0.9807 Y2.6382 I0.0442 J0.0442
G1 X1.9907 Y2.6382
G3 X2.0349 Y2.6565 I0 J0.0625
G1 X2.1599 Y2.7815
G3 X2.1782 Y2.8257 I-0.0442 J0.0442
G1 X2.1782 Y3.3257
G1 X2.2407 Y3.3257
G3 X2.3032 Y3.3882 I0 J0.0625
G1 X2.3032 Y3.9507
G3 X2.2407 Y4.0132 I-0.0625 J0
G0 Z0.5
G0 X2.2593 Y6.2487
G1 Z-0.075 F15
G1 X1.8409 Y6.2487 F30
G1 Z-0.05 F15
G1 X1.3409 Y6.2487 F30
G1 Z-0.075 F15
G1 X0.7493 Y6.2487 F30
G3 X0.6868 Y6.1862 I0 J-0.0625
G1 X0.6868 Y5.6237
G3 X0.7493 Y5.5612 I0.0625 J0
G1 X0.8118 Y5.5612
G1 X0.8118 Y5.0612
G3 X0.8301 Y5.017 I0.0625 J0
G1 X0.9551 Y4.892
G3 X0.9993 Y4.8737 I0.0442 J0.0442
G1 X2.0093 Y4.8737
G3 X2.0535 Y4.892 I0 J0.0625
G1 X2.1785 Y5.017
G3 X2.1968 Y5.0612 I-0.0442 J0.0442
G1 X2.1968 Y5.5612
G1 X2.2593 Y5.5612
G3 X2.3218 Y5.6237 I0 J0.0625
G1 X2.3218 Y6.1862
G3 X2.2593 Y6.2487 I-0.0625 J0
G1 Z-0.15 F15
G1 X1.8409 Y6.2487 F30
G1 Z-0.05 F15
G1 X1.3409 Y6.2487 F30
G1 Z-0.15 F15
G1 X0.7493 Y6.2487 F30
G3 X0.6868 Y6.1862 I0 J-0.0625
G1 X0.6868 Y5.6237
G3 X0.7493 Y5.5612 I0.0625 J0
G1 X0.8118 Y5.5612
G1 X0.8118 Y5.0612
G3 X0.8301 Y5.017 I0.0625 J0
G1 X0.9551 Y4.892
G3 X0.9993 Y4.8737 I0.0442 J0.0442
G1 X2.0093 Y4.8737
G3 X2.0535 Y4.892 I0 J0.0625
G1 X2.1785 Y5.017
G3 X2.1968 Y5.0612 I-0.0442 J0.0442
G1 X2.1968 Y5.5612
G1 X2.2593 Y5.5612
G3 X2.3218 Y5.6237 I0 J0.0625
G1 X2.3218 Y6.1862
G3 X2.2593 Y6.2487 I-0.0625 J0
G0 Z0.5
G0 X6.4642 Y1.9324
G1 Z-0.075 F15
G1 X5.9487 Y1.9324 F30
G1 Z-0.05 F15
G1 X5.4487 Y1.9324 F30
G1 Z-0.075 F15
G1 X4.9542 Y1.9324 F30
G3 X4.8917 Y1.8699 I0 J-0.0625
G1 X4.8917 Y1.3074
G3 X4.9542 Y1.2449 I0.0625 J0
G1 X5.0167 Y1.2449
G1 X5.0167 Y0.7449
G3 X5.035 Y0.7007 I0.0625 J0
G1 X5.16 Y0.5757
G3 X5.2042 Y0.5574 I0.0442 J0.0442
G1 X6.2142 Y0.5574
G3 X6.2584 Y0.5757 I0 J0.0625
G1 X6.3834 Y0.7007
G3 X6.4017 Y0.7449 I-0.0442 J0.0442
G1 X6.4017 Y1.2449
G1 X6.4642 Y1.2449
G3 X6.5267 Y1.3074 I0 J0.0625
G1 X6.5267 Y1.8699
G3 X6.4642 Y1.9324 I-0.0625 J0
G1 Z-0.15 F15
G1 X5.9487 Y1.9324 F30
G1 Z-0.05 F15
G1 X5.4487 Y1.9324 F30
G1 Z-0.15 F15
G1 X4.9542 Y1.9324 F30
G3 X4.8917 Y1.8699 I0 J-0.0625
G1 X4.8917 Y1.3074
G3 X4.9542 Y1.2449 I0.0625 J0
G1 X5.0167 Y1.2449
G1 X5.0167 Y0.7449
G3 X5.035 Y0.7007 I0.0625 J0
G1 X5.16 Y0.5757
G3 X5.2042 Y0.5574 I0.0442 J0.0442
G1 X6.2142 Y0.5574
G3 X6.2584 Y0.5757 I0 J0.0625
G1 X6.3834 Y0.7007
G3 X6.4017 Y0.7449 I-0.0442 J0.0442
G1 X6.4017 Y1.2449
G1 X6.4642 Y1.2449
G3 X6.5267 Y1.3074 I0 J0.0625
G1 X6.5267 Y1.8699
G3 X6.4642 Y1.9324 I-0.0625 J0
G0 Z0.5
G0 X8.6369 Y1.9036
G1 Z-0.075 F15
G1 X8.2014 Y1.9036 F30
G1 Z-0.05 F15
G1 X7.7014 Y1.9036 F30
G1 Z-0.075 F15
G1 X7.1269 Y1.9036 F30
G3 X7.0644 Y1.8411 I0 J-0.0625
G1 X7.0644 Y1.2786
G3 X7.1269 Y1.2161 I0.0625 J0
G1 X7.1894 Y1.2161
G1 X7.1894 Y0.7161
G3 X7.2077 Y0.6719 I0.0625 J0
G1 X7.3327 Y0.5469
G3 X7.3769 Y0.5286 I0.0442 J0.0442
G1 X8.3869 Y0.5286
G3 X8.4311 Y0.5469 I0 J0.0625
G1 X8.5561 Y0.6719
G3 X8.5744 Y0.7161 I-0.0442 J0.0442
G1 X8.5744 Y1.2161
G1 X8.6369 Y1.2161
G3 X8.6994 Y1.2786 I0 J0.0625
G1 X8.6994 Y1.8411
G3 X8.6369 Y1.9036 I-0.0625 J0
G1 Z-0.15 F15
G1 X8.2014 Y1.9036 F30
G1 Z-0.05 F15
G1 X7.7014 Y1.9036 F30
G1 Z-0.15 F15
G1 X7.1269 Y1.9036 F30
G3 X7.0644 Y1.8411 I0 J-0.0625
G1 X7.0644 Y1.2786
G3 X7.1269 Y1.2161 I0.0625 J0
G1 X7.1894 Y1.2161
G1 X7.1894 Y0.7161
G3 X7.2077 Y0.6719 I0.0625 J0
G1 X7.3327 Y0.5469
G3 X7.3769 Y0.5286 I0.0442 J0.0442
G1 X8.3869 Y0.5286
G3 X8.4311 Y0.5469 I0 J0.0625
G1 X8.5561 Y0.6719
G3 X8.5744 Y0.7161 I-0.0442 J0.0442
G1 X8.5744 Y1.2161
G1 X8.6369 Y1.2161
G3 X8.6994 Y1.2786 I0 J0.0625
G1 X8.6994 Y1.8411
G3 X8.6369 Y1.9036 I-0.0625 J0
G0 Z0.5
G0 X8.62 Y6.1559
G1 Z-0.075 F15
G1 X8.1388 Y6.1559 F30
G1 Z-0.05 F15
G1 X7.6388 Y6.1559 F30
G1 Z-0.075 F15
G1 X7.11 Y6.1559 F30
G3 X7.0475 Y6.0934 I0 J-0.0625
G1 X7.0475 Y5.5309
G3 X7.11 Y5.4684 I0.0625 J0
G1 X7.1725 Y5.4684
G1 X7.1725 Y4.9684
G3 X7.1908 Y4.9242 I0.0625 J0
G1 X7.3158 Y4.7992
G3 X7.36 Y4.7809 I0.0442 J0.0442
G1 X8.37 Y4.7809
G3 X8.4142 Y4.7992 I0 J0.0625
G1 X8.5392 Y4.9242
G3 X8.5575 Y4.9684 I-0.0442 J0.0442
G1 X8.5575 Y5.4684
G1 X8.62 Y5.4684
G3 X8.6825 Y5.5309 I0 J0.0625
G1 X8.6825 Y6.0934
G3 X8.62 Y6.1559 I-0.0625 J0
G1 Z-0.15 F15
G1 X8.1388 Y6.1559 F30
G1 Z-0.05 F15
G1 X7.6388 Y6.1559 F30
G1 Z-0.15 F15
G1 X7.11 Y6.1559 F30
G3 X7.0475 Y6.0934 I0 J-0.0625
G1 X7.0475 Y5.5309
G3 X7.11 Y5.4684 I0.0625 J0
G1 X7.1725 Y5.4684
G1 X7.1725 Y4.9684
G3 X7.1908 Y4.9242 I0.0625 J0
G1 X7.3158 Y4.7992
G3 X7.36 Y4.7809 I0.0442 J0.0442
G1 X8.37 Y4.7809
G3 X8.4142 Y4.7992 I0 J0.0625
G1 X8.5392 Y4.9242
G3 X8.5575 Y4.9684 I-0.0442 J0.0442
G1 X8.5575 Y5.4684
G1 X8.62 Y5.4684
G3 X8.6825 Y5.5309 I0 J0.0625
G1 X8.6825 Y6.0934
G3 X8.62 Y6.1559 I-0.0625 J0
G0 Z0.5
M5
M30
