(Generated by PartKam Version 0.05)

G20 G90 G40

(profile 1)
G0 Z0.5
T0 M6
G17
M3
G0 X17.1087 Y2.0494
G1 Z-0.075 F15
G1 X13.0247 Y2.0494 F30
G3 X12.9622 Y1.9869 I0 J-0.0625
G1 X12.9622 Y1.4913
G1 Z-0.05 F15
G1 X12.9622 Y0.9913 F30
G1 Z-0.075 F15
G1 X12.9622 Y0.7369 F30
G3 X13.0247 Y0.6744 I0.0625 J0
G1 X14.4667 Y0.6744
G3 X14.5292 Y0.7369 I0 J0.0625
G1 X14.5292 Y0.9325
G3 X14.5917 Y0.87 I0.0625 J0
G1 X14.6542 Y0.87
G3 X14.7167 Y0.9325 I0 J0.0625
G1 X14.7167 Y0.7369
G3 X14.7792 Y0.6744 I0.0625 J0
G1 X17.1087 Y0.6744
G3 X17.1712 Y0.7369 I0 J0.0625
G1 X17.1712 Y1.093
G1 Z-0.05 F15
G1 X17.1712 Y1.593 F30
G1 Z-0.075 F15
G1 X17.1712 Y1.9869 F30
G3 X17.1087 Y2.0494 I-0.0625 J0
G1 Z-0.15 F15
G1 X13.0247 Y2.0494 F30
G3 X12.9622 Y1.9869 I0 J-0.0625
G1 X12.9622 Y1.4913
G1 Z-0.05 F15
G1 X12.9622 Y0.9913 F30
G1 Z-0.15 F15
G1 X12.9622 Y0.7369 F30
G3 X13.0247 Y0.6744 I0.0625 J0
G1 X14.4667 Y0.6744
G3 X14.5292 Y0.7369 I0 J0.0625
G1 X14.5292 Y0.9325
G3 X14.5917 Y0.87 I0.0625 J0
G1 X14.6542 Y0.87
G3 X14.7167 Y0.9325 I0 J0.0625
G1 X14.7167 Y0.7369
G3 X14.7792 Y0.6744 I0.0625 J0
G1 X17.1087 Y0.6744
G3 X17.1712 Y0.7369 I0 J0.0625
G1 X17.1712 Y1.093
G1 Z-0.05 F15
G1 X17.1712 Y1.593 F30
G1 Z-0.15 F15
G1 X17.1712 Y1.9869 F30
G3 X17.1087 Y2.0494 I-0.0625 J0
G0 Z0.5
G0 X10.2969 Y4.3889
G1 Z-0.075 F15
G1 X7.2969 Y4.3889 F30
G3 X7.2344 Y4.3264 I0 J-0.0625
G1 X7.2344 Y4.4514
G3 X7.1719 Y4.5139 I-0.0625 J0
G1 X6.6719 Y4.5139
G3 X6.6094 Y4.4514 I0 J-0.0625
G1 X6.6094 Y3.9272
G1 Z-0.05 F15
G1 X6.6094 Y3.4272 F30
G1 Z-0.075 F15
G1 X6.6094 Y3.0014 F30
G3 X6.6719 Y2.9389 I0.0625 J0
G1 X7.1719 Y2.9389
G3 X7.2344 Y3.0014 I0 J0.0625
G1 X7.2344 Y3.1264
G3 X7.2969 Y3.0639 I0.0625 J0
G1 X10.2969 Y3.0639
G3 X10.3594 Y3.1264 I0 J0.0625
G1 X10.3594 Y3.0014
G3 X10.4219 Y2.9389 I0.0625 J0
G1 X10.9219 Y2.9389
G3 X10.9844 Y3.0014 I0 J0.0625
G1 X10.9844 Y3.1264
G3 X11.0469 Y3.0639 I0.0625 J0
G1 X12.1319 Y3.0639
G3 X12.1944 Y3.1264 I0 J0.0625
G1 X12.1944 Y3.4346
G1 Z-0.05 F15
G1 X12.1944 Y3.9346 F30
G1 Z-0.075 F15
G1 X12.1944 Y4.3264 F30
G3 X12.1319 Y4.3889 I-0.0625 J0
G1 X11.0469 Y4.3889
G3 X10.9844 Y4.3264 I0 J-0.0625
G1 X10.9844 Y4.4514
G3 X10.9219 Y4.5139 I-0.0625 J0
G1 X10.4219 Y4.5139
G3 X10.3594 Y4.4514 I0 J-0.0625
G1 X10.3594 Y4.3264
G3 X10.2969 Y4.3889 I-0.0625 J0
G1 Z-0.15 F15
G1 X7.2969 Y4.3889 F30
G3 X7.2344 Y4.3264 I0 J-0.0625
G1 X7.2344 Y4.4514
G3 X7.1719 Y4.5139 I-0.0625 J0
G1 X6.6719 Y4.5139
G3 X6.6094 Y4.4514 I0 J-0.0625
G1 X6.6094 Y3.9272
G1 Z-0.05 F15
G1 X6.6094 Y3.4272 F30
G1 Z-0.15 F15
G1 X6.6094 Y3.0014 F30
G3 X6.6719 Y2.9389 I0.0625 J0
G1 X7.1719 Y2.9389
G3 X7.2344 Y3.0014 I0 J0.0625
G1 X7.2344 Y3.1264
G3 X7.2969 Y3.0639 I0.0625 J0
G1 X10.2969 Y3.0639
G3 X10.3594 Y3.1264 I0 J0.0625
G1 X10.3594 Y3.0014
G3 X10.4219 Y2.9389 I0.0625 J0
G1 X10.9219 Y2.9389
G3 X10.9844 Y3.0014 I0 J0.0625
G1 X10.9844 Y3.1264
G3 X11.0469 Y3.0639 I0.0625 J0
G1 X12.1319 Y3.0639
G3 X12.1944 Y3.1264 I0 J0.0625
G1 X12.1944 Y3.4346
G1 Z-0.05 F15
G1 X12.1944 Y3.9346 F30
G1 Z-0.15 F15
G1 X12.1944 Y4.3264 F30
G3 X12.1319 Y4.3889 I-0.0625 J0
G1 X11.0469 Y4.3889
G3 X10.9844 Y4.3264 I0 J-0.0625
G1 X10.9844 Y4.4514
G3 X10.9219 Y4.5139 I-0.0625 J0
G1 X10.4219 Y4.5139
G3 X10.3594 Y4.4514 I0 J-0.0625
G1 X10.3594 Y4.3264
G3 X10.2969 Y4.3889 I-0.0625 J0
G0 Z0.5
G0 X10.371 Y1.9826
G1 Z-0.075 F15
G1 X7.371 Y1.9826 F30
G3 X7.3085 Y1.9201 I0 J-0.0625
G1 X7.3085 Y2.0451
G3 X7.246 Y2.1076 I-0.0625 J0
G1 X6.746 Y2.1076
G3 X6.6835 Y2.0451 I0 J-0.0625
G1 X6.6835 Y1.4755
G1 Z-0.05 F15
G1 X6.6835 Y0.9755 F30
G1 Z-0.075 F15
G1 X6.6835 Y0.5951 F30
G3 X6.746 Y0.5326 I0.0625 J0
G1 X7.246 Y0.5326
G3 X7.3085 Y0.5951 I0 J0.0625
G1 X7.3085 Y0.7201
G3 X7.371 Y0.6576 I0.0625 J0
G1 X10.371 Y0.6576
G3 X10.4335 Y0.7201 I0 J0.0625
G1 X10.4335 Y0.5951
G3 X10.496 Y0.5326 I0.0625 J0
G1 X10.996 Y0.5326
G3 X11.0585 Y0.5951 I0 J0.0625
G1 X11.0585 Y0.7201
G3 X11.121 Y0.6576 I0.0625 J0
G1 X12.206 Y0.6576
G3 X12.2685 Y0.7201 I0 J0.0625
G1 X12.2685 Y1.0738
G1 Z-0.05 F15
G1 X12.2685 Y1.5738 F30
G1 Z-0.075 F15
G1 X12.2685 Y1.9201 F30
G3 X12.206 Y1.9826 I-0.0625 J0
G1 X11.121 Y1.9826
G3 X11.0585 Y1.9201 I0 J-0.0625
G1 X11.0585 Y2.0451
G3 X10.996 Y2.1076 I-0.0625 J0
G1 X10.496 Y2.1076
G3 X10.4335 Y2.0451 I0 J-0.0625
G1 X10.4335 Y1.9201
G3 X10.371 Y1.9826 I-0.0625 J0
G1 Z-0.15 F15
G1 X7.371 Y1.9826 F30
G3 X7.3085 Y1.9201 I0 J-0.0625
G1 X7.3085 Y2.0451
G3 X7.246 Y2.1076 I-0.0625 J0
G1 X6.746 Y2.1076
G3 X6.6835 Y2.0451 I0 J-0.0625
G1 X6.6835 Y1.4755
G1 Z-0.05 F15
G1 X6.6835 Y0.9755 F30
G1 Z-0.15 F15
G1 X6.6835 Y0.5951 F30
G3 X6.746 Y0.5326 I0.0625 J0
G1 X7.246 Y0.5326
G3 X7.3085 Y0.5951 I0 J0.0625
G1 X7.3085 Y0.7201
G3 X7.371 Y0.6576 I0.0625 J0
G1 X10.371 Y0.6576
G3 X10.4335 Y0.7201 I0 J0.0625
G1 X10.4335 Y0.5951
G3 X10.496 Y0.5326 I0.0625 J0
G1 X10.996 Y0.5326
G3 X11.0585 Y0.5951 I0 J0.0625
G1 X11.0585 Y0.7201
G3 X11.121 Y0.6576 I0.0625 J0
G1 X12.206 Y0.6576
G3 X12.2685 Y0.7201 I0 J0.0625
G1 X12.2685 Y1.0738
G1 Z-0.05 F15
G1 X12.2685 Y1.5738 F30
G1 Z-0.15 F15
G1 X12.2685 Y1.9201 F30
G3 X12.206 Y1.9826 I-0.0625 J0
G1 X11.121 Y1.9826
G3 X11.0585 Y1.9201 I0 J-0.0625
G1 X11.0585 Y2.0451
G3 X10.996 Y2.1076 I-0.0625 J0
G1 X10.496 Y2.1076
G3 X10.4335 Y2.0451 I0 J-0.0625
G1 X10.4335 Y1.9201
G3 X10.371 Y1.9826 I-0.0625 J0
G0 Z0.5
G0 X4.5075 Y4.4173
G1 Z-0.075 F15
G1 X3.7724 Y4.4173 F30
G1 Z-0.05 F15
G1 X3.2724 Y4.4173 F30
G1 Z-0.075 F15
G1 X2.7575 Y4.4173 F30
G3 X2.695 Y4.3548 I0 J-0.0625
G1 X2.695 Y4.4798
G3 X2.6325 Y4.5423 I-0.0625 J0
G1 X1.6325 Y4.5423
G3 X1.57 Y4.4798 I0 J-0.0625
G1 X1.57 Y4.3548
G3 X1.5075 Y4.4173 I-0.0625 J0
G1 X0.5325 Y4.4173
G3 X0.47 Y4.3548 I0 J-0.0625
G1 X0.47 Y3.1548
G3 X0.5325 Y3.0923 I0.0625 J0
G1 X1.5075 Y3.0923
G3 X1.57 Y3.1548 I0 J0.0625
G1 X1.57 Y3.0298
G3 X1.6325 Y2.9673 I0.0625 J0
G1 X2.6325 Y2.9673
G3 X2.695 Y3.0298 I0 J0.0625
G1 X2.695 Y3.1548
G3 X2.7575 Y3.0923 I0.0625 J0
G1 X4.5075 Y3.0923
G3 X4.57 Y3.1548 I0 J0.0625
G1 X4.57 Y3.0298
G3 X4.6325 Y2.9673 I0.0625 J0
G1 X5.6325 Y2.9673
G3 X5.695 Y3.0298 I0 J0.0625
G1 X5.695 Y3.1548
G3 X5.755 Y3.2172 I-0.0025 J0.0624
G1 X5.755 Y4.2923
G1 X5.755 Y4.2923
G3 X5.695 Y4.3548 I-0.0625 J0
G1 X5.695 Y4.4798
G3 X5.6325 Y4.5423 I-0.0625 J0
G1 X4.6325 Y4.5423
G3 X4.57 Y4.4798 I0 J-0.0625
G1 X4.57 Y4.3548
G3 X4.5075 Y4.4173 I-0.0625 J0
G1 Z-0.15 F15
G1 X3.7724 Y4.4173 F30
G1 Z-0.05 F15
G1 X3.2724 Y4.4173 F30
G1 Z-0.15 F15
G1 X2.7575 Y4.4173 F30
G3 X2.695 Y4.3548 I0 J-0.0625
G1 X2.695 Y4.4798
G3 X2.6325 Y4.5423 I-0.0625 J0
G1 X1.6325 Y4.5423
G3 X1.57 Y4.4798 I0 J-0.0625
G1 X1.57 Y4.3548
G3 X1.5075 Y4.4173 I-0.0625 J0
G1 X0.5325 Y4.4173
G3 X0.47 Y4.3548 I0 J-0.0625
G1 X0.47 Y3.1548
G3 X0.5325 Y3.0923 I0.0625 J0
G1 X1.5075 Y3.0923
G3 X1.57 Y3.1548 I0 J0.0625
G1 X1.57 Y3.0298
G3 X1.6325 Y2.9673 I0.0625 J0
G1 X2.6325 Y2.9673
G3 X2.695 Y3.0298 I0 J0.0625
G1 X2.695 Y3.1548
G3 X2.7575 Y3.0923 I0.0625 J0
G1 X4.5075 Y3.0923
G3 X4.57 Y3.1548 I0 J0.0625
G1 X4.57 Y3.0298
G3 X4.6325 Y2.9673 I0.0625 J0
G1 X5.6325 Y2.9673
G3 X5.695 Y3.0298 I0 J0.0625
G1 X5.695 Y3.1548
G3 X5.755 Y3.2172 I-0.0025 J0.0624
G1 X5.755 Y4.2923
G1 X5.755 Y4.2923
G3 X5.695 Y4.3548 I-0.0625 J0
G1 X5.695 Y4.4798
G3 X5.6325 Y4.5423 I-0.0625 J0
G1 X4.6325 Y4.5423
G3 X4.57 Y4.4798 I0 J-0.0625
G1 X4.57 Y4.3548
G3 X4.5075 Y4.4173 I-0.0625 J0
G0 Z0.5
G0 X4.5815 Y2.011
G1 Z-0.075 F15
G1 X2.8315 Y2.011 F30
G3 X2.769 Y1.9485 I0 J-0.0625
G1 X2.769 Y2.0735
G3 X2.7065 Y2.136 I-0.0625 J0
G1 X1.7065 Y2.136
G3 X1.644 Y2.0735 I0 J-0.0625
G1 X1.644 Y1.9485
G3 X1.5815 Y2.011 I-0.0625 J0
G1 X0.6065 Y2.011
G3 X0.544 Y1.9485 I0 J-0.0625
G1 X0.544 Y0.7485
G3 X0.6065 Y0.686 I0.0625 J0
G1 X1.5815 Y0.686
G3 X1.644 Y0.7485 I0 J0.0625
G1 X1.644 Y0.6235
G3 X1.7065 Y0.561 I0.0625 J0
G1 X2.7065 Y0.561
G3 X2.769 Y0.6235 I0 J0.0625
G1 X2.769 Y0.7485
G3 X2.8315 Y0.686 I0.0625 J0
G1 X4.5815 Y0.686
G3 X4.644 Y0.7485 I0 J0.0625
G1 X4.644 Y0.6235
G3 X4.7065 Y0.561 I0.0625 J0
G1 X5.7065 Y0.561
G3 X5.769 Y0.6235 I0 J0.0625
G1 X5.769 Y0.7485
G3 X5.829 Y0.811 I-0.0025 J0.0624
G1 X5.829 Y1.1321
G1 Z-0.05 F15
G1 X5.829 Y1.6321 F30
G1 Z-0.075 F15
G1 X5.829 Y1.8861 F30
G1 X5.829 Y1.8861
G3 X5.769 Y1.9485 I-0.0625 J0
G1 X5.769 Y2.0735
G3 X5.7065 Y2.136 I-0.0625 J0
G1 X4.7065 Y2.136
G3 X4.644 Y2.0735 I0 J-0.0625
G1 X4.644 Y1.9485
G3 X4.5815 Y2.011 I-0.0625 J0
G1 Z-0.15 F15
G1 X2.8315 Y2.011 F30
G3 X2.769 Y1.9485 I0 J-0.0625
G1 X2.769 Y2.0735
G3 X2.7065 Y2.136 I-0.0625 J0
G1 X1.7065 Y2.136
G3 X1.644 Y2.0735 I0 J-0.0625
G1 X1.644 Y1.9485
G3 X1.5815 Y2.011 I-0.0625 J0
G1 X0.6065 Y2.011
G3 X0.544 Y1.9485 I0 J-0.0625
G1 X0.544 Y0.7485
G3 X0.6065 Y0.686 I0.0625 J0
G1 X1.5815 Y0.686
G3 X1.644 Y0.7485 I0 J0.0625
G1 X1.644 Y0.6235
G3 X1.7065 Y0.561 I0.0625 J0
G1 X2.7065 Y0.561
G3 X2.769 Y0.6235 I0 J0.0625
G1 X2.769 Y0.7485
G3 X2.8315 Y0.686 I0.0625 J0
G1 X4.5815 Y0.686
G3 X4.644 Y0.7485 I0 J0.0625
G1 X4.644 Y0.6235
G3 X4.7065 Y0.561 I0.0625 J0
G1 X5.7065 Y0.561
G3 X5.769 Y0.6235 I0 J0.0625
G1 X5.769 Y0.7485
G3 X5.829 Y0.811 I-0.0025 J0.0624
G1 X5.829 Y1.1321
G1 Z-0.05 F15
G1 X5.829 Y1.6321 F30
G1 Z-0.15 F15
G1 X5.829 Y1.8861 F30
G1 X5.829 Y1.8861
G3 X5.769 Y1.9485 I-0.0625 J0
G1 X5.769 Y2.0735
G3 X5.7065 Y2.136 I-0.0625 J0
G1 X4.7065 Y2.136
G3 X4.644 Y2.0735 I0 J-0.0625
G1 X4.644 Y1.9485
G3 X4.5815 Y2.011 I-0.0625 J0
G0 Z0.5
M5
M30
