(Generated by PartKam Version 0.05)

G20 G90 G40

(profile 1)
G0 Z0.5
T0 M6
G17
M3
G0 X5.6295 Y1.3299
G1 Z-0.075 F15
G1 X5.6295 Y3.6199 F30
G1 Z-0.05 F15
G1 X5.6295 Y4.1199 F30
G1 Z-0.075 F15
G1 X5.6295 Y6.6661 F30
G3 X5.567 Y6.7286 I-0.0625 J0
G1 X3.5228 Y6.7286
G1 Z-0.05 F15
G1 X3.0228 Y6.7286 F30
G1 Z-0.075 F15
G1 X0.597 Y6.7286 F30
G3 X0.5345 Y6.6661 I0 J-0.0625
G1 X0.5345 Y4.0891
G1 Z-0.05 F15
G1 X0.5345 Y3.5891 F30
G1 Z-0.075 F15
G1 X0.5345 Y1.3299 F30
G3 X0.5478 Y1.2913 I0.0625 J0
G1 X1.1156 Y0.5675
G3 X1.1648 Y0.5436 I0.0492 J0.0386
G1 X2.9017 Y0.5436
G1 Z-0.05 F15
G1 X3.4017 Y0.5436 F30
G1 Z-0.075 F15
G1 X4.9991 Y0.5436 F30
G3 X5.0483 Y0.5675 I0 J0.0625
G1 X5.6162 Y1.2913
G3 X5.6295 Y1.3299 I-0.0492 J0.0386
G1 Z-0.15 F15
G1 X5.6295 Y3.6199 F30
G1 Z-0.05 F15
G1 X5.6295 Y4.1199 F30
G1 Z-0.15 F15
G1 X5.6295 Y6.6661 F30
G3 X5.567 Y6.7286 I-0.0625 J0
G1 X3.5228 Y6.7286
G1 Z-0.05 F15
G1 X3.0228 Y6.7286 F30
G1 Z-0.15 F15
G1 X0.597 Y6.7286 F30
G3 X0.5345 Y6.6661 I0 J-0.0625
G1 X0.5345 Y4.0891
G1 Z-0.05 F15
G1 X0.5345 Y3.5891 F30
G1 Z-0.15 F15
G1 X0.5345 Y1.3299 F30
G3 X0.5478 Y1.2913 I0.0625 J0
G1 X1.1156 Y0.5675
G3 X1.1648 Y0.5436 I0.0492 J0.0386
G1 X2.9017 Y0.5436
G1 Z-0.05 F15
G1 X3.4017 Y0.5436 F30
G1 Z-0.15 F15
G1 X4.9991 Y0.5436 F30
G3 X5.0483 Y0.5675 I0 J0.0625
G1 X5.6162 Y1.2913
G3 X5.6295 Y1.3299 I-0.0492 J0.0386
G0 Z0.5
G0 X2.6062 Y9.5206
G1 Z-0.075 F15
G1 X1.1887 Y7.7136 F30
G3 X1.1753 Y7.675 I0.0492 J-0.0386
G3 X1.2378 Y7.6125 I0.0625 J0
G1 X2.8886 Y7.6125
G1 Z-0.05 F15
G1 X3.3886 Y7.6125 F30
G1 Z-0.075 F15
G1 X3.4425 Y7.6125 F30
G1 X3.755 Y7.6125
G1 X5.0722 Y7.6125
G3 X5.1347 Y7.675 I0 J0.0625
G3 X5.1213 Y7.7136 I-0.0625 J0
G1 X4.2598 Y8.8119
G1 X4.2034 Y8.8838
G1 X4.0347 Y9.0988
G1 X3.7038 Y9.5206
G3 X3.551 Y9.6642 I-0.5488 J-0.4305
G3 X3.3624 Y9.756 I-0.396 J-0.5742
G3 X3.155 Y9.7875 I-0.2074 J-0.666
G3 X2.9476 Y9.756 I0 J-0.6975
G3 X2.759 Y9.6642 I0.2074 J-0.666
G3 X2.6062 Y9.5206 I0.396 J-0.5742
G1 Z-0.15 F15
G1 X1.1887 Y7.7136 F30
G3 X1.1753 Y7.675 I0.0492 J-0.0386
G3 X1.2378 Y7.6125 I0.0625 J0
G1 X2.8886 Y7.6125
G1 Z-0.05 F15
G1 X3.3886 Y7.6125 F30
G1 Z-0.15 F15
G1 X3.4425 Y7.6125 F30
G1 X3.755 Y7.6125
G1 X5.0722 Y7.6125
G3 X5.1347 Y7.675 I0 J0.0625
G3 X5.1213 Y7.7136 I-0.0625 J0
G1 X4.2598 Y8.8119
G1 X4.2034 Y8.8838
G1 X4.0347 Y9.0988
G1 X3.7038 Y9.5206
G3 X3.551 Y9.6642 I-0.5488 J-0.4305
G3 X3.3624 Y9.756 I-0.396 J-0.5742
G3 X3.155 Y9.7875 I-0.2074 J-0.666
G3 X2.9476 Y9.756 I0 J-0.6975
G3 X2.759 Y9.6642 I0.2074 J-0.666
G3 X2.6062 Y9.5206 I0.396 J-0.5742

(profile 2)
G0 Z0.5
G0 X3.0666 Y9.1784
G1 Z-0.075 F15
G3 X3.0395 Y9.1379 I0.0884 J-0.0884 F30
G3 X3.03 Y9.09 I0.1155 J-0.0478
G3 X3.0395 Y9.0422 I0.125 J0
G3 X3.0666 Y9.0017 I0.1155 J0.0478
G3 X3.1072 Y8.9746 I0.0884 J0.0884
G3 X3.155 Y8.965 I0.0478 J0.1155
G3 X3.2028 Y8.9746 I0 J0.125
G3 X3.2434 Y9.0017 I-0.0478 J0.1155
G3 X3.2705 Y9.0422 I-0.0884 J0.0884
G3 X3.28 Y9.09 I-0.1155 J0.0478
G3 X3.2705 Y9.1379 I-0.125 J0
G3 X3.2434 Y9.1784 I-0.1155 J-0.0478
G3 X3.2028 Y9.2055 I-0.0884 J-0.0884
G3 X3.155 Y9.215 I-0.0478 J-0.1155
G3 X3.1072 Y9.2055 I0 J-0.125
G3 X3.0666 Y9.1784 I0.0478 J-0.1155
G1 Z-0.15 F15
G3 X3.0395 Y9.1379 I0.0884 J-0.0884 F30
G3 X3.03 Y9.09 I0.1155 J-0.0478
G3 X3.0395 Y9.0422 I0.125 J0
G3 X3.0666 Y9.0017 I0.1155 J0.0478
G3 X3.1072 Y8.9746 I0.0884 J0.0884
G3 X3.155 Y8.965 I0.0478 J0.1155
G3 X3.2028 Y8.9746 I0 J0.125
G3 X3.2434 Y9.0017 I-0.0478 J0.1155
G3 X3.2705 Y9.0422 I-0.0884 J0.0884
G3 X3.28 Y9.09 I-0.1155 J0.0478
G3 X3.2705 Y9.1379 I-0.125 J0
G3 X3.2434 Y9.1784 I-0.1155 J-0.0478
G3 X3.2028 Y9.2055 I-0.0884 J-0.0884
G3 X3.155 Y9.215 I-0.0478 J-0.1155
G3 X3.1072 Y9.2055 I0 J-0.125
G3 X3.0666 Y9.1784 I0.0478 J-0.1155
G0 Z0.5
M5
M30
