(Generated by PartKam Version 0.05)

G20 G90 G40

(profile 1)
G0 Z0.5
T0 M6
G17
M3
G0 X3.6724 Y2.7315
G1 Z-0.075 F15
G1 X3.6724 Y3.1624 F30
G1 Z-0.05 F15
G1 X3.6724 Y3.6624 F30
G1 Z-0.075 F15
G1 X3.6724 Y4.2315 F30
G3 X3.6099 Y4.294 I-0.0625 J0
G1 X3.2349 Y4.294
G3 X3.1724 Y4.2315 I0 J-0.0625
G1 X3.1724 Y4.169
G1 X2.7574 Y4.169
G3 X2.6949 Y4.1065 I0 J-0.0625
G1 X2.6949 Y2.8565
G3 X2.7574 Y2.794 I0.0625 J0
G1 X3.1724 Y2.794
G1 X3.1724 Y2.7315
G3 X3.2349 Y2.669 I0.0625 J0
G1 X3.6099 Y2.669
G3 X3.6724 Y2.7315 I0 J0.0625
G1 Z-0.15 F15
G1 X3.6724 Y3.1624 F30
G1 Z-0.05 F15
G1 X3.6724 Y3.6624 F30
G1 Z-0.15 F15
G1 X3.6724 Y4.2315 F30
G3 X3.6099 Y4.294 I-0.0625 J0
G1 X3.2349 Y4.294
G3 X3.1724 Y4.2315 I0 J-0.0625
G1 X3.1724 Y4.169
G1 X2.7574 Y4.169
G3 X2.6949 Y4.1065 I0 J-0.0625
G1 X2.6949 Y2.8565
G3 X2.7574 Y2.794 I0.0625 J0
G1 X3.1724 Y2.794
G1 X3.1724 Y2.7315
G3 X3.2349 Y2.669 I0.0625 J0
G1 X3.6099 Y2.669
G3 X3.6724 Y2.7315 I0 J0.0625
G0 Z0.5
G0 X1.7479 Y2.8202
G1 Z-0.075 F15
G1 X1.7479 Y3.2562 F30
G1 Z-0.05 F15
G1 X1.7479 Y3.7562 F30
G1 Z-0.075 F15
G1 X1.7479 Y4.3202 F30
G3 X1.6854 Y4.3827 I-0.0625 J0
G1 X1.3104 Y4.3827
G3 X1.2479 Y4.3202 I0 J-0.0625
G1 X1.2479 Y4.2577
G1 X0.8329 Y4.2577
G3 X0.7704 Y4.1952 I0 J-0.0625
G1 X0.7704 Y2.9452
G3 X0.8329 Y2.8827 I0.0625 J0
G1 X1.2479 Y2.8827
G1 X1.2479 Y2.8202
G3 X1.3104 Y2.7577 I0.0625 J0
G1 X1.6854 Y2.7577
G3 X1.7479 Y2.8202 I0 J0.0625
G1 Z-0.15 F15
G1 X1.7479 Y3.2562 F30
G1 Z-0.05 F15
G1 X1.7479 Y3.7562 F30
G1 Z-0.15 F15
G1 X1.7479 Y4.3202 F30
G3 X1.6854 Y4.3827 I-0.0625 J0
G1 X1.3104 Y4.3827
G3 X1.2479 Y4.3202 I0 J-0.0625
G1 X1.2479 Y4.2577
G1 X0.8329 Y4.2577
G3 X0.7704 Y4.1952 I0 J-0.0625
G1 X0.7704 Y2.9452
G3 X0.8329 Y2.8827 I0.0625 J0
G1 X1.2479 Y2.8827
G1 X1.2479 Y2.8202
G3 X1.3104 Y2.7577 I0.0625 J0
G1 X1.6854 Y2.7577
G3 X1.7479 Y2.8202 I0 J0.0625
G0 Z0.5
G0 X5.81 Y0.7684
G1 Z-0.075 F15
G1 X5.81 Y1.0975 F30
G1 Z-0.05 F15
G1 X5.81 Y1.5975 F30
G1 Z-0.075 F15
G1 X5.81 Y2.0184 F30
G3 X5.7475 Y2.0809 I-0.0625 J0
G1 X5.1225 Y2.0809
G3 X5.06 Y2.0184 I0 J-0.0625
G1 X5.06 Y2.1434
G3 X4.9975 Y2.2059 I-0.0625 J0
G1 X3.9975 Y2.2059
G3 X3.935 Y2.1434 I0 J-0.0625
G1 X3.935 Y2.0184
G3 X3.8725 Y2.0809 I-0.0625 J0
G1 X3.565 Y2.0809
G3 X3.5025 Y2.0184 I0 J-0.0625
G1 X3.5025 Y0.7684
G3 X3.565 Y0.7059 I0.0625 J0
G1 X3.8725 Y0.7059
G3 X3.935 Y0.7684 I0 J0.0625
G1 X3.935 Y0.6434
G3 X3.9975 Y0.5809 I0.0625 J0
G1 X4.9975 Y0.5809
G3 X5.06 Y0.6434 I0 J0.0625
G1 X5.06 Y0.7684
G3 X5.1225 Y0.7059 I0.0625 J0
G1 X5.7475 Y0.7059
G3 X5.81 Y0.7684 I0 J0.0625
G1 Z-0.15 F15
G1 X5.81 Y1.0975 F30
G1 Z-0.05 F15
G1 X5.81 Y1.5975 F30
G1 Z-0.15 F15
G1 X5.81 Y2.0184 F30
G3 X5.7475 Y2.0809 I-0.0625 J0
G1 X5.1225 Y2.0809
G3 X5.06 Y2.0184 I0 J-0.0625
G1 X5.06 Y2.1434
G3 X4.9975 Y2.2059 I-0.0625 J0
G1 X3.9975 Y2.2059
G3 X3.935 Y2.1434 I0 J-0.0625
G1 X3.935 Y2.0184
G3 X3.8725 Y2.0809 I-0.0625 J0
G1 X3.565 Y2.0809
G3 X3.5025 Y2.0184 I0 J-0.0625
G1 X3.5025 Y0.7684
G3 X3.565 Y0.7059 I0.0625 J0
G1 X3.8725 Y0.7059
G3 X3.935 Y0.7684 I0 J0.0625
G1 X3.935 Y0.6434
G3 X3.9975 Y0.5809 I0.0625 J0
G1 X4.9975 Y0.5809
G3 X5.06 Y0.6434 I0 J0.0625
G1 X5.06 Y0.7684
G3 X5.1225 Y0.7059 I0.0625 J0
G1 X5.7475 Y0.7059
G3 X5.81 Y0.7684 I0 J0.0625
G0 Z0.5
G0 X6.0732 Y2.9208
G1 Z-0.075 F15
G1 X6.0732 Y3.2039 F30
G1 Z-0.05 F15
G1 X6.0732 Y3.7039 F30
G1 Z-0.075 F15
G1 X6.0732 Y4.1708 F30
G3 X6.0107 Y4.2333 I-0.0625 J0
G1 X5.886 Y4.2333
G1 X5.5807 Y4.2333
G1 X5.5807 Y4.2958
G3 X5.5182 Y4.3583 I-0.0625 J0
G1 X5.0232 Y4.3583
G3 X4.9607 Y4.2958 I0 J-0.0625
G1 X4.9607 Y4.2333
G1 X4.4607 Y4.2333
G3 X4.3982 Y4.1708 I0 J-0.0625
G1 X4.3982 Y3.7958
G1 X4.3357 Y3.7958
G3 X4.2732 Y3.7333 I0 J-0.0625
G1 X4.2732 Y3.3583
G3 X4.3357 Y3.2958 I0.0625 J0
G1 X4.3982 Y3.2958
G1 X4.3982 Y2.9208
G3 X4.4607 Y2.8583 I0.0625 J0
G1 X4.9607 Y2.8583
G1 X4.9607 Y2.7958
G3 X5.0232 Y2.7333 I0.0625 J0
G1 X5.5182 Y2.7333
G3 X5.5807 Y2.7958 I0 J0.0625
G1 X5.5807 Y2.8583
G1 X5.886 Y2.8583
G1 X6.0107 Y2.8583
G3 X6.0732 Y2.9208 I0 J0.0625
G1 Z-0.15 F15
G1 X6.0732 Y3.2039 F30
G1 Z-0.05 F15
G1 X6.0732 Y3.7039 F30
G1 Z-0.15 F15
G1 X6.0732 Y4.1708 F30
G3 X6.0107 Y4.2333 I-0.0625 J0
G1 X5.886 Y4.2333
G1 X5.5807 Y4.2333
G1 X5.5807 Y4.2958
G3 X5.5182 Y4.3583 I-0.0625 J0
G1 X5.0232 Y4.3583
G3 X4.9607 Y4.2958 I0 J-0.0625
G1 X4.9607 Y4.2333
G1 X4.4607 Y4.2333
G3 X4.3982 Y4.1708 I0 J-0.0625
G1 X4.3982 Y3.7958
G1 X4.3357 Y3.7958
G3 X4.2732 Y3.7333 I0 J-0.0625
G1 X4.2732 Y3.3583
G3 X4.3357 Y3.2958 I0.0625 J0
G1 X4.3982 Y3.2958
G1 X4.3982 Y2.9208
G3 X4.4607 Y2.8583 I0.0625 J0
G1 X4.9607 Y2.8583
G1 X4.9607 Y2.7958
G3 X5.0232 Y2.7333 I0.0625 J0
G1 X5.5182 Y2.7333
G3 X5.5807 Y2.7958 I0 J0.0625
G1 X5.5807 Y2.8583
G1 X5.886 Y2.8583
G1 X6.0107 Y2.8583
G3 X6.0732 Y2.9208 I0 J0.0625
G0 Z0.5
G0 X0.6001 Y1.9869
G1 Z-0.075 F15
G1 X0.6001 Y1.6498 F30
G1 Z-0.05 F15
G1 X0.6001 Y1.1498 F30
G1 Z-0.075 F15
G1 X0.6001 Y0.7369 F30
G3 X0.6626 Y0.6744 I0.0625 J0
G1 X0.9701 Y0.6744
G3 X1.0326 Y0.7369 I0 J0.0625
G1 X1.0326 Y0.6119
G3 X1.0951 Y0.5494 I0.0625 J0
G1 X2.0951 Y0.5494
G3 X2.1576 Y0.6119 I0 J0.0625
G1 X2.1576 Y0.7369
G3 X2.2201 Y0.6744 I0.0625 J0
G1 X2.8451 Y0.6744
G3 X2.9076 Y0.7369 I0 J0.0625
G1 X2.9076 Y1.9869
G3 X2.8451 Y2.0494 I-0.0625 J0
G1 X2.2201 Y2.0494
G3 X2.1576 Y1.9869 I0 J-0.0625
G1 X2.1576 Y2.1119
G3 X2.0951 Y2.1744 I-0.0625 J0
G1 X1.0951 Y2.1744
G3 X1.0326 Y2.1119 I0 J-0.0625
G1 X1.0326 Y1.9869
G3 X0.9701 Y2.0494 I-0.0625 J0
G1 X0.6626 Y2.0494
G3 X0.6001 Y1.9869 I0 J-0.0625
G1 Z-0.15 F15
G1 X0.6001 Y1.6498 F30
G1 Z-0.05 F15
G1 X0.6001 Y1.1498 F30
G1 Z-0.15 F15
G1 X0.6001 Y0.7369 F30
G3 X0.6626 Y0.6744 I0.0625 J0
G1 X0.9701 Y0.6744
G3 X1.0326 Y0.7369 I0 J0.0625
G1 X1.0326 Y0.6119
G3 X1.0951 Y0.5494 I0.0625 J0
G1 X2.0951 Y0.5494
G3 X2.1576 Y0.6119 I0 J0.0625
G1 X2.1576 Y0.7369
G3 X2.2201 Y0.6744 I0.0625 J0
G1 X2.8451 Y0.6744
G3 X2.9076 Y0.7369 I0 J0.0625
G1 X2.9076 Y1.9869
G3 X2.8451 Y2.0494 I-0.0625 J0
G1 X2.2201 Y2.0494
G3 X2.1576 Y1.9869 I0 J-0.0625
G1 X2.1576 Y2.1119
G3 X2.0951 Y2.1744 I-0.0625 J0
G1 X1.0951 Y2.1744
G3 X1.0326 Y2.1119 I0 J-0.0625
G1 X1.0326 Y1.9869
G3 X0.9701 Y2.0494 I-0.0625 J0
G1 X0.6626 Y2.0494
G3 X0.6001 Y1.9869 I0 J-0.0625
G0 Z0.5
G0 X8.6486 Y0.7579
G1 Z-0.075 F15
G1 X8.6486 Y1.1674 F30
G1 Z-0.05 F15
G1 X8.6486 Y1.6674 F30
G1 Z-0.075 F15
G1 X8.6486 Y2.0079 F30
G3 X8.5861 Y2.0704 I-0.0625 J0
G1 X7.9611 Y2.0704
G3 X7.8986 Y2.0079 I0 J-0.0625
G1 X7.8986 Y2.1329
G3 X7.8361 Y2.1954 I-0.0625 J0
G1 X6.8361 Y2.1954
G3 X6.7736 Y2.1329 I0 J-0.0625
G1 X6.7736 Y2.0079
G3 X6.7111 Y2.0704 I-0.0625 J0
G1 X6.4036 Y2.0704
G3 X6.3411 Y2.0079 I0 J-0.0625
G1 X6.3411 Y0.7579
G3 X6.4036 Y0.6954 I0.0625 J0
G1 X6.7111 Y0.6954
G3 X6.7736 Y0.7579 I0 J0.0625
G1 X6.7736 Y0.6329
G3 X6.8361 Y0.5704 I0.0625 J0
G1 X7.8361 Y0.5704
G3 X7.8986 Y0.6329 I0 J0.0625
G1 X7.8986 Y0.7579
G3 X7.9611 Y0.6954 I0.0625 J0
G1 X8.5861 Y0.6954
G3 X8.6486 Y0.7579 I0 J0.0625
G1 Z-0.15 F15
G1 X8.6486 Y1.1674 F30
G1 Z-0.05 F15
G1 X8.6486 Y1.6674 F30
G1 Z-0.15 F15
G1 X8.6486 Y2.0079 F30
G3 X8.5861 Y2.0704 I-0.0625 J0
G1 X7.9611 Y2.0704
G3 X7.8986 Y2.0079 I0 J-0.0625
G1 X7.8986 Y2.1329
G3 X7.8361 Y2.1954 I-0.0625 J0
G1 X6.8361 Y2.1954
G3 X6.7736 Y2.1329 I0 J-0.0625
G1 X6.7736 Y2.0079
G3 X6.7111 Y2.0704 I-0.0625 J0
G1 X6.4036 Y2.0704
G3 X6.3411 Y2.0079 I0 J-0.0625
G1 X6.3411 Y0.7579
G3 X6.4036 Y0.6954 I0.0625 J0
G1 X6.7111 Y0.6954
G3 X6.7736 Y0.7579 I0 J0.0625
G1 X6.7736 Y0.6329
G3 X6.8361 Y0.5704 I0.0625 J0
G1 X7.8361 Y0.5704
G3 X7.8986 Y0.6329 I0 J0.0625
G1 X7.8986 Y0.7579
G3 X7.9611 Y0.6954 I0.0625 J0
G1 X8.5861 Y0.6954
G3 X8.6486 Y0.7579 I0 J0.0625
G0 Z0.5
G0 X8.6224 Y2.817
G1 Z-0.075 F15
G1 X8.6224 Y3.1528 F30
G1 Z-0.05 F15
G1 X8.6224 Y3.6528 F30
G1 Z-0.075 F15
G1 X8.6224 Y4.067 F30
G3 X8.5599 Y4.1295 I-0.0625 J0
G1 X8.4352 Y4.1295
G1 X8.1299 Y4.1295
G1 X8.1299 Y4.192
G3 X8.0674 Y4.2545 I-0.0625 J0
G1 X7.5724 Y4.2545
G3 X7.5099 Y4.192 I0 J-0.0625
G1 X7.5099 Y4.1295
G1 X7.0099 Y4.1295
G3 X6.9474 Y4.067 I0 J-0.0625
G1 X6.9474 Y3.692
G1 X6.8849 Y3.692
G3 X6.8224 Y3.6295 I0 J-0.0625
G1 X6.8224 Y3.2545
G3 X6.8849 Y3.192 I0.0625 J0
G1 X6.9474 Y3.192
G1 X6.9474 Y2.817
G3 X7.0099 Y2.7545 I0.0625 J0
G1 X7.5099 Y2.7545
G1 X7.5099 Y2.692
G3 X7.5724 Y2.6295 I0.0625 J0
G1 X8.0674 Y2.6295
G3 X8.1299 Y2.692 I0 J0.0625
G1 X8.1299 Y2.7545
G1 X8.4352 Y2.7545
G1 X8.5599 Y2.7545
G3 X8.6224 Y2.817 I0 J0.0625
G1 Z-0.15 F15
G1 X8.6224 Y3.1528 F30
G1 Z-0.05 F15
G1 X8.6224 Y3.6528 F30
G1 Z-0.15 F15
G1 X8.6224 Y4.067 F30
G3 X8.5599 Y4.1295 I-0.0625 J0
G1 X8.4352 Y4.1295
G1 X8.1299 Y4.1295
G1 X8.1299 Y4.192
G3 X8.0674 Y4.2545 I-0.0625 J0
G1 X7.5724 Y4.2545
G3 X7.5099 Y4.192 I0 J-0.0625
G1 X7.5099 Y4.1295
G1 X7.0099 Y4.1295
G3 X6.9474 Y4.067 I0 J-0.0625
G1 X6.9474 Y3.692
G1 X6.8849 Y3.692
G3 X6.8224 Y3.6295 I0 J-0.0625
G1 X6.8224 Y3.2545
G3 X6.8849 Y3.192 I0.0625 J0
G1 X6.9474 Y3.192
G1 X6.9474 Y2.817
G3 X7.0099 Y2.7545 I0.0625 J0
G1 X7.5099 Y2.7545
G1 X7.5099 Y2.692
G3 X7.5724 Y2.6295 I0.0625 J0
G1 X8.0674 Y2.6295
G3 X8.1299 Y2.692 I0 J0.0625
G1 X8.1299 Y2.7545
G1 X8.4352 Y2.7545
G1 X8.5599 Y2.7545
G3 X8.6224 Y2.817 I0 J0.0625

(follow path 2)
G0 Z0.5
G0 X1.2264 Y3.7748
G1 Z-0.075 F15
G1 X1.2252 Y3.3702 F30
G0 Z0.5
G0 X1.2264 Y3.7748
G1 Z-0.15 F15
G1 X1.2252 Y3.3702 F30
G0 Z0.5
G0 X3.1505 Y3.6803
G1 Z-0.075 F15
G1 X3.1491 Y3.2884 F30
G0 Z0.5
G0 X3.1505 Y3.6803
G1 Z-0.15 F15
G1 X3.1491 Y3.2884 F30
G0 Z0.5
M5
M30
