(Generated by PartKam Version 0.05)

G20 G90 G40

(profile 1)
G0 Z0.5
T0 M6
G17
M3
G0 X6.375 Y3.9908
G1 Z-0.075 F15
G1 X6.375 Y3.6723 F30
G1 Z-0.05 F15
G1 X6.375 Y3.1723 F30
G1 Z-0.075 F15
G1 X6.375 Y2.7408 F30
G3 X6.4375 Y2.6783 I0.0625 J0
G1 X6.745 Y2.6783
G3 X6.8075 Y2.7408 I0 J0.0625
G1 X6.8075 Y2.6158
G3 X6.87 Y2.5533 I0.0625 J0
G1 X7.87 Y2.5533
G3 X7.9325 Y2.6158 I0 J0.0625
G1 X7.9325 Y2.7408
G3 X7.995 Y2.6783 I0.0625 J0
G1 X8.87 Y2.6783
G3 X8.9325 Y2.7408 I0 J0.0625
G1 X8.9325 Y3.7408
G3 X8.87 Y3.8033 I-0.0625 J0
G1 X8.697 Y3.8034
G3 X8.7595 Y3.8659 I0 J0.0625
G1 X8.7595 Y3.9908
G3 X8.697 Y4.0533 I-0.0625 J0
G1 X7.995 Y4.0533
G3 X7.9325 Y3.9908 I0 J-0.0625
G1 X7.9325 Y4.1158
G3 X7.87 Y4.1783 I-0.0625 J0
G1 X6.87 Y4.1783
G3 X6.8075 Y4.1158 I0 J-0.0625
G1 X6.8075 Y3.9908
G3 X6.745 Y4.0533 I-0.0625 J0
G1 X6.4375 Y4.0533
G3 X6.375 Y3.9908 I0 J-0.0625
G1 Z-0.15 F15
G1 X6.375 Y3.6723 F30
G1 Z-0.05 F15
G1 X6.375 Y3.1723 F30
G1 Z-0.15 F15
G1 X6.375 Y2.7408 F30
G3 X6.4375 Y2.6783 I0.0625 J0
G1 X6.745 Y2.6783
G3 X6.8075 Y2.7408 I0 J0.0625
G1 X6.8075 Y2.6158
G3 X6.87 Y2.5533 I0.0625 J0
G1 X7.87 Y2.5533
G3 X7.9325 Y2.6158 I0 J0.0625
G1 X7.9325 Y2.7408
G3 X7.995 Y2.6783 I0.0625 J0
G1 X8.87 Y2.6783
G3 X8.9325 Y2.7408 I0 J0.0625
G1 X8.9325 Y3.7408
G3 X8.87 Y3.8033 I-0.0625 J0
G1 X8.697 Y3.8034
G3 X8.7595 Y3.8659 I0 J0.0625
G1 X8.7595 Y3.9908
G3 X8.697 Y4.0533 I-0.0625 J0
G1 X7.995 Y4.0533
G3 X7.9325 Y3.9908 I0 J-0.0625
G1 X7.9325 Y4.1158
G3 X7.87 Y4.1783 I-0.0625 J0
G1 X6.87 Y4.1783
G3 X6.8075 Y4.1158 I0 J-0.0625
G1 X6.8075 Y3.9908
G3 X6.745 Y4.0533 I-0.0625 J0
G1 X6.4375 Y4.0533
G3 X6.375 Y3.9908 I0 J-0.0625
G0 Z0.5
G0 X3.3958 Y4.0846
G1 Z-0.075 F15
G1 X3.3958 Y3.7058 F30
G1 Z-0.05 F15
G1 X3.3958 Y3.2058 F30
G1 Z-0.075 F15
G1 X3.3958 Y2.8346 F30
G3 X3.4583 Y2.7721 I0.0625 J0
G1 X3.7658 Y2.7721
G3 X3.8283 Y2.8346 I0 J0.0625
G1 X3.8283 Y2.7096
G3 X3.8908 Y2.6471 I0.0625 J0
G1 X4.8908 Y2.6471
G3 X4.9533 Y2.7096 I0 J0.0625
G1 X4.9533 Y2.8346
G3 X5.0158 Y2.7721 I0.0625 J0
G1 X5.8908 Y2.7721
G3 X5.9533 Y2.8346 I0 J0.0625
G1 X5.9533 Y3.8346
G3 X5.8908 Y3.8971 I-0.0625 J0
G1 X5.7178 Y3.8973
G3 X5.7803 Y3.9598 I0 J0.0625
G1 X5.7803 Y4.0846
G3 X5.7178 Y4.1471 I-0.0625 J0
G1 X5.0158 Y4.1471
G3 X4.9533 Y4.0846 I0 J-0.0625
G1 X4.9533 Y4.2096
G3 X4.8908 Y4.2721 I-0.0625 J0
G1 X3.8908 Y4.2721
G3 X3.8283 Y4.2096 I0 J-0.0625
G1 X3.8283 Y4.0846
G3 X3.7658 Y4.1471 I-0.0625 J0
G1 X3.4583 Y4.1471
G3 X3.3958 Y4.0846 I0 J-0.0625
G1 Z-0.15 F15
G1 X3.3958 Y3.7058 F30
G1 Z-0.05 F15
G1 X3.3958 Y3.2058 F30
G1 Z-0.15 F15
G1 X3.3958 Y2.8346 F30
G3 X3.4583 Y2.7721 I0.0625 J0
G1 X3.7658 Y2.7721
G3 X3.8283 Y2.8346 I0 J0.0625
G1 X3.8283 Y2.7096
G3 X3.8908 Y2.6471 I0.0625 J0
G1 X4.8908 Y2.6471
G3 X4.9533 Y2.7096 I0 J0.0625
G1 X4.9533 Y2.8346
G3 X5.0158 Y2.7721 I0.0625 J0
G1 X5.8908 Y2.7721
G3 X5.9533 Y2.8346 I0 J0.0625
G1 X5.9533 Y3.8346
G3 X5.8908 Y3.8971 I-0.0625 J0
G1 X5.7178 Y3.8973
G3 X5.7803 Y3.9598 I0 J0.0625
G1 X5.7803 Y4.0846
G3 X5.7178 Y4.1471 I-0.0625 J0
G1 X5.0158 Y4.1471
G3 X4.9533 Y4.0846 I0 J-0.0625
G1 X4.9533 Y4.2096
G3 X4.8908 Y4.2721 I-0.0625 J0
G1 X3.8908 Y4.2721
G3 X3.8283 Y4.2096 I0 J-0.0625
G1 X3.8283 Y4.0846
G3 X3.7658 Y4.1471 I-0.0625 J0
G1 X3.4583 Y4.1471
G3 X3.3958 Y4.0846 I0 J-0.0625
G0 Z0.5
G0 X6.4275 Y1.8783
G1 Z-0.075 F15
G1 X6.4275 Y1.4908 F30
G1 Z-0.05 F15
G1 X6.4275 Y0.9908 F30
G1 Z-0.075 F15
G1 X6.4275 Y0.6283 F30
G3 X6.49 Y0.5658 I0.0625 J0
G1 X6.7975 Y0.5658
G3 X6.86 Y0.6283 I0 J0.0625
G1 X6.86 Y0.5033
G3 X6.9225 Y0.4408 I0.0625 J0
G1 X7.9225 Y0.4408
G3 X7.985 Y0.5033 I0 J0.0625
G1 X7.985 Y0.6283
G3 X8.0475 Y0.5658 I0.0625 J0
G1 X8.9225 Y0.5658
G3 X8.985 Y0.6283 I0 J0.0625
G1 X8.985 Y1.6283
G3 X8.9225 Y1.6908 I-0.0625 J0
G1 X8.7495 Y1.6909
G3 X8.812 Y1.7534 I0 J0.0625
G1 X8.812 Y1.8783
G3 X8.7495 Y1.9408 I-0.0625 J0
G1 X8.0475 Y1.9408
G3 X7.985 Y1.8783 I0 J-0.0625
G1 X7.985 Y2.0033
G3 X7.9225 Y2.0658 I-0.0625 J0
G1 X6.9225 Y2.0658
G3 X6.86 Y2.0033 I0 J-0.0625
G1 X6.86 Y1.8783
G3 X6.7975 Y1.9408 I-0.0625 J0
G1 X6.49 Y1.9408
G3 X6.4275 Y1.8783 I0 J-0.0625
G1 Z-0.15 F15
G1 X6.4275 Y1.4908 F30
G1 Z-0.05 F15
G1 X6.4275 Y0.9908 F30
G1 Z-0.15 F15
G1 X6.4275 Y0.6283 F30
G3 X6.49 Y0.5658 I0.0625 J0
G1 X6.7975 Y0.5658
G3 X6.86 Y0.6283 I0 J0.0625
G1 X6.86 Y0.5033
G3 X6.9225 Y0.4408 I0.0625 J0
G1 X7.9225 Y0.4408
G3 X7.985 Y0.5033 I0 J0.0625
G1 X7.985 Y0.6283
G3 X8.0475 Y0.5658 I0.0625 J0
G1 X8.9225 Y0.5658
G3 X8.985 Y0.6283 I0 J0.0625
G1 X8.985 Y1.6283
G3 X8.9225 Y1.6908 I-0.0625 J0
G1 X8.7495 Y1.6909
G3 X8.812 Y1.7534 I0 J0.0625
G1 X8.812 Y1.8783
G3 X8.7495 Y1.9408 I-0.0625 J0
G1 X8.0475 Y1.9408
G3 X7.985 Y1.8783 I0 J-0.0625
G1 X7.985 Y2.0033
G3 X7.9225 Y2.0658 I-0.0625 J0
G1 X6.9225 Y2.0658
G3 X6.86 Y2.0033 I0 J-0.0625
G1 X6.86 Y1.8783
G3 X6.7975 Y1.9408 I-0.0625 J0
G1 X6.49 Y1.9408
G3 X6.4275 Y1.8783 I0 J-0.0625
G0 Z0.5
G0 X3.4273 Y1.8783
G1 Z-0.075 F15
G1 X3.4273 Y1.465 F30
G1 Z-0.05 F15
G1 X3.4273 Y0.965 F30
G1 Z-0.075 F15
G1 X3.4273 Y0.6283 F30
G3 X3.4898 Y0.5658 I0.0625 J0
G1 X3.7973 Y0.5658
G3 X3.8598 Y0.6283 I0 J0.0625
G1 X3.8598 Y0.5033
G3 X3.9223 Y0.4408 I0.0625 J0
G1 X4.9223 Y0.4408
G3 X4.9848 Y0.5033 I0 J0.0625
G1 X4.9848 Y0.6283
G3 X5.0473 Y0.5658 I0.0625 J0
G1 X5.9223 Y0.5658
G3 X5.9848 Y0.6283 I0 J0.0625
G1 X5.9848 Y1.6283
G3 X5.9224 Y1.6908 I-0.0625 J0
G1 X5.7493 Y1.6909
G3 X5.8118 Y1.7534 I0 J0.0625
G1 X5.8118 Y1.8783
G3 X5.7493 Y1.9408 I-0.0625 J0
G1 X5.0473 Y1.9408
G3 X4.9848 Y1.8783 I0 J-0.0625
G1 X4.9848 Y2.0033
G3 X4.9223 Y2.0658 I-0.0625 J0
G1 X3.9223 Y2.0658
G3 X3.8598 Y2.0033 I0 J-0.0625
G1 X3.8598 Y1.8783
G3 X3.7973 Y1.9408 I-0.0625 J0
G1 X3.4898 Y1.9408
G3 X3.4273 Y1.8783 I0 J-0.0625
G1 Z-0.15 F15
G1 X3.4273 Y1.465 F30
G1 Z-0.05 F15
G1 X3.4273 Y0.965 F30
G1 Z-0.15 F15
G1 X3.4273 Y0.6283 F30
G3 X3.4898 Y0.5658 I0.0625 J0
G1 X3.7973 Y0.5658
G3 X3.8598 Y0.6283 I0 J0.0625
G1 X3.8598 Y0.5033
G3 X3.9223 Y0.4408 I0.0625 J0
G1 X4.9223 Y0.4408
G3 X4.9848 Y0.5033 I0 J0.0625
G1 X4.9848 Y0.6283
G3 X5.0473 Y0.5658 I0.0625 J0
G1 X5.9223 Y0.5658
G3 X5.9848 Y0.6283 I0 J0.0625
G1 X5.9848 Y1.6283
G3 X5.9224 Y1.6908 I-0.0625 J0
G1 X5.7493 Y1.6909
G3 X5.8118 Y1.7534 I0 J0.0625
G1 X5.8118 Y1.8783
G3 X5.7493 Y1.9408 I-0.0625 J0
G1 X5.0473 Y1.9408
G3 X4.9848 Y1.8783 I0 J-0.0625
G1 X4.9848 Y2.0033
G3 X4.9223 Y2.0658 I-0.0625 J0
G1 X3.9223 Y2.0658
G3 X3.8598 Y2.0033 I0 J-0.0625
G1 X3.8598 Y1.8783
G3 X3.7973 Y1.9408 I-0.0625 J0
G1 X3.4898 Y1.9408
G3 X3.4273 Y1.8783 I0 J-0.0625
G0 Z0.5
G0 X0.4334 Y1.9114
G1 Z-0.075 F15
G1 X0.4334 Y1.4895 F30
G1 Z-0.05 F15
G1 X0.4334 Y0.9895 F30
G1 Z-0.075 F15
G1 X0.4334 Y0.6614 F30
G3 X0.4959 Y0.5989 I0.0625 J0
G1 X0.8034 Y0.5989
G3 X0.8659 Y0.6614 I0 J0.0625
G1 X0.8659 Y0.5364
G3 X0.9284 Y0.4739 I0.0625 J0
G1 X1.9284 Y0.4739
G3 X1.9909 Y0.5364 I0 J0.0625
G1 X1.9909 Y0.6614
G3 X2.0534 Y0.5989 I0.0625 J0
G1 X2.9284 Y0.5989
G3 X2.9909 Y0.6614 I0 J0.0625
G1 X2.9909 Y1.6614
G3 X2.9284 Y1.7239 I-0.0625 J0
G1 X2.7554 Y1.7241
G3 X2.8179 Y1.7866 I0 J0.0625
G1 X2.8179 Y1.9114
G3 X2.7554 Y1.9739 I-0.0625 J0
G1 X2.0534 Y1.9739
G3 X1.9909 Y1.9114 I0 J-0.0625
G1 X1.9909 Y2.0364
G3 X1.9284 Y2.0989 I-0.0625 J0
G1 X0.9284 Y2.0989
G3 X0.8659 Y2.0364 I0 J-0.0625
G1 X0.8659 Y1.9114
G3 X0.8034 Y1.9739 I-0.0625 J0
G1 X0.4959 Y1.9739
G3 X0.4334 Y1.9114 I0 J-0.0625
G1 Z-0.15 F15
G1 X0.4334 Y1.4895 F30
G1 Z-0.05 F15
G1 X0.4334 Y0.9895 F30
G1 Z-0.15 F15
G1 X0.4334 Y0.6614 F30
G3 X0.4959 Y0.5989 I0.0625 J0
G1 X0.8034 Y0.5989
G3 X0.8659 Y0.6614 I0 J0.0625
G1 X0.8659 Y0.5364
G3 X0.9284 Y0.4739 I0.0625 J0
G1 X1.9284 Y0.4739
G3 X1.9909 Y0.5364 I0 J0.0625
G1 X1.9909 Y0.6614
G3 X2.0534 Y0.5989 I0.0625 J0
G1 X2.9284 Y0.5989
G3 X2.9909 Y0.6614 I0 J0.0625
G1 X2.9909 Y1.6614
G3 X2.9284 Y1.7239 I-0.0625 J0
G1 X2.7554 Y1.7241
G3 X2.8179 Y1.7866 I0 J0.0625
G1 X2.8179 Y1.9114
G3 X2.7554 Y1.9739 I-0.0625 J0
G1 X2.0534 Y1.9739
G3 X1.9909 Y1.9114 I0 J-0.0625
G1 X1.9909 Y2.0364
G3 X1.9284 Y2.0989 I-0.0625 J0
G1 X0.9284 Y2.0989
G3 X0.8659 Y2.0364 I0 J-0.0625
G1 X0.8659 Y1.9114
G3 X0.8034 Y1.9739 I-0.0625 J0
G1 X0.4959 Y1.9739
G3 X0.4334 Y1.9114 I0 J-0.0625
G0 Z0.5
G0 X0.4018 Y4.1178
G1 Z-0.075 F15
G1 X0.4018 Y3.6873 F30
G1 Z-0.05 F15
G1 X0.4018 Y3.1873 F30
G1 Z-0.075 F15
G1 X0.4018 Y2.8678 F30
G3 X0.4643 Y2.8053 I0.0625 J0
G1 X0.7718 Y2.8053
G3 X0.8343 Y2.8678 I0 J0.0625
G1 X0.8343 Y2.7428
G3 X0.8968 Y2.6803 I0.0625 J0
G1 X1.8968 Y2.6803
G3 X1.9593 Y2.7428 I0 J0.0625
G1 X1.9593 Y2.8678
G3 X2.0218 Y2.8053 I0.0625 J0
G1 X2.8968 Y2.8053
G3 X2.9593 Y2.8678 I0 J0.0625
G1 X2.9593 Y3.8678
G3 X2.8969 Y3.9303 I-0.0625 J0
G1 X2.7238 Y3.9305
G3 X2.7863 Y3.993 I0 J0.0625
G1 X2.7863 Y4.1178
G3 X2.7238 Y4.1803 I-0.0625 J0
G1 X2.0218 Y4.1803
G3 X1.9593 Y4.1178 I0 J-0.0625
G1 X1.9593 Y4.2428
G3 X1.8968 Y4.3053 I-0.0625 J0
G1 X0.8968 Y4.3053
G3 X0.8343 Y4.2428 I0 J-0.0625
G1 X0.8343 Y4.1178
G3 X0.7718 Y4.1803 I-0.0625 J0
G1 X0.4643 Y4.1803
G3 X0.4018 Y4.1178 I0 J-0.0625
G1 Z-0.15 F15
G1 X0.4018 Y3.6873 F30
G1 Z-0.05 F15
G1 X0.4018 Y3.1873 F30
G1 Z-0.15 F15
G1 X0.4018 Y2.8678 F30
G3 X0.4643 Y2.8053 I0.0625 J0
G1 X0.7718 Y2.8053
G3 X0.8343 Y2.8678 I0 J0.0625
G1 X0.8343 Y2.7428
G3 X0.8968 Y2.6803 I0.0625 J0
G1 X1.8968 Y2.6803
G3 X1.9593 Y2.7428 I0 J0.0625
G1 X1.9593 Y2.8678
G3 X2.0218 Y2.8053 I0.0625 J0
G1 X2.8968 Y2.8053
G3 X2.9593 Y2.8678 I0 J0.0625
G1 X2.9593 Y3.8678
G3 X2.8969 Y3.9303 I-0.0625 J0
G1 X2.7238 Y3.9305
G3 X2.7863 Y3.993 I0 J0.0625
G1 X2.7863 Y4.1178
G3 X2.7238 Y4.1803 I-0.0625 J0
G1 X2.0218 Y4.1803
G3 X1.9593 Y4.1178 I0 J-0.0625
G1 X1.9593 Y4.2428
G3 X1.8968 Y4.3053 I-0.0625 J0
G1 X0.8968 Y4.3053
G3 X0.8343 Y4.2428 I0 J-0.0625
G1 X0.8343 Y4.1178
G3 X0.7718 Y4.1803 I-0.0625 J0
G1 X0.4643 Y4.1803
G3 X0.4018 Y4.1178 I0 J-0.0625
G0 Z0.5
M5
M30
