(Generated by PartKam Version 0.05)

G20 G90 G40

(follow path 1)
G0 Z0.5
T0 M6
G17
M3
G0 X1.5729 Y5.7633
G1 Z-0.075 F15
G1 X1.5729 Y6.2633 F30
G0 Z0.5
G0 X1.5729 Y5.7633
G1 Z-0.15 F15
G1 X1.5729 Y6.2633 F30
G0 Z0.5
G0 X1.8854 Y6.7008
G1 Z-0.075 F15
G1 X2.6354 Y6.7008 F30
G0 Z0.5
G0 X1.8854 Y6.7008
G1 Z-0.15 F15
G1 X2.6354 Y6.7008 F30
G0 Z0.5
G0 X3.1354 Y6.2633
G1 Z-0.075 F15
G1 X3.1354 Y5.7633 F30
G0 Z0.5
G0 X3.1354 Y6.2633
G1 Z-0.15 F15
G1 X3.1354 Y5.7633 F30
G0 Z0.5
G0 X3.6354 Y6.7008
G1 Z-0.075 F15
G1 X4.3854 Y6.7008 F30
G0 Z0.5
G0 X3.6354 Y6.7008
G1 Z-0.15 F15
G1 X4.3854 Y6.7008 F30
G0 Z0.5
G0 X4.6979 Y6.2633
G1 Z-0.075 F15
G1 X4.6979 Y5.7633 F30
G0 Z0.5
G0 X4.6979 Y6.2633
G1 Z-0.15 F15
G1 X4.6979 Y5.7633 F30
G0 Z0.5
G0 X1.5729 Y7.2633
G1 Z-0.075 F15
G1 X1.5729 Y7.7633 F30
G0 Z0.5
G0 X1.5729 Y7.2633
G1 Z-0.15 F15
G1 X1.5729 Y7.7633 F30
G0 Z0.5
G0 X3.1354 Y7.7633
G1 Z-0.075 F15
G1 X3.1354 Y7.2633 F30
G0 Z0.5
G0 X3.1354 Y7.7633
G1 Z-0.15 F15
G1 X3.1354 Y7.2633 F30
G0 Z0.5
G0 X4.6979 Y7.2633
G1 Z-0.075 F15
G1 X4.6979 Y7.7633 F30
G0 Z0.5
G0 X4.6979 Y7.2633
G1 Z-0.15 F15
G1 X4.6979 Y7.7633 F30

(profile 2)
G0 Z0.5
G0 X3.1354 Y0.9133
G1 Z-0.075 F15
G3 X3.1833 Y0.9228 I0 J0.125 F30
G3 X3.2238 Y0.9499 I-0.0478 J0.1155
G3 X3.2509 Y0.9905 I-0.0884 J0.0884
G3 X3.2604 Y1.0383 I-0.1155 J0.0478
G3 X3.2509 Y1.0861 I-0.125 J0
G3 X3.2238 Y1.1267 I-0.1155 J-0.0478
G3 X3.1833 Y1.1538 I-0.0884 J-0.0884
G3 X3.1354 Y1.1633 I-0.0478 J-0.1155
G3 X3.0876 Y1.1538 I0 J-0.125
G3 X3.047 Y1.1267 I0.0478 J-0.1155
G3 X3.0199 Y1.0861 I0.0884 J-0.0884
G3 X3.0104 Y1.0383 I0.1155 J-0.0478
G3 X3.0199 Y0.9905 I0.125 J0
G3 X3.047 Y0.9499 I0.1155 J0.0478
G3 X3.0876 Y0.9228 I0.0884 J0.0884
G3 X3.1354 Y0.9133 I0.0478 J0.1155
G1 Z-0.15 F15
G3 X3.1833 Y0.9228 I0 J0.125 F30
G3 X3.2238 Y0.9499 I-0.0478 J0.1155
G3 X3.2509 Y0.9905 I-0.0884 J0.0884
G3 X3.2604 Y1.0383 I-0.1155 J0.0478
G3 X3.2509 Y1.0861 I-0.125 J0
G3 X3.2238 Y1.1267 I-0.1155 J-0.0478
G3 X3.1833 Y1.1538 I-0.0884 J-0.0884
G3 X3.1354 Y1.1633 I-0.0478 J-0.1155
G3 X3.0876 Y1.1538 I0 J-0.125
G3 X3.047 Y1.1267 I0.0478 J-0.1155
G3 X3.0199 Y1.0861 I0.0884 J-0.0884
G3 X3.0104 Y1.0383 I0.1155 J-0.0478
G3 X3.0199 Y0.9905 I0.125 J0
G3 X3.047 Y0.9499 I0.1155 J0.0478
G3 X3.0876 Y0.9228 I0.0884 J0.0884
G3 X3.1354 Y0.9133 I0.0478 J0.1155

(profile 3)
G0 Z0.5
G0 X0.5879 Y8.5133
G1 Z-0.075 F15
G1 X0.5879 Y4.3218 F30
G1 Z-0.05 F15
G1 X0.5879 Y3.8218 F30
G1 Z-0.075 F15
G1 X0.5879 Y3.1771 F30
G3 X0.6012 Y3.1385 I0.0625 J0
G1 X2.5866 Y0.6078
G3 X2.7394 Y0.4641 I0.5488 J0.4305
G3 X2.9281 Y0.3723 I0.396 J0.5742
G3 X3.1354 Y0.3408 I0.2074 J0.666
G3 X3.3428 Y0.3723 I0 J0.6975
G3 X3.5314 Y0.4641 I-0.2074 J0.666
G3 X3.6842 Y0.6078 I-0.396 J0.5742
G1 X4.1484 Y1.1995
G1 Z-0.05 F15
G1 X4.457 Y1.5928 F30
G1 Z-0.075 F15
G1 X5.6696 Y3.1385 F30
G3 X5.6829 Y3.1771 I-0.0492 J0.0386
G1 X5.6829 Y6.3814
G1 Z-0.05 F15
G1 X5.6829 Y6.8814 F30
G1 Z-0.075 F15
G1 X5.6829 Y8.5133 F30
G3 X5.6204 Y8.5758 I-0.0625 J0
G1 X4.3854 Y8.5758
G3 X4.3229 Y8.5133 I0 J-0.0625
G1 X4.3229 Y8.3883
G3 X4.2604 Y8.4508 I-0.0625 J0
G1 X3.7604 Y8.4508
G3 X3.6979 Y8.3883 I0 J-0.0625
G1 X3.6979 Y8.5133
G3 X3.6354 Y8.5758 I-0.0625 J0
G1 X3.46 Y8.5758
G1 Z-0.05 F15
G1 X2.96 Y8.5758 F30
G1 Z-0.075 F15
G1 X2.6354 Y8.5758 F30
G3 X2.5729 Y8.5133 I0 J-0.0625
G1 X2.5729 Y8.3883
G3 X2.5104 Y8.4508 I-0.0625 J0
G1 X2.0104 Y8.4508
G3 X1.9479 Y8.3883 I0 J-0.0625
G1 X1.9479 Y8.5133
G3 X1.8854 Y8.5758 I-0.0625 J0
G1 X0.6504 Y8.5758
G3 X0.5879 Y8.5133 I0 J-0.0625
G1 Z-0.15 F15
G1 X0.5879 Y4.3218 F30
G1 Z-0.05 F15
G1 X0.5879 Y3.8218 F30
G1 Z-0.15 F15
G1 X0.5879 Y3.1771 F30
G3 X0.6012 Y3.1385 I0.0625 J0
G1 X2.5866 Y0.6078
G3 X2.7394 Y0.4641 I0.5488 J0.4305
G3 X2.9281 Y0.3723 I0.396 J0.5742
G3 X3.1354 Y0.3408 I0.2074 J0.666
G3 X3.3428 Y0.3723 I0 J0.6975
G3 X3.5314 Y0.4641 I-0.2074 J0.666
G3 X3.6842 Y0.6078 I-0.396 J0.5742
G1 X4.1484 Y1.1995
G1 Z-0.05 F15
G1 X4.457 Y1.5928 F30
G1 Z-0.15 F15
G1 X5.6696 Y3.1385 F30
G3 X5.6829 Y3.1771 I-0.0492 J0.0386
G1 X5.6829 Y6.3814
G1 Z-0.05 F15
G1 X5.6829 Y6.8814 F30
G1 Z-0.15 F15
G1 X5.6829 Y8.5133 F30
G3 X5.6204 Y8.5758 I-0.0625 J0
G1 X4.3854 Y8.5758
G3 X4.3229 Y8.5133 I0 J-0.0625
G1 X4.3229 Y8.3883
G3 X4.2604 Y8.4508 I-0.0625 J0
G1 X3.7604 Y8.4508
G3 X3.6979 Y8.3883 I0 J-0.0625
G1 X3.6979 Y8.5133
G3 X3.6354 Y8.5758 I-0.0625 J0
G1 X3.46 Y8.5758
G1 Z-0.05 F15
G1 X2.96 Y8.5758 F30
G1 Z-0.15 F15
G1 X2.6354 Y8.5758 F30
G3 X2.5729 Y8.5133 I0 J-0.0625
G1 X2.5729 Y8.3883
G3 X2.5104 Y8.4508 I-0.0625 J0
G1 X2.0104 Y8.4508
G3 X1.9479 Y8.3883 I0 J-0.0625
G1 X1.9479 Y8.5133
G3 X1.8854 Y8.5758 I-0.0625 J0
G1 X0.6504 Y8.5758
G3 X0.5879 Y8.5133 I0 J-0.0625
G0 Z0.5
M5
M30
