(Generated by PartKam Version 0.05)

G20 G90 G40

(profile 1)
G0 Z0.5
T0 M6
G17
M3
G0 X4.0417 Y2.4133
G1 Z-0.075 F15
G3 X4.0512 Y2.3655 I0.125 J0 F30
G3 X4.0783 Y2.3249 I0.1155 J0.0478
G3 X4.1188 Y2.2978 I0.0884 J0.0884
G3 X4.1667 Y2.2883 I0.0478 J0.1155
G3 X4.2145 Y2.2978 I0 J0.125
G3 X4.2551 Y2.3249 I-0.0478 J0.1155
G3 X4.2822 Y2.3655 I-0.0884 J0.0884
G3 X4.2917 Y2.4133 I-0.1155 J0.0478
G3 X4.2822 Y2.4611 I-0.125 J0
G3 X4.2551 Y2.5017 I-0.1155 J-0.0478
G3 X4.2145 Y2.5288 I-0.0884 J-0.0884
G3 X4.1667 Y2.5383 I-0.0478 J-0.1155
G3 X4.1188 Y2.5288 I0 J-0.125
G3 X4.0783 Y2.5017 I0.0478 J-0.1155
G3 X4.0512 Y2.4611 I0.0884 J-0.0884
G3 X4.0417 Y2.4133 I0.1155 J-0.0478
G1 Z-0.15 F15
G3 X4.0512 Y2.3655 I0.125 J0 F30
G3 X4.0783 Y2.3249 I0.1155 J0.0478
G3 X4.1188 Y2.2978 I0.0884 J0.0884
G3 X4.1667 Y2.2883 I0.0478 J0.1155
G3 X4.2145 Y2.2978 I0 J0.125
G3 X4.2551 Y2.3249 I-0.0478 J0.1155
G3 X4.2822 Y2.3655 I-0.0884 J0.0884
G3 X4.2917 Y2.4133 I-0.1155 J0.0478
G3 X4.2822 Y2.4611 I-0.125 J0
G3 X4.2551 Y2.5017 I-0.1155 J-0.0478
G3 X4.2145 Y2.5288 I-0.0884 J-0.0884
G3 X4.1667 Y2.5383 I-0.0478 J-0.1155
G3 X4.1188 Y2.5288 I0 J-0.125
G3 X4.0783 Y2.5017 I0.0478 J-0.1155
G3 X4.0512 Y2.4611 I0.0884 J-0.0884
G3 X4.0417 Y2.4133 I0.1155 J-0.0478

(profile 2)
G0 Z0.5
G0 X1.6192 Y9.8883
G1 Z-0.075 F15
G1 X1.6192 Y8.5559 F30
G1 Z-0.05 F15
G1 X1.6192 Y8.0559 F30
G1 Z-0.075 F15
G1 X1.6192 Y4.5521 F30
G3 X1.6325 Y4.5135 I0.0625 J0
G1 X3.0571 Y2.6976
G1 Z-0.05 F15
G1 X3.3657 Y2.3043 F30
G1 Z-0.075 F15
G1 X3.6179 Y1.9828 F30
G3 X3.7707 Y1.8391 I0.5488 J0.4305
G3 X3.9593 Y1.7473 I0.396 J0.5742
G3 X4.1667 Y1.7158 I0.2074 J0.666
G3 X4.374 Y1.7473 I0 J0.6975
G3 X4.5626 Y1.8391 I-0.2074 J0.666
G3 X4.7154 Y1.9828 I-0.396 J0.5742
G1 X6.7008 Y4.5135
G3 X6.7142 Y4.5521 I-0.0492 J0.0386
G1 X6.7142 Y5.003
G1 Z-0.05 F15
G1 X6.7142 Y5.503 F30
G1 Z-0.075 F15
G1 X6.7142 Y9.8883 F30
G3 X6.6517 Y9.9508 I-0.0625 J0
G1 X5.7541 Y9.9508
G1 Z-0.05 F15
G1 X5.2541 Y9.9508 F30
G1 Z-0.075 F15
G1 X1.6817 Y9.9508 F30
G3 X1.6192 Y9.8883 I0 J-0.0625
G1 Z-0.15 F15
G1 X1.6192 Y8.5559 F30
G1 Z-0.05 F15
G1 X1.6192 Y8.0559 F30
G1 Z-0.15 F15
G1 X1.6192 Y4.5521 F30
G3 X1.6325 Y4.5135 I0.0625 J0
G1 X3.0571 Y2.6976
G1 Z-0.05 F15
G1 X3.3657 Y2.3043 F30
G1 Z-0.15 F15
G1 X3.6179 Y1.9828 F30
G3 X3.7707 Y1.8391 I0.5488 J0.4305
G3 X3.9593 Y1.7473 I0.396 J0.5742
G3 X4.1667 Y1.7158 I0.2074 J0.666
G3 X4.374 Y1.7473 I0 J0.6975
G3 X4.5626 Y1.8391 I-0.2074 J0.666
G3 X4.7154 Y1.9828 I-0.396 J0.5742
G1 X6.7008 Y4.5135
G3 X6.7142 Y4.5521 I-0.0492 J0.0386
G1 X6.7142 Y5.003
G1 Z-0.05 F15
G1 X6.7142 Y5.503 F30
G1 Z-0.15 F15
G1 X6.7142 Y9.8883 F30
G3 X6.6517 Y9.9508 I-0.0625 J0
G1 X5.7541 Y9.9508
G1 Z-0.05 F15
G1 X5.2541 Y9.9508 F30
G1 Z-0.15 F15
G1 X1.6817 Y9.9508 F30
G3 X1.6192 Y9.8883 I0 J-0.0625
G0 Z0.5
M5
M30
