(Generated by PartKam Version 0.05)

G20 G90 G40

(Lines)
G0 Z0.5
T0 M6
G17
M3
G0 X7.7 Y9.1982
G1 Z-0.075 F15
G1 X7.9257 Y9.4977 F30
G0 Z0.5
G0 X7.7 Y9.1982
G1 Z-0.15 F15
G1 X7.9257 Y9.4977 F30
G0 Z0.5
G0 X7.4745 Y9.9375
G1 Z-0.075 F15
G1 X7.0791 Y10.2354 F30
G0 Z0.5
G0 X7.4745 Y9.9375
G1 Z-0.15 F15
G1 X7.0791 Y10.2354 F30
G0 Z0.5
G0 X1.6735 Y9.9375
G1 Z-0.075 F15
G1 X2.0688 Y10.2354 F30
G0 Z0.5
G0 X1.6735 Y9.9375
G1 Z-0.15 F15
G1 X2.0688 Y10.2354 F30
G0 Z0.5
G0 X1.448 Y9.1982
G1 Z-0.075 F15
G1 X1.2223 Y9.4977 F30
G0 Z0.5
G0 X1.448 Y9.1982
G1 Z-0.15 F15
G1 X1.2223 Y9.4977 F30
G0 Z0.5
G0 X2.489 Y23.6728
G1 Z-0.075 F15
G1 X2.489 Y24.5189 F30
G0 Z0.5
G0 X2.489 Y23.6728
G1 Z-0.15 F15
G1 X2.489 Y24.5189 F30
G0 Z0.5
G0 X3.874 Y23.6728
G1 Z-0.075 F15
G1 X3.874 Y24.6728 F30
G0 Z0.5
G0 X3.874 Y23.6728
G1 Z-0.15 F15
G1 X3.874 Y24.6728 F30
G0 Z0.5
G0 X5.274 Y23.6728
G1 Z-0.075 F15
G1 X5.274 Y24.6728 F30
G0 Z0.5
G0 X5.274 Y23.6728
G1 Z-0.15 F15
G1 X5.274 Y24.6728 F30
G0 Z0.5
G0 X6.659 Y23.6728
G1 Z-0.075 F15
G1 X6.659 Y24.5189 F30
G0 Z0.5
G0 X6.659 Y23.6728
G1 Z-0.15 F15
G1 X6.659 Y24.5189 F30
G0 Z0.5
G0 X2.489 Y20.6728
G1 Z-0.075 F15
G1 X2.489 Y21.6728 F30
G0 Z0.5
G0 X2.489 Y20.6728
G1 Z-0.15 F15
G1 X2.489 Y21.6728 F30
G0 Z0.5
G0 X3.874 Y20.6728
G1 Z-0.075 F15
G1 X3.874 Y21.6728 F30
G0 Z0.5
G0 X3.874 Y20.6728
G1 Z-0.15 F15
G1 X3.874 Y21.6728 F30
G0 Z0.5
G0 X5.274 Y20.6728
G1 Z-0.075 F15
G1 X5.274 Y21.6728 F30
G0 Z0.5
G0 X5.274 Y20.6728
G1 Z-0.15 F15
G1 X5.274 Y21.6728 F30
G0 Z0.5
G0 X6.659 Y20.6728
G1 Z-0.075 F15
G1 X6.659 Y21.6728 F30
G0 Z0.5
G0 X6.659 Y20.6728
G1 Z-0.15 F15
G1 X6.659 Y21.6728 F30
G0 Z0.5
G0 X3.874 Y17.6728
G1 Z-0.075 F15
G1 X3.874 Y18.6728 F30
G0 Z0.5
G0 X3.874 Y17.6728
G1 Z-0.15 F15
G1 X3.874 Y18.6728 F30
G0 Z0.5
G0 X5.274 Y17.6728
G1 Z-0.075 F15
G1 X5.274 Y18.6728 F30
G0 Z0.5
G0 X5.274 Y17.6728
G1 Z-0.15 F15
G1 X5.274 Y18.6728 F30
G0 Z0.5
G0 X3.874 Y14.6728
G1 Z-0.075 F15
G1 X3.874 Y15.6728 F30
G0 Z0.5
G0 X3.874 Y14.6728
G1 Z-0.15 F15
G1 X3.874 Y15.6728 F30
G0 Z0.5
G0 X5.274 Y14.6728
G1 Z-0.075 F15
G1 X5.274 Y15.6728 F30
G0 Z0.5
G0 X5.274 Y14.6728
G1 Z-0.15 F15
G1 X5.274 Y15.6728 F30
G0 Z0.5
G0 X3.874 Y11.6728
G1 Z-0.075 F15
G1 X3.874 Y12.6728 F30
G0 Z0.5
G0 X3.874 Y11.6728
G1 Z-0.15 F15
G1 X3.874 Y12.6728 F30
G0 Z0.5
G0 X5.274 Y11.6728
G1 Z-0.075 F15
G1 X5.274 Y12.6728 F30
G0 Z0.5
G0 X5.274 Y11.6728
G1 Z-0.15 F15
G1 X5.274 Y12.6728 F30
G0 Z0.5
G0 X2.489 Y8.6728
G1 Z-0.075 F15
G1 X2.489 Y9.6728 F30
G0 Z0.5
G0 X2.489 Y8.6728
G1 Z-0.15 F15
G1 X2.489 Y9.6728 F30
G0 Z0.5
G0 X3.874 Y8.6728
G1 Z-0.075 F15
G1 X3.874 Y9.6728 F30
G0 Z0.5
G0 X3.874 Y8.6728
G1 Z-0.15 F15
G1 X3.874 Y9.6728 F30
G0 Z0.5
G0 X5.274 Y8.6728
G1 Z-0.075 F15
G1 X5.274 Y9.6728 F30
G0 Z0.5
G0 X5.274 Y8.6728
G1 Z-0.15 F15
G1 X5.274 Y9.6728 F30
G0 Z0.5
G0 X6.659 Y8.6728
G1 Z-0.075 F15
G1 X6.659 Y9.6728 F30
G0 Z0.5
G0 X6.659 Y8.6728
G1 Z-0.15 F15
G1 X6.659 Y9.6728 F30
G0 Z0.5
G0 X2.489 Y5.6728
G1 Z-0.075 F15
G1 X2.489 Y6.6728 F30
G0 Z0.5
G0 X2.489 Y5.6728
G1 Z-0.15 F15
G1 X2.489 Y6.6728 F30
G0 Z0.5
G0 X3.874 Y6.6728
G1 Z-0.075 F15
G1 X3.874 Y6.0508 F30
G0 Z0.5
G0 X3.874 Y6.6728
G1 Z-0.15 F15
G1 X3.874 Y6.0508 F30
G0 Z0.5
G0 X5.274 Y6.6728
G1 Z-0.075 F15
G1 X5.274 Y6.0508 F30
G0 Z0.5
G0 X5.274 Y6.6728
G1 Z-0.15 F15
G1 X5.274 Y6.0508 F30
G0 Z0.5
G0 X1.074 Y4.5098
G1 Z-0.075 F15
G1 X2.074 Y4.5098 F30
G0 Z0.5
G0 X1.074 Y4.5098
G1 Z-0.15 F15
G1 X2.074 Y4.5098 F30
G0 Z0.5
G0 X2.2643 Y3.5531
G1 Z-0.075 F15
G1 X1.3404 Y3.1704 F30
G0 Z0.5
G0 X2.2643 Y3.5531
G1 Z-0.15 F15
G1 X1.3404 Y3.1704 F30
G0 Z0.5
G0 X2.0991 Y2.0349
G1 Z-0.075 F15
G1 X2.8062 Y2.742 F30
G0 Z0.5
G0 X2.0991 Y2.0349
G1 Z-0.15 F15
G1 X2.8062 Y2.742 F30
G0 Z0.5
G0 X3.6173 Y2.2001
G1 Z-0.075 F15
G1 X3.2346 Y1.2762 F30
G0 Z0.5
G0 X3.6173 Y2.2001
G1 Z-0.15 F15
G1 X3.2346 Y1.2762 F30
G0 Z0.5
G0 X4.574 Y1.0098
G1 Z-0.075 F15
G1 X4.574 Y2.0098 F30
G0 Z0.5
G0 X4.574 Y1.0098
G1 Z-0.15 F15
G1 X4.574 Y2.0098 F30
G0 Z0.5
G0 X5.5307 Y2.2001
G1 Z-0.075 F15
G1 X5.9134 Y1.2762 F30
G0 Z0.5
G0 X5.5307 Y2.2001
G1 Z-0.15 F15
G1 X5.9134 Y1.2762 F30
G0 Z0.5
G0 X7.0489 Y2.0349
G1 Z-0.075 F15
G1 X6.3417 Y2.742 F30
G0 Z0.5
G0 X7.0489 Y2.0349
G1 Z-0.15 F15
G1 X6.3417 Y2.742 F30
G0 Z0.5
G0 X6.8837 Y3.5531
G1 Z-0.075 F15
G1 X7.8076 Y3.1704 F30
G0 Z0.5
G0 X6.8837 Y3.5531
G1 Z-0.15 F15
G1 X7.8076 Y3.1704 F30
G0 Z0.5
G0 X8.074 Y4.5098
G1 Z-0.075 F15
G1 X7.074 Y4.5098 F30
G0 Z0.5
G0 X8.074 Y4.5098
G1 Z-0.15 F15
G1 X7.074 Y4.5098 F30
G0 Z0.5
G0 X6.659 Y5.6728
G1 Z-0.075 F15
G1 X6.659 Y6.6728 F30
G0 Z0.5
G0 X6.659 Y5.6728
G1 Z-0.15 F15
G1 X6.659 Y6.6728 F30

(Circle)
G0 Z0.5
G0 X3.2086 Y3.6144
G1 Z-0.075 F15
G3 X3.4214 Y3.3572 I1.4671 J0.997 F30
G3 X3.6786 Y3.1444 I1.2543 J1.2543
G3 X3.9482 Y2.999 I0.8445 J1.2426
G3 X4.2416 Y2.9112 I0.575 J1.3881
G3 X4.574 Y2.8798 I0.3323 J1.7424
G3 X4.9063 Y2.9112 I0 J1.7738
G3 X5.1998 Y2.999 I-0.2815 J1.4758
G3 X5.4693 Y3.1444 I-0.575 J1.3881
G3 X5.7266 Y3.3572 I-0.997 J1.4671
G3 X5.9394 Y3.6144 I-1.2543 J1.2543
G3 X6.0848 Y3.884 I-1.2426 J0.8445
G3 X6.1726 Y4.1775 I-1.3881 J0.575
G3 X6.204 Y4.5098 I-1.7424 J0.3323
G3 X6.1726 Y4.8422 I-1.7738 J0
G3 X6.0848 Y5.1356 I-1.4758 J-0.2815
G3 X5.9394 Y5.4052 I-1.3881 J-0.575
G3 X5.7266 Y5.6624 I-1.4671 J-0.997
G3 X5.4693 Y5.8752 I-1.2543 J-1.2543
G3 X5.1998 Y6.0206 I-0.8445 J-1.2426
G3 X4.9063 Y6.1084 I-0.575 J-1.3881
G3 X4.574 Y6.1398 I-0.3323 J-1.7424
G3 X4.2416 Y6.1084 I0 J-1.7738
G3 X3.9482 Y6.0206 I0.2815 J-1.4758
G3 X3.6786 Y5.8752 I0.575 J-1.3881
G3 X3.4214 Y5.6624 I0.997 J-1.4671
G3 X3.2086 Y5.4052 I1.2543 J-1.2543
G3 X3.0632 Y5.1356 I1.2426 J-0.8445
G3 X2.9754 Y4.8422 I1.3881 J-0.575
G3 X2.944 Y4.5098 I1.7424 J-0.3323
G3 X2.9754 Y4.1775 I1.7738 J0
G3 X3.0632 Y3.884 I1.4758 J0.2815
G3 X3.2086 Y3.6144 I1.3881 J0.575
G1 Z-0.15 F15
G3 X3.4214 Y3.3572 I1.4671 J0.997 F30
G3 X3.6786 Y3.1444 I1.2543 J1.2543
G3 X3.9482 Y2.999 I0.8445 J1.2426
G3 X4.2416 Y2.9112 I0.575 J1.3881
G3 X4.574 Y2.8798 I0.3323 J1.7424
G3 X4.9063 Y2.9112 I0 J1.7738
G3 X5.1998 Y2.999 I-0.2815 J1.4758
G3 X5.4693 Y3.1444 I-0.575 J1.3881
G3 X5.7266 Y3.3572 I-0.997 J1.4671
G3 X5.9394 Y3.6144 I-1.2543 J1.2543
G3 X6.0848 Y3.884 I-1.2426 J0.8445
G3 X6.1726 Y4.1775 I-1.3881 J0.575
G3 X6.204 Y4.5098 I-1.7424 J0.3323
G3 X6.1726 Y4.8422 I-1.7738 J0
G3 X6.0848 Y5.1356 I-1.4758 J-0.2815
G3 X5.9394 Y5.4052 I-1.3881 J-0.575
G3 X5.7266 Y5.6624 I-1.4671 J-0.997
G3 X5.4693 Y5.8752 I-1.2543 J-1.2543
G3 X5.1998 Y6.0206 I-0.8445 J-1.2426
G3 X4.9063 Y6.1084 I-0.575 J-1.3881
G3 X4.574 Y6.1398 I-0.3323 J-1.7424
G3 X4.2416 Y6.1084 I0 J-1.7738
G3 X3.9482 Y6.0206 I0.2815 J-1.4758
G3 X3.6786 Y5.8752 I0.575 J-1.3881
G3 X3.4214 Y5.6624 I0.997 J-1.4671
G3 X3.2086 Y5.4052 I1.2543 J-1.2543
G3 X3.0632 Y5.1356 I1.2426 J-0.8445
G3 X2.9754 Y4.8422 I1.3881 J-0.575
G3 X2.944 Y4.5098 I1.7424 J-0.3323
G3 X2.9754 Y4.1775 I1.7738 J0
G3 X3.0632 Y3.884 I1.4758 J0.2815
G3 X3.2086 Y3.6144 I1.3881 J0.575

(Circle)
G0 Z0.5
G0 X4.574 Y26.2728
G1 Z-0.075 F15
G3 X4.5261 Y26.2633 I0 J-0.125 F30
G3 X4.4856 Y26.2362 I0.0478 J-0.1155
G3 X4.4585 Y26.1956 I0.0884 J-0.0884
G3 X4.449 Y26.1478 I0.1155 J-0.0478
G3 X4.4585 Y26.1 I0.125 J0
G3 X4.4856 Y26.0594 I0.1155 J0.0478
G3 X4.5261 Y26.0323 I0.0884 J0.0884
G3 X4.574 Y26.0228 I0.0478 J0.1155
G3 X4.6218 Y26.0323 I0 J0.125
G3 X4.6624 Y26.0594 I-0.0478 J0.1155
G3 X4.6895 Y26.1 I-0.0884 J0.0884
G3 X4.699 Y26.1478 I-0.1155 J0.0478
G3 X4.6895 Y26.1956 I-0.125 J0
G3 X4.6624 Y26.2362 I-0.1155 J-0.0478
G3 X4.6218 Y26.2633 I-0.0884 J-0.0884
G3 X4.574 Y26.2728 I-0.0478 J-0.1155
G1 Z-0.15 F15
G3 X4.5261 Y26.2633 I0 J-0.125 F30
G3 X4.4856 Y26.2362 I0.0478 J-0.1155
G3 X4.4585 Y26.1956 I0.0884 J-0.0884
G3 X4.449 Y26.1478 I0.1155 J-0.0478
G3 X4.4585 Y26.1 I0.125 J0
G3 X4.4856 Y26.0594 I0.1155 J0.0478
G3 X4.5261 Y26.0323 I0.0884 J0.0884
G3 X4.574 Y26.0228 I0.0478 J0.1155
G3 X4.6218 Y26.0323 I0 J0.125
G3 X4.6624 Y26.0594 I-0.0478 J0.1155
G3 X4.6895 Y26.1 I-0.0884 J0.0884
G3 X4.699 Y26.1478 I-0.1155 J0.0478
G3 X4.6895 Y26.1956 I-0.125 J0
G3 X4.6624 Y26.2362 I-0.1155 J-0.0478
G3 X4.6218 Y26.2633 I-0.0884 J-0.0884
G3 X4.574 Y26.2728 I-0.0478 J-0.1155

(Outer)
G0 Z0.5
G0 X7.1215 Y19.1728
G1 Z-0.075 F15
G1 X7.1215 Y20.3878 F30
G1 Z-0.05 F15
G1 X7.1215 Y20.8878 F30
G1 Z-0.075 F15
G1 X7.1215 Y22.4228 F30
G3 X7.059 Y22.4853 I-0.0625 J0
G1 X6.934 Y22.4853
G3 X6.9965 Y22.5478 I0 J0.0625
G1 X6.9965 Y22.7978
G3 X6.934 Y22.8603 I-0.0625 J0
G1 X7.059 Y22.8603
G3 X7.1215 Y22.9228 I0 J0.0625
G1 X7.1215 Y24.009
G3 X7.1082 Y24.0476 I-0.0625 J0
G1 X6.7707 Y24.4778
G1 X6.6457 Y24.6371
G1 X6.282 Y25.1006
G1 Z-0.05 F15
G1 X5.9734 Y25.494 F30
G1 Z-0.075 F15
G1 X5.1228 Y26.5783 F30
G3 X4.97 Y26.722 I-0.5488 J-0.4305
G3 X4.7813 Y26.8138 I-0.396 J-0.5742
G3 X4.574 Y26.8453 I-0.2074 J-0.666
G3 X4.3666 Y26.8138 I0 J-0.6975
G3 X4.178 Y26.722 I0.2074 J-0.666
G3 X4.0252 Y26.5783 I0.396 J-0.5742
G1 X3.3748 Y25.7492
G1 Z-0.05 F15
G1 X3.0662 Y25.3558 F30
G1 Z-0.075 F15
G1 X2.5023 Y24.6371 F30
G1 X2.3773 Y24.4778
G1 X2.0398 Y24.0476
G3 X2.0265 Y24.009 I0.0492 J-0.0386
G1 X2.0265 Y22.9228
G3 X2.089 Y22.8603 I0.0625 J0
G1 X2.214 Y22.8603
G3 X2.1515 Y22.7978 I0 J-0.0625
G1 X2.1515 Y22.5478
G3 X2.214 Y22.4853 I0.0625 J0
G1 X2.089 Y22.4853
G3 X2.0265 Y22.4228 I0 J-0.0625
G1 X2.0265 Y21.2788
G1 Z-0.05 F15
G1 X2.0265 Y20.7788 F30
G1 Z-0.075 F15
G1 X2.0265 Y19.1728 F30
G3 X2.089 Y19.1103 I0.0625 J0
G1 X2.214 Y19.1103
G3 X2.1515 Y19.0478 I0 J-0.0625
G1 X2.1515 Y18.6728
G3 X2.214 Y18.6103 I0.0625 J0
G1 X2.5515 Y18.6103
G3 X2.489 Y18.5478 I0 J-0.0625
G1 X2.489 Y17.7978
G3 X2.5515 Y17.7353 I0.0625 J0
G1 X2.4265 Y17.7353
G3 X2.364 Y17.6728 I0 J-0.0625
G1 X2.364 Y16.8196
G1 Z-0.05 F15
G1 X2.364 Y16.3196 F30
G1 Z-0.075 F15
G1 X2.364 Y15.6728 F30
G3 X2.4265 Y15.6103 I0.0625 J0
G1 X2.5515 Y15.6103
G3 X2.489 Y15.5478 I0 J-0.0625
G1 X2.489 Y14.7978
G3 X2.5515 Y14.7353 I0.0625 J0
G1 X2.4265 Y14.7353
G3 X2.364 Y14.6728 I0 J-0.0625
G1 X2.364 Y12.6728
G3 X2.4265 Y12.6103 I0.0625 J0
G1 X2.5515 Y12.6103
G3 X2.489 Y12.5478 I0 J-0.0625
G1 X2.489 Y11.7978
G3 X2.5515 Y11.7353 I0.0625 J0
G1 X2.4265 Y11.7353
G3 X2.364 Y11.6728 I0 J-0.0625
G1 X2.364 Y11.3978
G1 X2.364 Y11.034
G1 X1.6022 Y10.4601
G1 Z-0.05 F15
G1 X1.2029 Y10.1592 F30
G1 Z-0.075 F15
G1 X0.9473 Y9.9666 F30
G1 X0.6235 Y9.7227
G3 X0.5986 Y9.6728 I0.0376 J-0.0499
G3 X0.6611 Y9.6103 I0.0625 J0
G1 X0.7665 Y9.6103
G3 X0.704 Y9.5478 I0 J-0.0625
G1 X0.704 Y8.7978
G3 X0.7665 Y8.7353 I0.0625 J0
G1 X0.6415 Y8.7353
G3 X0.579 Y8.6728 I0 J-0.0625
G1 X0.579 Y6.6728
G3 X0.6415 Y6.6103 I0.0625 J0
G1 X0.7665 Y6.6103
G3 X0.704 Y6.5478 I0 J-0.0625
G1 X0.704 Y5.7978
G3 X0.7665 Y5.7353 I0.0625 J0
G1 X0.6415 Y5.7353
G3 X0.579 Y5.6728 I0 J-0.0625
G1 X0.579 Y4.5098
G3 X0.5978 Y4.0986 I4.5004 J0.0003
G3 X0.626 Y3.8663 I3.9952 J0.3668
G1 Z-0.05 F15
G3 X0.6521 Y3.7135 I3.967 J0.5992 F30
G3 X0.7319 Y3.378 I3.7839 J0.722
G1 Z-0.075 F15
G3 X0.7442 Y3.3356 I3.7041 J1.0575 F30
G3 X0.8718 Y2.9763 I3.542 J1.0553
G3 X1.0356 Y2.6322 I3.4145 J1.4145
G3 X1.2378 Y2.2998 I3.388 J1.8331
G3 X1.4718 Y1.9891 I3.3181 J2.2553
G3 X1.7492 Y1.6851 I3.4596 J2.8784
G3 X2.0532 Y1.4077 I3.1822 J3.1824
G3 X2.364 Y1.1737 I2.5658 J3.0843
G3 X2.6963 Y0.9716 I2.1652 J3.1861
G3 X3.0405 Y0.8078 I1.7585 J3.2508
G3 X3.3997 Y0.6803 I1.4143 J3.4146
G3 X3.7777 Y0.5882 I1.0997 J3.6918
G3 X4.1628 Y0.5339 I0.7517 J3.941
G3 X4.3284 Y0.5218 I0.4112 J4.4816
G1 Z-0.05 F15
G3 X4.574 Y0.5151 I0.2456 J4.4937 F30
G3 X4.8281 Y0.5223 I0 J4.5004
G1 Z-0.075 F15
G3 X4.9851 Y0.5339 I-0.2541 J4.4932 F30
G3 X5.3703 Y0.5882 I-0.3665 J3.9952
G3 X5.7482 Y0.6803 I-0.7217 J3.7839
G3 X6.1075 Y0.8078 I-1.0551 J3.5421
G3 X6.4516 Y0.9716 I-1.4143 J3.4146
G3 X6.784 Y1.1737 I-1.8328 J3.3882
G3 X7.0947 Y1.4077 I-2.255 J3.3183
G3 X7.3988 Y1.6851 I-2.8781 J3.4598
G3 X7.6762 Y1.9891 I-3.1822 J3.1824
G3 X7.9102 Y2.2998 I-3.0841 J2.566
G3 X8.1123 Y2.6322 I-3.1859 J2.1654
G3 X8.2762 Y2.9763 I-3.2506 J1.7587
G3 X8.4037 Y3.3356 I-3.4145 J1.4145
G3 X8.4525 Y3.515 I-3.6918 J1.1
G1 Z-0.05 F15
G3 X8.4958 Y3.7135 I-3.7405 J0.9205 F30
G3 X8.5406 Y4.0068 I-3.9409 J0.752
G1 Z-0.075 F15
G3 X8.5501 Y4.0986 I-3.9857 J0.4587 F30
G3 X8.569 Y4.5098 I-4.4816 J0.4115
G1 X8.569 Y5.6728
G3 X8.5065 Y5.7353 I-0.0625 J0
G1 X8.3815 Y5.7353
G3 X8.444 Y5.7978 I0 J0.0625
G1 X8.444 Y6.5478
G3 X8.3815 Y6.6103 I-0.0625 J0
G1 X8.5065 Y6.6103
G3 X8.569 Y6.6728 I0 J0.0625
G1 X8.569 Y8.6728
G3 X8.5065 Y8.7353 I-0.0625 J0
G1 X8.3815 Y8.7353
G3 X8.444 Y8.7978 I0 J0.0625
G1 X8.444 Y9.5478
G3 X8.3815 Y9.6103 I-0.0625 J0
G1 X8.4868 Y9.6103
G3 X8.5493 Y9.6728 I0 J0.0625
G3 X8.5244 Y9.7227 I-0.0625 J0
G1 X8.2738 Y9.9115
G1 Z-0.05 F15
G1 X8.2007 Y9.9666 F30
G1 X7.8745 Y10.2124
G1 Z-0.075 F15
G1 X6.784 Y11.034 F30
G1 X6.784 Y11.3978
G1 X6.784 Y11.6728
G3 X6.7215 Y11.7353 I-0.0625 J0
G1 X6.5965 Y11.7353
G3 X6.659 Y11.7978 I0 J0.0625
G1 X6.659 Y12.5478
G3 X6.5965 Y12.6103 I-0.0625 J0
G1 X6.7215 Y12.6103
G3 X6.784 Y12.6728 I0 J0.0625
G1 X6.784 Y13.3914
G1 Z-0.05 F15
G1 X6.784 Y13.8914 F30
G1 Z-0.075 F15
G1 X6.784 Y14.6728 F30
G3 X6.7215 Y14.7353 I-0.0625 J0
G1 X6.5965 Y14.7353
G3 X6.659 Y14.7978 I0 J0.0625
G1 X6.659 Y15.5478
G3 X6.5965 Y15.6103 I-0.0625 J0
G1 X6.7215 Y15.6103
G3 X6.784 Y15.6728 I0 J0.0625
G1 X6.784 Y17.6728
G3 X6.7215 Y17.7353 I-0.0625 J0
G1 X6.5965 Y17.7353
G3 X6.659 Y17.7978 I0 J0.0625
G1 X6.659 Y18.5478
G3 X6.5965 Y18.6103 I-0.0625 J0
G1 X6.934 Y18.6103
G3 X6.9965 Y18.6728 I0 J0.0625
G1 X6.9965 Y19.0478
G3 X6.934 Y19.1103 I-0.0625 J0
G1 X7.059 Y19.1103
G3 X7.1215 Y19.1728 I0 J0.0625
G1 Z-0.15 F15
G1 X7.1215 Y20.3878 F30
G1 Z-0.05 F15
G1 X7.1215 Y20.8878 F30
G1 Z-0.15 F15
G1 X7.1215 Y22.4228 F30
G3 X7.059 Y22.4853 I-0.0625 J0
G1 X6.934 Y22.4853
G3 X6.9965 Y22.5478 I0 J0.0625
G1 X6.9965 Y22.7978
G3 X6.934 Y22.8603 I-0.0625 J0
G1 X7.059 Y22.8603
G3 X7.1215 Y22.9228 I0 J0.0625
G1 X7.1215 Y24.009
G3 X7.1082 Y24.0476 I-0.0625 J0
G1 X6.7707 Y24.4778
G1 X6.6457 Y24.6371
G1 X6.282 Y25.1006
G1 Z-0.05 F15
G1 X5.9734 Y25.494 F30
G1 Z-0.15 F15
G1 X5.1228 Y26.5783 F30
G3 X4.97 Y26.722 I-0.5488 J-0.4305
G3 X4.7813 Y26.8138 I-0.396 J-0.5742
G3 X4.574 Y26.8453 I-0.2074 J-0.666
G3 X4.3666 Y26.8138 I0 J-0.6975
G3 X4.178 Y26.722 I0.2074 J-0.666
G3 X4.0252 Y26.5783 I0.396 J-0.5742
G1 X3.3748 Y25.7492
G1 Z-0.05 F15
G1 X3.0662 Y25.3558 F30
G1 Z-0.15 F15
G1 X2.5023 Y24.6371 F30
G1 X2.3773 Y24.4778
G1 X2.0398 Y24.0476
G3 X2.0265 Y24.009 I0.0492 J-0.0386
G1 X2.0265 Y22.9228
G3 X2.089 Y22.8603 I0.0625 J0
G1 X2.214 Y22.8603
G3 X2.1515 Y22.7978 I0 J-0.0625
G1 X2.1515 Y22.5478
G3 X2.214 Y22.4853 I0.0625 J0
G1 X2.089 Y22.4853
G3 X2.0265 Y22.4228 I0 J-0.0625
G1 X2.0265 Y21.2788
G1 Z-0.05 F15
G1 X2.0265 Y20.7788 F30
G1 Z-0.15 F15
G1 X2.0265 Y19.1728 F30
G3 X2.089 Y19.1103 I0.0625 J0
G1 X2.214 Y19.1103
G3 X2.1515 Y19.0478 I0 J-0.0625
G1 X2.1515 Y18.6728
G3 X2.214 Y18.6103 I0.0625 J0
G1 X2.5515 Y18.6103
G3 X2.489 Y18.5478 I0 J-0.0625
G1 X2.489 Y17.7978
G3 X2.5515 Y17.7353 I0.0625 J0
G1 X2.4265 Y17.7353
G3 X2.364 Y17.6728 I0 J-0.0625
G1 X2.364 Y16.8196
G1 Z-0.05 F15
G1 X2.364 Y16.3196 F30
G1 Z-0.15 F15
G1 X2.364 Y15.6728 F30
G3 X2.4265 Y15.6103 I0.0625 J0
G1 X2.5515 Y15.6103
G3 X2.489 Y15.5478 I0 J-0.0625
G1 X2.489 Y14.7978
G3 X2.5515 Y14.7353 I0.0625 J0
G1 X2.4265 Y14.7353
G3 X2.364 Y14.6728 I0 J-0.0625
G1 X2.364 Y12.6728
G3 X2.4265 Y12.6103 I0.0625 J0
G1 X2.5515 Y12.6103
G3 X2.489 Y12.5478 I0 J-0.0625
G1 X2.489 Y11.7978
G3 X2.5515 Y11.7353 I0.0625 J0
G1 X2.4265 Y11.7353
G3 X2.364 Y11.6728 I0 J-0.0625
G1 X2.364 Y11.3978
G1 X2.364 Y11.034
G1 X1.6022 Y10.4601
G1 Z-0.05 F15
G1 X1.2029 Y10.1592 F30
G1 Z-0.15 F15
G1 X0.9473 Y9.9666 F30
G1 X0.6235 Y9.7227
G3 X0.5986 Y9.6728 I0.0376 J-0.0499
G3 X0.6611 Y9.6103 I0.0625 J0
G1 X0.7665 Y9.6103
G3 X0.704 Y9.5478 I0 J-0.0625
G1 X0.704 Y8.7978
G3 X0.7665 Y8.7353 I0.0625 J0
G1 X0.6415 Y8.7353
G3 X0.579 Y8.6728 I0 J-0.0625
G1 X0.579 Y6.6728
G3 X0.6415 Y6.6103 I0.0625 J0
G1 X0.7665 Y6.6103
G3 X0.704 Y6.5478 I0 J-0.0625
G1 X0.704 Y5.7978
G3 X0.7665 Y5.7353 I0.0625 J0
G1 X0.6415 Y5.7353
G3 X0.579 Y5.6728 I0 J-0.0625
G1 X0.579 Y4.5098
G3 X0.5978 Y4.0986 I4.5004 J0.0003
G3 X0.626 Y3.8663 I3.9952 J0.3668
G1 Z-0.05 F15
G3 X0.6521 Y3.7135 I3.967 J0.5992 F30
G3 X0.7319 Y3.378 I3.7839 J0.722
G1 Z-0.15 F15
G3 X0.7442 Y3.3356 I3.7041 J1.0575 F30
G3 X0.8718 Y2.9763 I3.542 J1.0553
G3 X1.0356 Y2.6322 I3.4145 J1.4145
G3 X1.2378 Y2.2998 I3.388 J1.8331
G3 X1.4718 Y1.9891 I3.3181 J2.2553
G3 X1.7492 Y1.6851 I3.4596 J2.8784
G3 X2.0532 Y1.4077 I3.1822 J3.1824
G3 X2.364 Y1.1737 I2.5658 J3.0843
G3 X2.6963 Y0.9716 I2.1652 J3.1861
G3 X3.0405 Y0.8078 I1.7585 J3.2508
G3 X3.3997 Y0.6803 I1.4143 J3.4146
G3 X3.7777 Y0.5882 I1.0997 J3.6918
G3 X4.1628 Y0.5339 I0.7517 J3.941
G3 X4.3284 Y0.5218 I0.4112 J4.4816
G1 Z-0.05 F15
G3 X4.574 Y0.5151 I0.2456 J4.4937 F30
G3 X4.8281 Y0.5223 I0 J4.5004
G1 Z-0.15 F15
G3 X4.9851 Y0.5339 I-0.2541 J4.4932 F30
G3 X5.3703 Y0.5882 I-0.3665 J3.9952
G3 X5.7482 Y0.6803 I-0.7217 J3.7839
G3 X6.1075 Y0.8078 I-1.0551 J3.5421
G3 X6.4516 Y0.9716 I-1.4143 J3.4146
G3 X6.784 Y1.1737 I-1.8328 J3.3882
G3 X7.0947 Y1.4077 I-2.255 J3.3183
G3 X7.3988 Y1.6851 I-2.8781 J3.4598
G3 X7.6762 Y1.9891 I-3.1822 J3.1824
G3 X7.9102 Y2.2998 I-3.0841 J2.566
G3 X8.1123 Y2.6322 I-3.1859 J2.1654
G3 X8.2762 Y2.9763 I-3.2506 J1.7587
G3 X8.4037 Y3.3356 I-3.4145 J1.4145
G3 X8.4525 Y3.515 I-3.6918 J1.1
G1 Z-0.05 F15
G3 X8.4958 Y3.7135 I-3.7405 J0.9205 F30
G3 X8.5406 Y4.0068 I-3.9409 J0.752
G1 Z-0.15 F15
G3 X8.5501 Y4.0986 I-3.9857 J0.4587 F30
G3 X8.569 Y4.5098 I-4.4816 J0.4115
G1 X8.569 Y5.6728
G3 X8.5065 Y5.7353 I-0.0625 J0
G1 X8.3815 Y5.7353
G3 X8.444 Y5.7978 I0 J0.0625
G1 X8.444 Y6.5478
G3 X8.3815 Y6.6103 I-0.0625 J0
G1 X8.5065 Y6.6103
G3 X8.569 Y6.6728 I0 J0.0625
G1 X8.569 Y8.6728
G3 X8.5065 Y8.7353 I-0.0625 J0
G1 X8.3815 Y8.7353
G3 X8.444 Y8.7978 I0 J0.0625
G1 X8.444 Y9.5478
G3 X8.3815 Y9.6103 I-0.0625 J0
G1 X8.4868 Y9.6103
G3 X8.5493 Y9.6728 I0 J0.0625
G3 X8.5244 Y9.7227 I-0.0625 J0
G1 X8.2738 Y9.9115
G1 Z-0.05 F15
G1 X8.2007 Y9.9666 F30
G1 X7.8745 Y10.2124
G1 Z-0.15 F15
G1 X6.784 Y11.034 F30
G1 X6.784 Y11.3978
G1 X6.784 Y11.6728
G3 X6.7215 Y11.7353 I-0.0625 J0
G1 X6.5965 Y11.7353
G3 X6.659 Y11.7978 I0 J0.0625
G1 X6.659 Y12.5478
G3 X6.5965 Y12.6103 I-0.0625 J0
G1 X6.7215 Y12.6103
G3 X6.784 Y12.6728 I0 J0.0625
G1 X6.784 Y13.3914
G1 Z-0.05 F15
G1 X6.784 Y13.8914 F30
G1 Z-0.15 F15
G1 X6.784 Y14.6728 F30
G3 X6.7215 Y14.7353 I-0.0625 J0
G1 X6.5965 Y14.7353
G3 X6.659 Y14.7978 I0 J0.0625
G1 X6.659 Y15.5478
G3 X6.5965 Y15.6103 I-0.0625 J0
G1 X6.7215 Y15.6103
G3 X6.784 Y15.6728 I0 J0.0625
G1 X6.784 Y17.6728
G3 X6.7215 Y17.7353 I-0.0625 J0
G1 X6.5965 Y17.7353
G3 X6.659 Y17.7978 I0 J0.0625
G1 X6.659 Y18.5478
G3 X6.5965 Y18.6103 I-0.0625 J0
G1 X6.934 Y18.6103
G3 X6.9965 Y18.6728 I0 J0.0625
G1 X6.9965 Y19.0478
G3 X6.934 Y19.1103 I-0.0625 J0
G1 X7.059 Y19.1103
G3 X7.1215 Y19.1728 I0 J0.0625
G0 Z0.5
M5
M30
