(Generated by PartKam Version 0.05)

G20 G90 G40

(Lines)
G0 Z0.5
T0 M6
G17
M3
G0 X3.8902 Y7.5865
G1 Z-0.075 F15
G1 X3.8902 Y6.5865 F30
G0 Z0.5
G0 X3.8902 Y7.5865
G1 Z-0.15 F15
G1 X3.8902 Y6.5865 F30
G0 Z0.5
G0 X5.2902 Y7.5865
G1 Z-0.075 F15
G1 X5.2902 Y6.5865 F30
G0 Z0.5
G0 X5.2902 Y7.5865
G1 Z-0.15 F15
G1 X5.2902 Y6.5865 F30
G0 Z0.5
G0 X6.6752 Y4.5865
G1 Z-0.075 F15
G1 X6.6752 Y3.5865 F30
G0 Z0.5
G0 X6.6752 Y4.5865
G1 Z-0.15 F15
G1 X6.6752 Y3.5865 F30
G0 Z0.5
G0 X5.2902 Y4.5865
G1 Z-0.075 F15
G1 X5.2902 Y3.5865 F30
G0 Z0.5
G0 X5.2902 Y4.5865
G1 Z-0.15 F15
G1 X5.2902 Y3.5865 F30
G0 Z0.5
G0 X3.8902 Y4.5865
G1 Z-0.075 F15
G1 X3.8902 Y3.5865 F30
G0 Z0.5
G0 X3.8902 Y4.5865
G1 Z-0.15 F15
G1 X3.8902 Y3.5865 F30
G0 Z0.5
G0 X2.5052 Y4.5865
G1 Z-0.075 F15
G1 X2.5052 Y3.5865 F30
G0 Z0.5
G0 X2.5052 Y4.5865
G1 Z-0.15 F15
G1 X2.5052 Y3.5865 F30
G0 Z0.5
G0 X2.5052 Y1.5865
G1 Z-0.075 F15
G1 X2.5052 Y0.7404 F30
G0 Z0.5
G0 X2.5052 Y1.5865
G1 Z-0.15 F15
G1 X2.5052 Y0.7404 F30
G0 Z0.5
G0 X3.8902 Y1.5865
G1 Z-0.075 F15
G1 X3.8902 Y0.5265 F30
G0 Z0.5
G0 X3.8902 Y1.5865
G1 Z-0.15 F15
G1 X3.8902 Y0.5265 F30
G0 Z0.5
G0 X5.2902 Y1.5865
G1 Z-0.075 F15
G1 X5.2902 Y0.5265 F30
G0 Z0.5
G0 X5.2902 Y1.5865
G1 Z-0.15 F15
G1 X5.2902 Y0.5265 F30
G0 Z0.5
G0 X6.6752 Y1.5865
G1 Z-0.075 F15
G1 X6.6752 Y0.7404 F30
G0 Z0.5
G0 X6.6752 Y1.5865
G1 Z-0.15 F15
G1 X6.6752 Y0.7404 F30
G0 Z0.5
G0 X3.8902 Y10.5865
G1 Z-0.075 F15
G1 X3.8902 Y9.5865 F30
G0 Z0.5
G0 X3.8902 Y10.5865
G1 Z-0.15 F15
G1 X3.8902 Y9.5865 F30
G0 Z0.5
G0 X5.2902 Y10.5865
G1 Z-0.075 F15
G1 X5.2902 Y9.5865 F30
G0 Z0.5
G0 X5.2902 Y10.5865
G1 Z-0.15 F15
G1 X5.2902 Y9.5865 F30
G0 Z0.5
G0 X5.2902 Y13.5865
G1 Z-0.075 F15
G1 X5.2902 Y12.5865 F30
G0 Z0.5
G0 X5.2902 Y13.5865
G1 Z-0.15 F15
G1 X5.2902 Y12.5865 F30
G0 Z0.5
G0 X3.8902 Y13.5865
G1 Z-0.075 F15
G1 X3.8902 Y12.5865 F30
G0 Z0.5
G0 X3.8902 Y13.5865
G1 Z-0.15 F15
G1 X3.8902 Y12.5865 F30
G0 Z0.5
G0 X1.6897 Y15.3218
G1 Z-0.075 F15
G1 X2.0851 Y15.0239 F30
G0 Z0.5
G0 X1.6897 Y15.3218
G1 Z-0.15 F15
G1 X2.0851 Y15.0239 F30
G0 Z0.5
G0 X1.4642 Y16.0611
G1 Z-0.075 F15
G1 X1.2385 Y15.7616 F30
G0 Z0.5
G0 X1.4642 Y16.0611
G1 Z-0.15 F15
G1 X1.2385 Y15.7616 F30
G0 Z0.5
G0 X2.5052 Y16.5865
G1 Z-0.075 F15
G1 X2.5052 Y15.5865 F30
G0 Z0.5
G0 X2.5052 Y16.5865
G1 Z-0.15 F15
G1 X2.5052 Y15.5865 F30
G0 Z0.5
G0 X3.8902 Y16.5865
G1 Z-0.075 F15
G1 X3.8902 Y15.5865 F30
G0 Z0.5
G0 X3.8902 Y16.5865
G1 Z-0.15 F15
G1 X3.8902 Y15.5865 F30
G0 Z0.5
G0 X5.2902 Y16.5865
G1 Z-0.075 F15
G1 X5.2902 Y15.5865 F30
G0 Z0.5
G0 X5.2902 Y16.5865
G1 Z-0.15 F15
G1 X5.2902 Y15.5865 F30
G0 Z0.5
G0 X6.6752 Y16.5865
G1 Z-0.075 F15
G1 X6.6752 Y15.5865 F30
G0 Z0.5
G0 X6.6752 Y16.5865
G1 Z-0.15 F15
G1 X6.6752 Y15.5865 F30
G0 Z0.5
G0 X7.4907 Y15.3218
G1 Z-0.075 F15
G1 X7.0954 Y15.0239 F30
G0 Z0.5
G0 X7.4907 Y15.3218
G1 Z-0.15 F15
G1 X7.0954 Y15.0239 F30
G0 Z0.5
G0 X7.7162 Y16.0611
G1 Z-0.075 F15
G1 X7.9419 Y15.7616 F30
G0 Z0.5
G0 X7.7162 Y16.0611
G1 Z-0.15 F15
G1 X7.9419 Y15.7616 F30
G0 Z0.5
G0 X2.5052 Y19.5865
G1 Z-0.075 F15
G1 X2.5052 Y18.5865 F30
G0 Z0.5
G0 X2.5052 Y19.5865
G1 Z-0.15 F15
G1 X2.5052 Y18.5865 F30
G0 Z0.5
G0 X5.2902 Y19.5865
G1 Z-0.075 F15
G1 X5.2902 Y18.5865 F30
G0 Z0.5
G0 X5.2902 Y19.5865
G1 Z-0.15 F15
G1 X5.2902 Y18.5865 F30
G0 Z0.5
G0 X3.8902 Y19.5865
G1 Z-0.075 F15
G1 X3.8902 Y18.5865 F30
G0 Z0.5
G0 X3.8902 Y19.5865
G1 Z-0.15 F15
G1 X3.8902 Y18.5865 F30
G0 Z0.5
G0 X6.6752 Y19.5865
G1 Z-0.075 F15
G1 X6.6752 Y18.5865 F30
G0 Z0.5
G0 X6.6752 Y19.5865
G1 Z-0.15 F15
G1 X6.6752 Y18.5865 F30
G0 Z0.5
G0 X8.0902 Y20.7495
G1 Z-0.075 F15
G1 X7.0902 Y20.7495 F30
G0 Z0.5
G0 X8.0902 Y20.7495
G1 Z-0.15 F15
G1 X7.0902 Y20.7495 F30
G0 Z0.5
G0 X7.8238 Y22.0889
G1 Z-0.075 F15
G1 X6.8999 Y21.7062 F30
G0 Z0.5
G0 X7.8238 Y22.0889
G1 Z-0.15 F15
G1 X6.8999 Y21.7062 F30
G0 Z0.5
G0 X7.0651 Y23.2244
G1 Z-0.075 F15
G1 X6.358 Y22.5173 F30
G0 Z0.5
G0 X7.0651 Y23.2244
G1 Z-0.15 F15
G1 X6.358 Y22.5173 F30
G0 Z0.5
G0 X2.0902 Y20.7495
G1 Z-0.075 F15
G1 X1.0902 Y20.7495 F30
G0 Z0.5
G0 X2.0902 Y20.7495
G1 Z-0.15 F15
G1 X1.0902 Y20.7495 F30
G0 Z0.5
G0 X2.2805 Y21.7062
G1 Z-0.075 F15
G1 X1.3566 Y22.0889 F30
G0 Z0.5
G0 X2.2805 Y21.7062
G1 Z-0.15 F15
G1 X1.3566 Y22.0889 F30
G0 Z0.5
G0 X2.1153 Y23.2244
G1 Z-0.075 F15
G1 X2.8224 Y22.5173 F30
G0 Z0.5
G0 X2.1153 Y23.2244
G1 Z-0.15 F15
G1 X2.8224 Y22.5173 F30
G0 Z0.5
G0 X3.2508 Y23.9831
G1 Z-0.075 F15
G1 X3.6335 Y23.0592 F30
G0 Z0.5
G0 X3.2508 Y23.9831
G1 Z-0.15 F15
G1 X3.6335 Y23.0592 F30
G0 Z0.5
G0 X4.5902 Y24.2495
G1 Z-0.075 F15
G1 X4.5902 Y23.2495 F30
G0 Z0.5
G0 X4.5902 Y24.2495
G1 Z-0.15 F15
G1 X4.5902 Y23.2495 F30
G0 Z0.5
G0 X5.9296 Y23.9831
G1 Z-0.075 F15
G1 X5.5469 Y23.0592 F30
G0 Z0.5
G0 X5.9296 Y23.9831
G1 Z-0.15 F15
G1 X5.5469 Y23.0592 F30

(Circles)
G0 Z0.5
G0 X4.301 Y21.1918
G1 Z-0.075 F15
G3 X4.2172 Y21.1225 I0.3247 J-0.4777 F30
G3 X4.1479 Y21.0387 I0.4084 J-0.4084
G3 X4.1012 Y20.9521 I0.3995 J-0.2715
G3 X4.0729 Y20.8577 I0.4463 J-0.1849
G3 X4.0627 Y20.7495 I0.5674 J-0.1082
G3 X4.0729 Y20.6413 I0.5776 J0
G3 X4.1012 Y20.5469 I0.4745 J0.0905
G3 X4.1479 Y20.4603 I0.4463 J0.1849
G3 X4.2172 Y20.3765 I0.4777 J0.3247
G3 X4.301 Y20.3072 I0.4084 J0.4084
G3 X4.3876 Y20.2604 I0.2715 J0.3995
G3 X4.482 Y20.2322 I0.1849 J0.4463
G3 X4.5902 Y20.222 I0.1082 J0.5674
G3 X4.6984 Y20.2322 I0 J0.5776
G3 X4.7928 Y20.2604 I-0.0905 J0.4745
G3 X4.8794 Y20.3072 I-0.1849 J0.4463
G3 X4.9632 Y20.3765 I-0.3247 J0.4777
G3 X5.0325 Y20.4603 I-0.4084 J0.4084
G3 X5.0793 Y20.5469 I-0.3995 J0.2715
G3 X5.1075 Y20.6413 I-0.4463 J0.1849
G3 X5.1177 Y20.7495 I-0.5674 J0.1082
G3 X5.1075 Y20.8577 I-0.5776 J0
G3 X5.0793 Y20.9521 I-0.4745 J-0.0905
G3 X5.0325 Y21.0387 I-0.4463 J-0.1849
G3 X4.9632 Y21.1225 I-0.4777 J-0.3247
G3 X4.8794 Y21.1918 I-0.4084 J-0.4084
G3 X4.7928 Y21.2386 I-0.2715 J-0.3995
G3 X4.6984 Y21.2668 I-0.1849 J-0.4463
G3 X4.5902 Y21.277 I-0.1082 J-0.5674
G3 X4.482 Y21.2668 I0 J-0.5776
G3 X4.3876 Y21.2386 I0.0905 J-0.4745
G3 X4.301 Y21.1918 I0.1849 J-0.4463
G1 Z-0.15 F15
G3 X4.2172 Y21.1225 I0.3247 J-0.4777 F30
G3 X4.1479 Y21.0387 I0.4084 J-0.4084
G3 X4.1012 Y20.9521 I0.3995 J-0.2715
G3 X4.0729 Y20.8577 I0.4463 J-0.1849
G3 X4.0627 Y20.7495 I0.5674 J-0.1082
G3 X4.0729 Y20.6413 I0.5776 J0
G3 X4.1012 Y20.5469 I0.4745 J0.0905
G3 X4.1479 Y20.4603 I0.4463 J0.1849
G3 X4.2172 Y20.3765 I0.4777 J0.3247
G3 X4.301 Y20.3072 I0.4084 J0.4084
G3 X4.3876 Y20.2604 I0.2715 J0.3995
G3 X4.482 Y20.2322 I0.1849 J0.4463
G3 X4.5902 Y20.222 I0.1082 J0.5674
G3 X4.6984 Y20.2322 I0 J0.5776
G3 X4.7928 Y20.2604 I-0.0905 J0.4745
G3 X4.8794 Y20.3072 I-0.1849 J0.4463
G3 X4.9632 Y20.3765 I-0.3247 J0.4777
G3 X5.0325 Y20.4603 I-0.4084 J0.4084
G3 X5.0793 Y20.5469 I-0.3995 J0.2715
G3 X5.1075 Y20.6413 I-0.4463 J0.1849
G3 X5.1177 Y20.7495 I-0.5674 J0.1082
G3 X5.1075 Y20.8577 I-0.5776 J0
G3 X5.0793 Y20.9521 I-0.4745 J-0.0905
G3 X5.0325 Y21.0387 I-0.4463 J-0.1849
G3 X4.9632 Y21.1225 I-0.4777 J-0.3247
G3 X4.8794 Y21.1918 I-0.4084 J-0.4084
G3 X4.7928 Y21.2386 I-0.2715 J-0.3995
G3 X4.6984 Y21.2668 I-0.1849 J-0.4463
G3 X4.5902 Y21.277 I-0.1082 J-0.5674
G3 X4.482 Y21.2668 I0 J-0.5776
G3 X4.3876 Y21.2386 I0.0905 J-0.4745
G3 X4.301 Y21.1918 I0.1849 J-0.4463
G0 Z0.5
G0 X4.5663 Y19.6272
G1 Z-0.075 F15
G3 X4.546 Y19.6137 I0.0239 J-0.0577 F30
G3 X4.5325 Y19.5934 I0.0442 J-0.0442
G3 X4.5277 Y19.5695 I0.0577 J-0.0239
G3 X4.5325 Y19.5456 I0.0625 J0
G3 X4.546 Y19.5253 I0.0577 J0.0239
G3 X4.5663 Y19.5118 I0.0442 J0.0442
G3 X4.5902 Y19.507 I0.0239 J0.0577
G3 X4.6141 Y19.5118 I0 J0.0625
G3 X4.6344 Y19.5253 I-0.0239 J0.0577
G3 X4.648 Y19.5456 I-0.0442 J0.0442
G3 X4.6527 Y19.5695 I-0.0577 J0.0239
G3 X4.648 Y19.5934 I-0.0625 J0
G3 X4.6344 Y19.6137 I-0.0577 J-0.0239
G3 X4.6141 Y19.6272 I-0.0442 J-0.0442
G3 X4.5902 Y19.632 I-0.0239 J-0.0577
G3 X4.5663 Y19.6272 I0 J-0.0625
G1 Z-0.15 F15
G3 X4.546 Y19.6137 I0.0239 J-0.0577 F30
G3 X4.5325 Y19.5934 I0.0442 J-0.0442
G3 X4.5277 Y19.5695 I0.0577 J-0.0239
G3 X4.5325 Y19.5456 I0.0625 J0
G3 X4.546 Y19.5253 I0.0577 J0.0239
G3 X4.5663 Y19.5118 I0.0442 J0.0442
G3 X4.5902 Y19.507 I0.0239 J0.0577
G3 X4.6141 Y19.5118 I0 J0.0625
G3 X4.6344 Y19.5253 I-0.0239 J0.0577
G3 X4.648 Y19.5456 I-0.0442 J0.0442
G3 X4.6527 Y19.5695 I-0.0577 J0.0239
G3 X4.648 Y19.5934 I-0.0625 J0
G3 X4.6344 Y19.6137 I-0.0577 J-0.0239
G3 X4.6141 Y19.6272 I-0.0442 J-0.0442
G3 X4.5902 Y19.632 I-0.0239 J-0.0577
G3 X4.5663 Y19.6272 I0 J-0.0625
G0 Z0.5
G0 X4.5902 Y21.867
G1 Z-0.075 F15
G3 X4.6141 Y21.8718 I0 J0.0625 F30
G3 X4.6344 Y21.8853 I-0.0239 J0.0577
G3 X4.648 Y21.9056 I-0.0442 J0.0442
G3 X4.6527 Y21.9295 I-0.0577 J0.0239
G3 X4.648 Y21.9534 I-0.0625 J0
G3 X4.6344 Y21.9737 I-0.0577 J-0.0239
G3 X4.6141 Y21.9872 I-0.0442 J-0.0442
G3 X4.5902 Y21.992 I-0.0239 J-0.0577
G3 X4.5663 Y21.9872 I0 J-0.0625
G3 X4.546 Y21.9737 I0.0239 J-0.0577
G3 X4.5325 Y21.9534 I0.0442 J-0.0442
G3 X4.5277 Y21.9295 I0.0577 J-0.0239
G3 X4.5325 Y21.9056 I0.0625 J0
G3 X4.546 Y21.8853 I0.0577 J0.0239
G3 X4.5663 Y21.8718 I0.0442 J0.0442
G3 X4.5902 Y21.867 I0.0239 J0.0577
G1 Z-0.15 F15
G3 X4.6141 Y21.8718 I0 J0.0625 F30
G3 X4.6344 Y21.8853 I-0.0239 J0.0577
G3 X4.648 Y21.9056 I-0.0442 J0.0442
G3 X4.6527 Y21.9295 I-0.0577 J0.0239
G3 X4.648 Y21.9534 I-0.0625 J0
G3 X4.6344 Y21.9737 I-0.0577 J-0.0239
G3 X4.6141 Y21.9872 I-0.0442 J-0.0442
G3 X4.5902 Y21.992 I-0.0239 J-0.0577
G3 X4.5663 Y21.9872 I0 J-0.0625
G3 X4.546 Y21.9737 I0.0239 J-0.0577
G3 X4.5325 Y21.9534 I0.0442 J-0.0442
G3 X4.5277 Y21.9295 I0.0577 J-0.0239
G3 X4.5325 Y21.9056 I0.0625 J0
G3 X4.546 Y21.8853 I0.0577 J0.0239
G3 X4.5663 Y21.8718 I0.0442 J0.0442
G3 X4.5902 Y21.867 I0.0239 J0.0577
G0 Z0.5
G0 X3.4295 Y20.8089
G1 Z-0.075 F15
G3 X3.4102 Y20.812 I-0.0193 J-0.0594 F30
G3 X3.3909 Y20.8089 I0 J-0.0625
G3 X3.3735 Y20.8001 I0.0193 J-0.0594
G3 X3.3596 Y20.7862 I0.0367 J-0.0506
G3 X3.3508 Y20.7688 I0.0506 J-0.0367
G3 X3.3477 Y20.7495 I0.0594 J-0.0193
G3 X3.3508 Y20.7302 I0.0625 J0
G3 X3.3596 Y20.7128 I0.0594 J0.0193
G3 X3.3735 Y20.6989 I0.0506 J0.0367
G3 X3.3909 Y20.6901 I0.0367 J0.0506
G3 X3.4102 Y20.687 I0.0193 J0.0594
G3 X3.4295 Y20.6901 I0 J0.0625
G3 X3.4469 Y20.6989 I-0.0193 J0.0594
G3 X3.4608 Y20.7128 I-0.0367 J0.0506
G3 X3.4697 Y20.7302 I-0.0506 J0.0367
G3 X3.4727 Y20.7495 I-0.0594 J0.0193
G3 X3.4697 Y20.7688 I-0.0625 J0
G3 X3.4608 Y20.7862 I-0.0594 J-0.0193
G3 X3.4469 Y20.8001 I-0.0506 J-0.0367
G3 X3.4295 Y20.8089 I-0.0367 J-0.0506
G1 Z-0.15 F15
G3 X3.4102 Y20.812 I-0.0193 J-0.0594 F30
G3 X3.3909 Y20.8089 I0 J-0.0625
G3 X3.3735 Y20.8001 I0.0193 J-0.0594
G3 X3.3596 Y20.7862 I0.0367 J-0.0506
G3 X3.3508 Y20.7688 I0.0506 J-0.0367
G3 X3.3477 Y20.7495 I0.0594 J-0.0193
G3 X3.3508 Y20.7302 I0.0625 J0
G3 X3.3596 Y20.7128 I0.0594 J0.0193
G3 X3.3735 Y20.6989 I0.0506 J0.0367
G3 X3.3909 Y20.6901 I0.0367 J0.0506
G3 X3.4102 Y20.687 I0.0193 J0.0594
G3 X3.4295 Y20.6901 I0 J0.0625
G3 X3.4469 Y20.6989 I-0.0193 J0.0594
G3 X3.4608 Y20.7128 I-0.0367 J0.0506
G3 X3.4697 Y20.7302 I-0.0506 J0.0367
G3 X3.4727 Y20.7495 I-0.0594 J0.0193
G3 X3.4697 Y20.7688 I-0.0625 J0
G3 X3.4608 Y20.7862 I-0.0594 J-0.0193
G3 X3.4469 Y20.8001 I-0.0506 J-0.0367
G3 X3.4295 Y20.8089 I-0.0367 J-0.0506
G0 Z0.5
G0 X5.7895 Y20.8089
G1 Z-0.075 F15
G3 X5.7702 Y20.812 I-0.0193 J-0.0594 F30
G3 X5.7509 Y20.8089 I0 J-0.0625
G3 X5.7335 Y20.8001 I0.0193 J-0.0594
G3 X5.7196 Y20.7862 I0.0367 J-0.0506
G3 X5.7108 Y20.7688 I0.0506 J-0.0367
G3 X5.7077 Y20.7495 I0.0594 J-0.0193
G3 X5.7108 Y20.7302 I0.0625 J0
G3 X5.7196 Y20.7128 I0.0594 J0.0193
G3 X5.7335 Y20.6989 I0.0506 J0.0367
G3 X5.7509 Y20.6901 I0.0367 J0.0506
G3 X5.7702 Y20.687 I0.0193 J0.0594
G3 X5.7895 Y20.6901 I0 J0.0625
G3 X5.8069 Y20.6989 I-0.0193 J0.0594
G3 X5.8208 Y20.7128 I-0.0367 J0.0506
G3 X5.8297 Y20.7302 I-0.0506 J0.0367
G3 X5.8327 Y20.7495 I-0.0594 J0.0193
G3 X5.8297 Y20.7688 I-0.0625 J0
G3 X5.8208 Y20.7862 I-0.0594 J-0.0193
G3 X5.8069 Y20.8001 I-0.0506 J-0.0367
G3 X5.7895 Y20.8089 I-0.0367 J-0.0506
G1 Z-0.15 F15
G3 X5.7702 Y20.812 I-0.0193 J-0.0594 F30
G3 X5.7509 Y20.8089 I0 J-0.0625
G3 X5.7335 Y20.8001 I0.0193 J-0.0594
G3 X5.7196 Y20.7862 I0.0367 J-0.0506
G3 X5.7108 Y20.7688 I0.0506 J-0.0367
G3 X5.7077 Y20.7495 I0.0594 J-0.0193
G3 X5.7108 Y20.7302 I0.0625 J0
G3 X5.7196 Y20.7128 I0.0594 J0.0193
G3 X5.7335 Y20.6989 I0.0506 J0.0367
G3 X5.7509 Y20.6901 I0.0367 J0.0506
G3 X5.7702 Y20.687 I0.0193 J0.0594
G3 X5.7895 Y20.6901 I0 J0.0625
G3 X5.8069 Y20.6989 I-0.0193 J0.0594
G3 X5.8208 Y20.7128 I-0.0367 J0.0506
G3 X5.8297 Y20.7302 I-0.0506 J0.0367
G3 X5.8327 Y20.7495 I-0.0594 J0.0193
G3 X5.8297 Y20.7688 I-0.0625 J0
G3 X5.8208 Y20.7862 I-0.0594 J-0.0193
G3 X5.8069 Y20.8001 I-0.0506 J-0.0367
G3 X5.7895 Y20.8089 I-0.0367 J-0.0506

(profile 3)
G0 Z0.5
G0 X7.1377 Y2.8365
G1 Z-0.075 F15
G1 X7.1377 Y4.2682 F30
G1 Z-0.05 F15
G1 X7.1377 Y4.7682 F30
G1 Z-0.075 F15
G1 X7.1377 Y6.0865 F30
G3 X7.0752 Y6.149 I-0.0625 J0
G1 X6.9502 Y6.149
G3 X7.0127 Y6.2115 I0 J0.0625
G1 X7.0127 Y6.5865
G3 X6.9502 Y6.649 I-0.0625 J0
G1 X6.6127 Y6.649
G3 X6.6752 Y6.7115 I0 J0.0625
G1 X6.6752 Y7.4615
G3 X6.6127 Y7.524 I-0.0625 J0
G1 X6.7377 Y7.524
G3 X6.8002 Y7.5865 I0 J0.0625
G1 X6.8002 Y8.3179
G1 Z-0.05 F15
G1 X6.8002 Y8.8179 F30
G1 Z-0.075 F15
G1 X6.8002 Y9.5865 F30
G3 X6.7377 Y9.649 I-0.0625 J0
G1 X6.6127 Y9.649
G3 X6.6752 Y9.7115 I0 J0.0625
G1 X6.6752 Y10.4615
G3 X6.6127 Y10.524 I-0.0625 J0
G1 X6.7377 Y10.524
G3 X6.8002 Y10.5865 I0 J0.0625
G1 X6.8002 Y12.5865
G3 X6.7377 Y12.649 I-0.0625 J0
G1 X6.6127 Y12.649
G3 X6.6752 Y12.7115 I0 J0.0625
G1 X6.6752 Y13.4615
G3 X6.6127 Y13.524 I-0.0625 J0
G1 X6.7377 Y13.524
G3 X6.8002 Y13.5865 I0 J0.0625
G1 X6.8002 Y13.8615
G1 X6.8002 Y14.2253
G1 X7.2408 Y14.5573
G1 Z-0.05 F15
G1 X7.6402 Y14.8581 F30
G1 Z-0.075 F15
G1 X8.2169 Y15.2927 F30
G1 X8.5407 Y15.5366
G3 X8.5656 Y15.5865 I-0.0376 J0.0499
G3 X8.5031 Y15.649 I-0.0625 J0
G1 X8.3977 Y15.649
G3 X8.4602 Y15.7115 I0 J0.0625
G1 X8.4602 Y16.4615
G3 X8.3977 Y16.524 I-0.0625 J0
G1 X8.5227 Y16.524
G3 X8.5852 Y16.5865 I0 J0.0625
G1 X8.5852 Y18.0008
G1 Z-0.05 F15
G1 X8.5852 Y18.5008 F30
G1 Z-0.075 F15
G1 X8.5852 Y18.5865 F30
G3 X8.5227 Y18.649 I-0.0625 J0
G1 X8.3977 Y18.649
G3 X8.4602 Y18.7115 I0 J0.0625
G1 X8.4602 Y19.4615
G3 X8.3977 Y19.524 I-0.0625 J0
G1 X8.5227 Y19.524
G3 X8.5852 Y19.5865 I0 J0.0625
G1 X8.5852 Y20.7495
G3 X8.5664 Y21.1607 I-4.5005 J0
G3 X8.5121 Y21.5458 I-3.9952 J-0.3666
G3 X8.42 Y21.9238 I-3.7839 J-0.7218
G3 X8.2925 Y22.283 I-3.542 J-1.0551
G3 X8.1287 Y22.6272 I-3.4145 J-1.4143
G3 X7.9265 Y22.9596 I-3.3881 J-1.8329
G3 X7.6925 Y23.2703 I-3.3182 J-2.2551
G3 X7.6096 Y23.3672 I-3.4598 J-2.8783
G1 Z-0.05 F15
G3 X7.4151 Y23.5744 I-3.3769 J-2.9751 F30
G3 X7.259 Y23.7232 I-3.1823 J-3.1823
G1 Z-0.075 F15
G3 X7.111 Y23.8518 I-3.0262 J-3.3311 F30
G3 X6.8003 Y24.0858 I-2.5659 J-3.0842
G3 X6.4679 Y24.2879 I-2.1653 J-3.186
G3 X6.1238 Y24.4518 I-1.7585 J-3.2507
G3 X5.7645 Y24.5793 I-1.4143 J-3.4145
G3 X5.3866 Y24.6714 I-1.0997 J-3.6918
G3 X5.0014 Y24.7257 I-0.7517 J-3.941
G3 X4.5902 Y24.7445 I-0.4112 J-4.4816
G3 X4.179 Y24.7257 I0 J-4.5005
G3 X3.7939 Y24.6714 I0.3666 J-3.9952
G3 X3.4159 Y24.5793 I0.7218 J-3.7839
G3 X3.0567 Y24.4518 I1.0551 J-3.542
G3 X2.7125 Y24.2879 I1.4143 J-3.4145
G3 X2.3801 Y24.0858 I1.8329 J-3.3881
G3 X2.193 Y23.9506 I2.2551 J-3.3182
G1 Z-0.05 F15
G3 X2.0694 Y23.8518 I2.4422 J-3.183 F30
G3 X1.8152 Y23.6235 I2.8783 J-3.4598
G1 Z-0.075 F15
G3 X1.7653 Y23.5744 I3.1324 J-3.2314 F30
G3 X1.4879 Y23.2703 I3.1823 J-3.1823
G3 X1.2539 Y22.9596 I3.0842 J-2.5659
G3 X1.0518 Y22.6272 I3.186 J-2.1653
G3 X0.8879 Y22.283 I3.2507 J-1.7585
G3 X0.7604 Y21.9238 I3.4145 J-1.4143
G3 X0.6683 Y21.5458 I3.6918 J-1.0997
G3 X0.614 Y21.1607 I3.941 J-0.7517
G3 X0.5952 Y20.7495 I4.4816 J-0.4112
G1 X0.5952 Y19.5865
G3 X0.6577 Y19.524 I0.0625 J0
G1 X0.7827 Y19.524
G3 X0.7202 Y19.4615 I0 J-0.0625
G1 X0.7202 Y18.7115
G3 X0.7827 Y18.649 I0.0625 J0
G1 X0.6577 Y18.649
G3 X0.5952 Y18.5865 I0 J-0.0625
G1 X0.5952 Y18.1712
G1 Z-0.05 F15
G1 X0.5952 Y17.6712 F30
G1 Z-0.075 F15
G1 X0.5952 Y16.5865 F30
G3 X0.6577 Y16.524 I0.0625 J0
G1 X0.7827 Y16.524
G3 X0.7202 Y16.4615 I0 J-0.0625
G1 X0.7202 Y15.7115
G3 X0.7827 Y15.649 I0.0625 J0
G1 X0.6774 Y15.649
G3 X0.6149 Y15.5865 I0 J-0.0625
G3 X0.6398 Y15.5366 I0.0625 J0
G1 X0.9635 Y15.2927
G1 X1.4342 Y14.938
G1 Z-0.05 F15
G1 X1.8336 Y14.6371 F30
G1 Z-0.075 F15
G1 X2.3802 Y14.2253 F30
G1 X2.3802 Y13.8615
G1 X2.3802 Y13.5865
G3 X2.4427 Y13.524 I0.0625 J0
G1 X2.5677 Y13.524
G3 X2.5052 Y13.4615 I0 J-0.0625
G1 X2.5052 Y12.7115
G3 X2.5677 Y12.649 I0.0625 J0
G1 X2.4427 Y12.649
G3 X2.3802 Y12.5865 I0 J-0.0625
G1 X2.3802 Y10.5865
G3 X2.4427 Y10.524 I0.0625 J0
G1 X2.5677 Y10.524
G3 X2.5052 Y10.4615 I0 J-0.0625
G1 X2.5052 Y9.7115
G3 X2.5677 Y9.649 I0.0625 J0
G1 X2.4427 Y9.649
G3 X2.3802 Y9.5865 I0 J-0.0625
G1 X2.3802 Y8.8892
G1 Z-0.05 F15
G1 X2.3802 Y8.3892 F30
G1 Z-0.075 F15
G1 X2.3802 Y7.5865 F30
G3 X2.4427 Y7.524 I0.0625 J0
G1 X2.5677 Y7.524
G3 X2.5052 Y7.4615 I0 J-0.0625
G1 X2.5052 Y6.7115
G3 X2.5677 Y6.649 I0.0625 J0
G1 X2.2302 Y6.649
G3 X2.1677 Y6.5865 I0 J-0.0625
G1 X2.1677 Y6.2115
G3 X2.2302 Y6.149 I0.0625 J0
G1 X2.1052 Y6.149
G3 X2.0427 Y6.0865 I0 J-0.0625
G1 X2.0427 Y4.5776
G1 Z-0.05 F15
G1 X2.0427 Y4.0776 F30
G1 Z-0.075 F15
G1 X2.0427 Y2.8365 F30
G3 X2.1052 Y2.774 I0.0625 J0
G1 X2.2302 Y2.774
G3 X2.1677 Y2.7115 I0 J-0.0625
G1 X2.1677 Y2.4615
G3 X2.2302 Y2.399 I0.0625 J0
G1 X2.1052 Y2.399
G3 X2.0427 Y2.3365 I0 J-0.0625
G1 X2.0427 Y1.2503
G3 X2.056 Y1.2117 I0.0625 J0
G1 X2.3935 Y0.7815
G1 X2.5185 Y0.6222
G1 X2.6239 Y0.4879
G3 X2.6731 Y0.464 I0.0492 J0.0386
G1 X3.8727 Y0.464
G1 X3.9077 Y0.464
G1 X5.2727 Y0.464
G1 X5.3077 Y0.464
G1 X6.5074 Y0.464
G3 X6.5565 Y0.4879 I0 J0.0625
G1 X6.6619 Y0.6222
G1 X6.7869 Y0.7815
G1 X7.1244 Y1.2117
G3 X7.1377 Y1.2503 I-0.0492 J0.0386
G1 X7.1377 Y2.3365
G3 X7.0752 Y2.399 I-0.0625 J0
G1 X6.9502 Y2.399
G3 X7.0127 Y2.4615 I0 J0.0625
G1 X7.0127 Y2.7115
G3 X6.9502 Y2.774 I-0.0625 J0
G1 X7.0752 Y2.774
G3 X7.1377 Y2.8365 I0 J0.0625
G1 Z-0.15 F15
G1 X7.1377 Y4.2682 F30
G1 Z-0.05 F15
G1 X7.1377 Y4.7682 F30
G1 Z-0.15 F15
G1 X7.1377 Y6.0865 F30
G3 X7.0752 Y6.149 I-0.0625 J0
G1 X6.9502 Y6.149
G3 X7.0127 Y6.2115 I0 J0.0625
G1 X7.0127 Y6.5865
G3 X6.9502 Y6.649 I-0.0625 J0
G1 X6.6127 Y6.649
G3 X6.6752 Y6.7115 I0 J0.0625
G1 X6.6752 Y7.4615
G3 X6.6127 Y7.524 I-0.0625 J0
G1 X6.7377 Y7.524
G3 X6.8002 Y7.5865 I0 J0.0625
G1 X6.8002 Y8.3179
G1 Z-0.05 F15
G1 X6.8002 Y8.8179 F30
G1 Z-0.15 F15
G1 X6.8002 Y9.5865 F30
G3 X6.7377 Y9.649 I-0.0625 J0
G1 X6.6127 Y9.649
G3 X6.6752 Y9.7115 I0 J0.0625
G1 X6.6752 Y10.4615
G3 X6.6127 Y10.524 I-0.0625 J0
G1 X6.7377 Y10.524
G3 X6.8002 Y10.5865 I0 J0.0625
G1 X6.8002 Y12.5865
G3 X6.7377 Y12.649 I-0.0625 J0
G1 X6.6127 Y12.649
G3 X6.6752 Y12.7115 I0 J0.0625
G1 X6.6752 Y13.4615
G3 X6.6127 Y13.524 I-0.0625 J0
G1 X6.7377 Y13.524
G3 X6.8002 Y13.5865 I0 J0.0625
G1 X6.8002 Y13.8615
G1 X6.8002 Y14.2253
G1 X7.2408 Y14.5573
G1 Z-0.05 F15
G1 X7.6402 Y14.8581 F30
G1 Z-0.15 F15
G1 X8.2169 Y15.2927 F30
G1 X8.5407 Y15.5366
G3 X8.5656 Y15.5865 I-0.0376 J0.0499
G3 X8.5031 Y15.649 I-0.0625 J0
G1 X8.3977 Y15.649
G3 X8.4602 Y15.7115 I0 J0.0625
G1 X8.4602 Y16.4615
G3 X8.3977 Y16.524 I-0.0625 J0
G1 X8.5227 Y16.524
G3 X8.5852 Y16.5865 I0 J0.0625
G1 X8.5852 Y18.0008
G1 Z-0.05 F15
G1 X8.5852 Y18.5008 F30
G1 Z-0.15 F15
G1 X8.5852 Y18.5865 F30
G3 X8.5227 Y18.649 I-0.0625 J0
G1 X8.3977 Y18.649
G3 X8.4602 Y18.7115 I0 J0.0625
G1 X8.4602 Y19.4615
G3 X8.3977 Y19.524 I-0.0625 J0
G1 X8.5227 Y19.524
G3 X8.5852 Y19.5865 I0 J0.0625
G1 X8.5852 Y20.7495
G3 X8.5664 Y21.1607 I-4.5005 J0
G3 X8.5121 Y21.5458 I-3.9952 J-0.3666
G3 X8.42 Y21.9238 I-3.7839 J-0.7218
G3 X8.2925 Y22.283 I-3.542 J-1.0551
G3 X8.1287 Y22.6272 I-3.4145 J-1.4143
G3 X7.9265 Y22.9596 I-3.3881 J-1.8329
G3 X7.6925 Y23.2703 I-3.3182 J-2.2551
G3 X7.6096 Y23.3672 I-3.4598 J-2.8783
G1 Z-0.05 F15
G3 X7.4151 Y23.5744 I-3.3769 J-2.9751 F30
G3 X7.259 Y23.7232 I-3.1823 J-3.1823
G1 Z-0.15 F15
G3 X7.111 Y23.8518 I-3.0262 J-3.3311 F30
G3 X6.8003 Y24.0858 I-2.5659 J-3.0842
G3 X6.4679 Y24.2879 I-2.1653 J-3.186
G3 X6.1238 Y24.4518 I-1.7585 J-3.2507
G3 X5.7645 Y24.5793 I-1.4143 J-3.4145
G3 X5.3866 Y24.6714 I-1.0997 J-3.6918
G3 X5.0014 Y24.7257 I-0.7517 J-3.941
G3 X4.5902 Y24.7445 I-0.4112 J-4.4816
G3 X4.179 Y24.7257 I0 J-4.5005
G3 X3.7939 Y24.6714 I0.3666 J-3.9952
G3 X3.4159 Y24.5793 I0.7218 J-3.7839
G3 X3.0567 Y24.4518 I1.0551 J-3.542
G3 X2.7125 Y24.2879 I1.4143 J-3.4145
G3 X2.3801 Y24.0858 I1.8329 J-3.3881
G3 X2.193 Y23.9506 I2.2551 J-3.3182
G1 Z-0.05 F15
G3 X2.0694 Y23.8518 I2.4422 J-3.183 F30
G3 X1.8152 Y23.6235 I2.8783 J-3.4598
G1 Z-0.15 F15
G3 X1.7653 Y23.5744 I3.1324 J-3.2314 F30
G3 X1.4879 Y23.2703 I3.1823 J-3.1823
G3 X1.2539 Y22.9596 I3.0842 J-2.5659
G3 X1.0518 Y22.6272 I3.186 J-2.1653
G3 X0.8879 Y22.283 I3.2507 J-1.7585
G3 X0.7604 Y21.9238 I3.4145 J-1.4143
G3 X0.6683 Y21.5458 I3.6918 J-1.0997
G3 X0.614 Y21.1607 I3.941 J-0.7517
G3 X0.5952 Y20.7495 I4.4816 J-0.4112
G1 X0.5952 Y19.5865
G3 X0.6577 Y19.524 I0.0625 J0
G1 X0.7827 Y19.524
G3 X0.7202 Y19.4615 I0 J-0.0625
G1 X0.7202 Y18.7115
G3 X0.7827 Y18.649 I0.0625 J0
G1 X0.6577 Y18.649
G3 X0.5952 Y18.5865 I0 J-0.0625
G1 X0.5952 Y18.1712
G1 Z-0.05 F15
G1 X0.5952 Y17.6712 F30
G1 Z-0.15 F15
G1 X0.5952 Y16.5865 F30
G3 X0.6577 Y16.524 I0.0625 J0
G1 X0.7827 Y16.524
G3 X0.7202 Y16.4615 I0 J-0.0625
G1 X0.7202 Y15.7115
G3 X0.7827 Y15.649 I0.0625 J0
G1 X0.6774 Y15.649
G3 X0.6149 Y15.5865 I0 J-0.0625
G3 X0.6398 Y15.5366 I0.0625 J0
G1 X0.9635 Y15.2927
G1 X1.4342 Y14.938
G1 Z-0.05 F15
G1 X1.8336 Y14.6371 F30
G1 Z-0.15 F15
G1 X2.3802 Y14.2253 F30
G1 X2.3802 Y13.8615
G1 X2.3802 Y13.5865
G3 X2.4427 Y13.524 I0.0625 J0
G1 X2.5677 Y13.524
G3 X2.5052 Y13.4615 I0 J-0.0625
G1 X2.5052 Y12.7115
G3 X2.5677 Y12.649 I0.0625 J0
G1 X2.4427 Y12.649
G3 X2.3802 Y12.5865 I0 J-0.0625
G1 X2.3802 Y10.5865
G3 X2.4427 Y10.524 I0.0625 J0
G1 X2.5677 Y10.524
G3 X2.5052 Y10.4615 I0 J-0.0625
G1 X2.5052 Y9.7115
G3 X2.5677 Y9.649 I0.0625 J0
G1 X2.4427 Y9.649
G3 X2.3802 Y9.5865 I0 J-0.0625
G1 X2.3802 Y8.8892
G1 Z-0.05 F15
G1 X2.3802 Y8.3892 F30
G1 Z-0.15 F15
G1 X2.3802 Y7.5865 F30
G3 X2.4427 Y7.524 I0.0625 J0
G1 X2.5677 Y7.524
G3 X2.5052 Y7.4615 I0 J-0.0625
G1 X2.5052 Y6.7115
G3 X2.5677 Y6.649 I0.0625 J0
G1 X2.2302 Y6.649
G3 X2.1677 Y6.5865 I0 J-0.0625
G1 X2.1677 Y6.2115
G3 X2.2302 Y6.149 I0.0625 J0
G1 X2.1052 Y6.149
G3 X2.0427 Y6.0865 I0 J-0.0625
G1 X2.0427 Y4.5776
G1 Z-0.05 F15
G1 X2.0427 Y4.0776 F30
G1 Z-0.15 F15
G1 X2.0427 Y2.8365 F30
G3 X2.1052 Y2.774 I0.0625 J0
G1 X2.2302 Y2.774
G3 X2.1677 Y2.7115 I0 J-0.0625
G1 X2.1677 Y2.4615
G3 X2.2302 Y2.399 I0.0625 J0
G1 X2.1052 Y2.399
G3 X2.0427 Y2.3365 I0 J-0.0625
G1 X2.0427 Y1.2503
G3 X2.056 Y1.2117 I0.0625 J0
G1 X2.3935 Y0.7815
G1 X2.5185 Y0.6222
G1 X2.6239 Y0.4879
G3 X2.6731 Y0.464 I0.0492 J0.0386
G1 X3.8727 Y0.464
G1 X3.9077 Y0.464
G1 X5.2727 Y0.464
G1 X5.3077 Y0.464
G1 X6.5074 Y0.464
G3 X6.5565 Y0.4879 I0 J0.0625
G1 X6.6619 Y0.6222
G1 X6.7869 Y0.7815
G1 X7.1244 Y1.2117
G3 X7.1377 Y1.2503 I-0.0492 J0.0386
G1 X7.1377 Y2.3365
G3 X7.0752 Y2.399 I-0.0625 J0
G1 X6.9502 Y2.399
G3 X7.0127 Y2.4615 I0 J0.0625
G1 X7.0127 Y2.7115
G3 X6.9502 Y2.774 I-0.0625 J0
G1 X7.0752 Y2.774
G3 X7.1377 Y2.8365 I0 J0.0625
G0 Z0.5
M5
M30
