(Generated by PartKam Version 0.05)

G20 G90 G40

(1)
G0 Z0.5
T0 M6
G17
M3
G0 X0.6054 Y9.407
G1 Z-0.075 F15
G1 X0.6054 Y8.782 F30
G1 Z-0.05 F15
G1 X0.6054 Y8.282 F30
G1 Z-0.075 F15
G1 X0.6054 Y7.657 F30
G3 X0.6678 Y7.5945 I0.0625 J0
G1 X0.5429 Y7.5945
G3 X0.4804 Y7.532 I0 J-0.0625
G1 X0.4804 Y6.532
G3 X0.5429 Y6.4695 I0.0625 J0
G1 X0.6679 Y6.4695
G3 X0.6054 Y6.407 I0 J-0.0625
G1 X0.6054 Y4.657
G3 X0.6678 Y4.5945 I0.0625 J0
G1 X0.5429 Y4.5945
G3 X0.4804 Y4.532 I0 J-0.0625
G1 X0.4804 Y4.2129
G1 Z-0.05 F15
G1 X0.4804 Y3.7129 F30
G1 Z-0.075 F15
G1 X0.4804 Y3.532 F30
G3 X0.5429 Y3.4695 I0.0625 J0
G1 X0.6679 Y3.4695
G3 X0.6054 Y3.407 I0 J-0.0625
G1 X0.6054 Y1.657
G3 X0.6679 Y1.5945 I0.0625 J0
G1 X0.5429 Y1.5945
G3 X0.4804 Y1.532 I0 J-0.0625
G1 X0.4804 Y1.0165
G3 X0.5429 Y0.954 I0.0625 J0
G1 X0.9179 Y0.954
G3 X0.8554 Y0.8915 I0 J-0.0625
G1 X0.8554 Y0.532
G3 X0.9179 Y0.4695 I0.0625 J0
G1 X1.1812 Y0.4695
G1 Z-0.05 F15
G1 X1.6812 Y0.4695 F30
G1 Z-0.075 F15
G1 X2.0429 Y0.4695 F30
G3 X2.1054 Y0.532 I0 J0.0625
G1 X2.1054 Y1.532
G3 X2.0429 Y1.5945 I-0.0625 J0
G1 X1.9179 Y1.5945
G3 X1.9804 Y1.657 I0 J0.0625
G1 X1.9804 Y3.407
G3 X1.9179 Y3.4695 I-0.0625 J0
G1 X2.0429 Y3.4695
G3 X2.1054 Y3.532 I0 J0.0625
G1 X2.1054 Y3.7844
G1 Z-0.05 F15
G1 X2.1054 Y4.2844 F30
G1 Z-0.075 F15
G1 X2.1054 Y4.532 F30
G3 X2.0429 Y4.5945 I-0.0625 J0
G1 X1.9179 Y4.5945
G3 X1.9804 Y4.657 I0 J0.0625
G1 X1.9804 Y6.407
G3 X1.9179 Y6.4695 I-0.0625 J0
G1 X2.0429 Y6.4695
G3 X2.1054 Y6.532 I0 J0.0625
G1 X2.1054 Y7.532
G3 X2.0429 Y7.5945 I-0.0625 J0
G1 X1.9179 Y7.5945
G3 X1.9804 Y7.657 I0 J0.0625
G1 X1.9804 Y8.2149
G1 Z-0.05 F15
G1 X1.9804 Y8.7149 F30
G1 Z-0.075 F15
G1 X1.9804 Y9.407 F30
G3 X1.9179 Y9.4695 I-0.0625 J0
G1 X2.0429 Y9.4695
G3 X2.1054 Y9.532 I0 J0.0625
G1 X2.1054 Y10.532
G3 X2.0429 Y10.5945 I-0.0625 J0
G1 X1.9179 Y10.5945
G3 X1.9804 Y10.657 I0 J0.0625
G1 X1.9804 Y12.407
G3 X1.9179 Y12.4695 I-0.0625 J0
G1 X2.0429 Y12.4695
G3 X2.1054 Y12.532 I0 J0.0625
G1 X2.1054 Y13.532
G3 X2.0429 Y13.5945 I-0.0625 J0
G1 X1.9179 Y13.5945
G3 X1.9804 Y13.657 I0 J0.0625
G1 X1.9804 Y15.407
G3 X1.9179 Y15.4695 I-0.0625 J0
G1 X2.0429 Y15.4695
G3 X2.1054 Y15.532 I0 J0.0625
G1 X2.1054 Y15.7986
G1 Z-0.05 F15
G1 X2.1054 Y16.2986 F30
G1 Z-0.075 F15
G1 X2.1054 Y16.532 F30
G3 X2.0429 Y16.5945 I-0.0625 J0
G1 X1.9179 Y16.5945
G3 X1.9804 Y16.657 I0 J0.0625
G1 X1.9804 Y18.407
G3 X1.9179 Y18.4695 I-0.0625 J0
G1 X2.0429 Y18.4695
G3 X2.1054 Y18.532 I0 J0.0625
G1 X2.1054 Y19.4695
G3 X2.0429 Y19.532 I-0.0625 J0
G1 X1.3693 Y19.532
G1 Z-0.05 F15
G1 X0.8693 Y19.532 F30
G1 Z-0.075 F15
G1 X0.5429 Y19.532 F30
G3 X0.4804 Y19.4695 I0 J-0.0625
G1 X0.4804 Y18.532
G3 X0.5429 Y18.4695 I0.0625 J0
G1 X0.6679 Y18.4695
G3 X0.6054 Y18.407 I0 J-0.0625
G1 X0.6054 Y16.657
G3 X0.6679 Y16.5945 I0.0625 J0
G1 X0.5429 Y16.5945
G3 X0.4804 Y16.532 I0 J-0.0625
G1 X0.4804 Y15.532
G3 X0.5429 Y15.4695 I0.0625 J0
G1 X0.6679 Y15.4695
G3 X0.6054 Y15.407 I0 J-0.0625
G1 X0.6054 Y14.6725
G1 Z-0.05 F15
G1 X0.6054 Y14.1725 F30
G1 Z-0.075 F15
G1 X0.6054 Y13.657 F30
G3 X0.6679 Y13.5945 I0.0625 J0
G1 X0.5429 Y13.5945
G3 X0.4804 Y13.532 I0 J-0.0625
G1 X0.4804 Y12.532
G3 X0.5429 Y12.4695 I0.0625 J0
G1 X0.6679 Y12.4695
G3 X0.6054 Y12.407 I0 J-0.0625
G1 X0.6054 Y10.657
G3 X0.6679 Y10.5945 I0.0625 J0
G1 X0.5429 Y10.5945
G3 X0.4804 Y10.532 I0 J-0.0625
G1 X0.4804 Y9.532
G3 X0.5429 Y9.4695 I0.0625 J0
G1 X0.6679 Y9.4695
G3 X0.6054 Y9.407 I0 J-0.0625
G1 Z-0.15 F15
G1 X0.6054 Y8.782 F30
G1 Z-0.05 F15
G1 X0.6054 Y8.282 F30
G1 Z-0.15 F15
G1 X0.6054 Y7.657 F30
G3 X0.6678 Y7.5945 I0.0625 J0
G1 X0.5429 Y7.5945
G3 X0.4804 Y7.532 I0 J-0.0625
G1 X0.4804 Y6.532
G3 X0.5429 Y6.4695 I0.0625 J0
G1 X0.6679 Y6.4695
G3 X0.6054 Y6.407 I0 J-0.0625
G1 X0.6054 Y4.657
G3 X0.6678 Y4.5945 I0.0625 J0
G1 X0.5429 Y4.5945
G3 X0.4804 Y4.532 I0 J-0.0625
G1 X0.4804 Y4.2129
G1 Z-0.05 F15
G1 X0.4804 Y3.7129 F30
G1 Z-0.15 F15
G1 X0.4804 Y3.532 F30
G3 X0.5429 Y3.4695 I0.0625 J0
G1 X0.6679 Y3.4695
G3 X0.6054 Y3.407 I0 J-0.0625
G1 X0.6054 Y1.657
G3 X0.6679 Y1.5945 I0.0625 J0
G1 X0.5429 Y1.5945
G3 X0.4804 Y1.532 I0 J-0.0625
G1 X0.4804 Y1.0165
G3 X0.5429 Y0.954 I0.0625 J0
G1 X0.9179 Y0.954
G3 X0.8554 Y0.8915 I0 J-0.0625
G1 X0.8554 Y0.532
G3 X0.9179 Y0.4695 I0.0625 J0
G1 X1.1812 Y0.4695
G1 Z-0.05 F15
G1 X1.6812 Y0.4695 F30
G1 Z-0.15 F15
G1 X2.0429 Y0.4695 F30
G3 X2.1054 Y0.532 I0 J0.0625
G1 X2.1054 Y1.532
G3 X2.0429 Y1.5945 I-0.0625 J0
G1 X1.9179 Y1.5945
G3 X1.9804 Y1.657 I0 J0.0625
G1 X1.9804 Y3.407
G3 X1.9179 Y3.4695 I-0.0625 J0
G1 X2.0429 Y3.4695
G3 X2.1054 Y3.532 I0 J0.0625
G1 X2.1054 Y3.7844
G1 Z-0.05 F15
G1 X2.1054 Y4.2844 F30
G1 Z-0.15 F15
G1 X2.1054 Y4.532 F30
G3 X2.0429 Y4.5945 I-0.0625 J0
G1 X1.9179 Y4.5945
G3 X1.9804 Y4.657 I0 J0.0625
G1 X1.9804 Y6.407
G3 X1.9179 Y6.4695 I-0.0625 J0
G1 X2.0429 Y6.4695
G3 X2.1054 Y6.532 I0 J0.0625
G1 X2.1054 Y7.532
G3 X2.0429 Y7.5945 I-0.0625 J0
G1 X1.9179 Y7.5945
G3 X1.9804 Y7.657 I0 J0.0625
G1 X1.9804 Y8.2149
G1 Z-0.05 F15
G1 X1.9804 Y8.7149 F30
G1 Z-0.15 F15
G1 X1.9804 Y9.407 F30
G3 X1.9179 Y9.4695 I-0.0625 J0
G1 X2.0429 Y9.4695
G3 X2.1054 Y9.532 I0 J0.0625
G1 X2.1054 Y10.532
G3 X2.0429 Y10.5945 I-0.0625 J0
G1 X1.9179 Y10.5945
G3 X1.9804 Y10.657 I0 J0.0625
G1 X1.9804 Y12.407
G3 X1.9179 Y12.4695 I-0.0625 J0
G1 X2.0429 Y12.4695
G3 X2.1054 Y12.532 I0 J0.0625
G1 X2.1054 Y13.532
G3 X2.0429 Y13.5945 I-0.0625 J0
G1 X1.9179 Y13.5945
G3 X1.9804 Y13.657 I0 J0.0625
G1 X1.9804 Y15.407
G3 X1.9179 Y15.4695 I-0.0625 J0
G1 X2.0429 Y15.4695
G3 X2.1054 Y15.532 I0 J0.0625
G1 X2.1054 Y15.7986
G1 Z-0.05 F15
G1 X2.1054 Y16.2986 F30
G1 Z-0.15 F15
G1 X2.1054 Y16.532 F30
G3 X2.0429 Y16.5945 I-0.0625 J0
G1 X1.9179 Y16.5945
G3 X1.9804 Y16.657 I0 J0.0625
G1 X1.9804 Y18.407
G3 X1.9179 Y18.4695 I-0.0625 J0
G1 X2.0429 Y18.4695
G3 X2.1054 Y18.532 I0 J0.0625
G1 X2.1054 Y19.4695
G3 X2.0429 Y19.532 I-0.0625 J0
G1 X1.3693 Y19.532
G1 Z-0.05 F15
G1 X0.8693 Y19.532 F30
G1 Z-0.15 F15
G1 X0.5429 Y19.532 F30
G3 X0.4804 Y19.4695 I0 J-0.0625
G1 X0.4804 Y18.532
G3 X0.5429 Y18.4695 I0.0625 J0
G1 X0.6679 Y18.4695
G3 X0.6054 Y18.407 I0 J-0.0625
G1 X0.6054 Y16.657
G3 X0.6679 Y16.5945 I0.0625 J0
G1 X0.5429 Y16.5945
G3 X0.4804 Y16.532 I0 J-0.0625
G1 X0.4804 Y15.532
G3 X0.5429 Y15.4695 I0.0625 J0
G1 X0.6679 Y15.4695
G3 X0.6054 Y15.407 I0 J-0.0625
G1 X0.6054 Y14.6725
G1 Z-0.05 F15
G1 X0.6054 Y14.1725 F30
G1 Z-0.15 F15
G1 X0.6054 Y13.657 F30
G3 X0.6679 Y13.5945 I0.0625 J0
G1 X0.5429 Y13.5945
G3 X0.4804 Y13.532 I0 J-0.0625
G1 X0.4804 Y12.532
G3 X0.5429 Y12.4695 I0.0625 J0
G1 X0.6679 Y12.4695
G3 X0.6054 Y12.407 I0 J-0.0625
G1 X0.6054 Y10.657
G3 X0.6679 Y10.5945 I0.0625 J0
G1 X0.5429 Y10.5945
G3 X0.4804 Y10.532 I0 J-0.0625
G1 X0.4804 Y9.532
G3 X0.5429 Y9.4695 I0.0625 J0
G1 X0.6679 Y9.4695
G3 X0.6054 Y9.407 I0 J-0.0625
G0 Z0.5
G0 X5.3351 Y10.4765
G1 Z-0.075 F15
G1 X5.3351 Y8.7265 F30
G3 X5.3975 Y8.664 I0.0625 J0
G1 X5.2726 Y8.664
G3 X5.2101 Y8.6015 I0 J-0.0625
G1 X5.2101 Y7.6015
G3 X5.2726 Y7.539 I0.0625 J0
G1 X5.3976 Y7.539
G3 X5.3351 Y7.4765 I0 J-0.0625
G1 X5.3351 Y7.3265
G1 X5.3351 Y6.8487
G1 Z-0.05 F15
G1 X5.3351 Y6.5525 F30
G1 X5.3351 Y6.3487
G1 Z-0.075 F15
G1 X5.3351 Y5.7265 F30
G3 X5.3975 Y5.664 I0.0625 J0
G1 X5.2726 Y5.664
G3 X5.2101 Y5.6015 I0 J-0.0625
G1 X5.2101 Y4.6015
G3 X5.2726 Y4.539 I0.0625 J0
G1 X5.3976 Y4.539
G3 X5.3351 Y4.4765 I0 J-0.0625
G1 X5.3351 Y2.7265
G3 X5.3976 Y2.664 I0.0625 J0
G1 X5.2726 Y2.664
G3 X5.2101 Y2.6015 I0 J-0.0625
G1 X5.2101 Y1.6015
G3 X5.2726 Y1.539 I0.0625 J0
G1 X5.3976 Y1.539
G3 X5.3351 Y1.4765 I0 J-0.0625
G1 X5.3351 Y0.5015
G3 X5.3976 Y0.439 I0.0625 J0
G1 X5.8062 Y0.439
G1 Z-0.05 F15
G1 X6.3062 Y0.439 F30
G1 Z-0.075 F15
G1 X6.6476 Y0.439 F30
G3 X6.7101 Y0.5015 I0 J0.0625
G1 X6.7101 Y1.4765
G3 X6.6476 Y1.539 I-0.0625 J0
G1 X6.7726 Y1.539
G3 X6.8351 Y1.6015 I0 J0.0625
G1 X6.8351 Y2.6015
G3 X6.7726 Y2.664 I-0.0625 J0
G1 X6.6476 Y2.664
G3 X6.7101 Y2.7265 I0 J0.0625
G1 X6.7101 Y4.4765
G3 X6.6476 Y4.539 I-0.0625 J0
G1 X6.7726 Y4.539
G3 X6.8351 Y4.6015 I0 J0.0625
G1 X6.8351 Y5.6015
G3 X6.7726 Y5.664 I-0.0625 J0
G1 X6.6476 Y5.664
G3 X6.7101 Y5.7265 I0 J0.0625
G1 X6.7101 Y6.3206
G1 Z-0.05 F15
G1 X6.7101 Y6.5525 F30
G1 X6.7101 Y6.8206
G1 Z-0.075 F15
G1 X6.7101 Y7.3265 F30
G1 X6.7101 Y7.4765
G3 X6.6476 Y7.539 I-0.0625 J0
G1 X6.7726 Y7.539
G3 X6.8351 Y7.6015 I0 J0.0625
G1 X6.8351 Y8.6015
G3 X6.7726 Y8.664 I-0.0625 J0
G1 X6.6476 Y8.664
G3 X6.7101 Y8.7265 I0 J0.0625
G1 X6.7101 Y10.4765
G3 X6.6476 Y10.539 I-0.0625 J0
G1 X6.7726 Y10.539
G3 X6.8351 Y10.6015 I0 J0.0625
G1 X6.8351 Y11.6015
G3 X6.7726 Y11.664 I-0.0625 J0
G1 X6.6476 Y11.664
G3 X6.7101 Y11.7265 I0 J0.0625
G1 X6.7101 Y11.977
G1 X6.7101 Y12.077
G1 X6.7101 Y12.3202
G1 Z-0.05 F15
G1 X6.7101 Y12.8202 F30
G1 Z-0.075 F15
G1 X6.7101 Y13.4765 F30
G3 X6.6476 Y13.539 I-0.0625 J0
G1 X6.7726 Y13.539
G3 X6.8351 Y13.6015 I0 J0.0625
G1 X6.8351 Y14.6015
G3 X6.7726 Y14.664 I-0.0625 J0
G1 X6.6476 Y14.664
G3 X6.7101 Y14.7265 I0 J0.0625
G1 X6.7101 Y16.4765
G3 X6.6476 Y16.539 I-0.0625 J0
G1 X6.7726 Y16.539
G3 X6.8351 Y16.6015 I0 J0.0625
G1 X6.8351 Y16.8554
G1 Z-0.05 F15
G1 X6.8351 Y17.3554 F30
G1 Z-0.075 F15
G1 X6.8351 Y17.6015 F30
G3 X6.7726 Y17.664 I-0.0625 J0
G1 X6.6476 Y17.664
G3 X6.7101 Y17.7265 I0 J0.0625
G1 X6.7101 Y19.4765
G3 X6.6476 Y19.539 I-0.0625 J0
G1 X6.7726 Y19.539
G3 X6.8351 Y19.6015 I0 J0.0625
G1 X6.8351 Y20.1015
G3 X6.7726 Y20.164 I-0.0625 J0
G1 X6.2868 Y20.164
G1 Z-0.05 F15
G1 X5.7868 Y20.164 F30
G1 Z-0.075 F15
G1 X5.2726 Y20.164 F30
G3 X5.2101 Y20.1015 I0 J-0.0625
G1 X5.2101 Y19.6015
G3 X5.2726 Y19.539 I0.0625 J0
G1 X5.3976 Y19.539
G3 X5.3351 Y19.4765 I0 J-0.0625
G1 X5.3351 Y18.8007
G1 Z-0.05 F15
G1 X5.3351 Y18.3007 F30
G1 Z-0.075 F15
G1 X5.3351 Y17.7265 F30
G3 X5.3976 Y17.664 I0.0625 J0
G1 X5.2726 Y17.664
G3 X5.2101 Y17.6015 I0 J-0.0625
G1 X5.2101 Y17.2889
G1 Z-0.05 F15
G1 X5.2101 Y16.7889 F30
G1 Z-0.075 F15
G1 X5.2101 Y16.6015 F30
G3 X5.2726 Y16.539 I0.0625 J0
G1 X5.3976 Y16.539
G3 X5.3351 Y16.4765 I0 J-0.0625
G1 X5.3351 Y14.7265
G3 X5.3976 Y14.664 I0.0625 J0
G1 X5.2726 Y14.664
G3 X5.2101 Y14.6015 I0 J-0.0625
G1 X5.2101 Y13.6015
G3 X5.2726 Y13.539 I0.0625 J0
G1 X5.3976 Y13.539
G3 X5.3351 Y13.4765 I0 J-0.0625
G1 X5.3351 Y12.8486
G1 Z-0.05 F15
G1 X5.3351 Y12.3486 F30
G1 Z-0.075 F15
G1 X5.3351 Y12.077 F30
G1 X5.3351 Y11.977
G1 X5.3351 Y11.7265
G3 X5.3976 Y11.664 I0.0625 J0
G1 X5.2726 Y11.664
G3 X5.2101 Y11.6015 I0 J-0.0625
G1 X5.2101 Y10.6015
G3 X5.2726 Y10.539 I0.0625 J0
G1 X5.3976 Y10.539
G3 X5.3351 Y10.4765 I0 J-0.0625
G1 Z-0.15 F15
G1 X5.3351 Y8.7265 F30
G3 X5.3975 Y8.664 I0.0625 J0
G1 X5.2726 Y8.664
G3 X5.2101 Y8.6015 I0 J-0.0625
G1 X5.2101 Y7.6015
G3 X5.2726 Y7.539 I0.0625 J0
G1 X5.3976 Y7.539
G3 X5.3351 Y7.4765 I0 J-0.0625
G1 X5.3351 Y7.3265
G1 X5.3351 Y6.8487
G1 Z-0.05 F15
G1 X5.3351 Y6.5525 F30
G1 X5.3351 Y6.3487
G1 Z-0.15 F15
G1 X5.3351 Y5.7265 F30
G3 X5.3975 Y5.664 I0.0625 J0
G1 X5.2726 Y5.664
G3 X5.2101 Y5.6015 I0 J-0.0625
G1 X5.2101 Y4.6015
G3 X5.2726 Y4.539 I0.0625 J0
G1 X5.3976 Y4.539
G3 X5.3351 Y4.4765 I0 J-0.0625
G1 X5.3351 Y2.7265
G3 X5.3976 Y2.664 I0.0625 J0
G1 X5.2726 Y2.664
G3 X5.2101 Y2.6015 I0 J-0.0625
G1 X5.2101 Y1.6015
G3 X5.2726 Y1.539 I0.0625 J0
G1 X5.3976 Y1.539
G3 X5.3351 Y1.4765 I0 J-0.0625
G1 X5.3351 Y0.5015
G3 X5.3976 Y0.439 I0.0625 J0
G1 X5.8062 Y0.439
G1 Z-0.05 F15
G1 X6.3062 Y0.439 F30
G1 Z-0.15 F15
G1 X6.6476 Y0.439 F30
G3 X6.7101 Y0.5015 I0 J0.0625
G1 X6.7101 Y1.4765
G3 X6.6476 Y1.539 I-0.0625 J0
G1 X6.7726 Y1.539
G3 X6.8351 Y1.6015 I0 J0.0625
G1 X6.8351 Y2.6015
G3 X6.7726 Y2.664 I-0.0625 J0
G1 X6.6476 Y2.664
G3 X6.7101 Y2.7265 I0 J0.0625
G1 X6.7101 Y4.4765
G3 X6.6476 Y4.539 I-0.0625 J0
G1 X6.7726 Y4.539
G3 X6.8351 Y4.6015 I0 J0.0625
G1 X6.8351 Y5.6015
G3 X6.7726 Y5.664 I-0.0625 J0
G1 X6.6476 Y5.664
G3 X6.7101 Y5.7265 I0 J0.0625
G1 X6.7101 Y6.3206
G1 Z-0.05 F15
G1 X6.7101 Y6.5525 F30
G1 X6.7101 Y6.8206
G1 Z-0.15 F15
G1 X6.7101 Y7.3265 F30
G1 X6.7101 Y7.4765
G3 X6.6476 Y7.539 I-0.0625 J0
G1 X6.7726 Y7.539
G3 X6.8351 Y7.6015 I0 J0.0625
G1 X6.8351 Y8.6015
G3 X6.7726 Y8.664 I-0.0625 J0
G1 X6.6476 Y8.664
G3 X6.7101 Y8.7265 I0 J0.0625
G1 X6.7101 Y10.4765
G3 X6.6476 Y10.539 I-0.0625 J0
G1 X6.7726 Y10.539
G3 X6.8351 Y10.6015 I0 J0.0625
G1 X6.8351 Y11.6015
G3 X6.7726 Y11.664 I-0.0625 J0
G1 X6.6476 Y11.664
G3 X6.7101 Y11.7265 I0 J0.0625
G1 X6.7101 Y11.977
G1 X6.7101 Y12.077
G1 X6.7101 Y12.3202
G1 Z-0.05 F15
G1 X6.7101 Y12.8202 F30
G1 Z-0.15 F15
G1 X6.7101 Y13.4765 F30
G3 X6.6476 Y13.539 I-0.0625 J0
G1 X6.7726 Y13.539
G3 X6.8351 Y13.6015 I0 J0.0625
G1 X6.8351 Y14.6015
G3 X6.7726 Y14.664 I-0.0625 J0
G1 X6.6476 Y14.664
G3 X6.7101 Y14.7265 I0 J0.0625
G1 X6.7101 Y16.4765
G3 X6.6476 Y16.539 I-0.0625 J0
G1 X6.7726 Y16.539
G3 X6.8351 Y16.6015 I0 J0.0625
G1 X6.8351 Y16.8554
G1 Z-0.05 F15
G1 X6.8351 Y17.3554 F30
G1 Z-0.15 F15
G1 X6.8351 Y17.6015 F30
G3 X6.7726 Y17.664 I-0.0625 J0
G1 X6.6476 Y17.664
G3 X6.7101 Y17.7265 I0 J0.0625
G1 X6.7101 Y19.4765
G3 X6.6476 Y19.539 I-0.0625 J0
G1 X6.7726 Y19.539
G3 X6.8351 Y19.6015 I0 J0.0625
G1 X6.8351 Y20.1015
G3 X6.7726 Y20.164 I-0.0625 J0
G1 X6.2868 Y20.164
G1 Z-0.05 F15
G1 X5.7868 Y20.164 F30
G1 Z-0.15 F15
G1 X5.2726 Y20.164 F30
G3 X5.2101 Y20.1015 I0 J-0.0625
G1 X5.2101 Y19.6015
G3 X5.2726 Y19.539 I0.0625 J0
G1 X5.3976 Y19.539
G3 X5.3351 Y19.4765 I0 J-0.0625
G1 X5.3351 Y18.8007
G1 Z-0.05 F15
G1 X5.3351 Y18.3007 F30
G1 Z-0.15 F15
G1 X5.3351 Y17.7265 F30
G3 X5.3976 Y17.664 I0.0625 J0
G1 X5.2726 Y17.664
G3 X5.2101 Y17.6015 I0 J-0.0625
G1 X5.2101 Y17.2889
G1 Z-0.05 F15
G1 X5.2101 Y16.7889 F30
G1 Z-0.15 F15
G1 X5.2101 Y16.6015 F30
G3 X5.2726 Y16.539 I0.0625 J0
G1 X5.3976 Y16.539
G3 X5.3351 Y16.4765 I0 J-0.0625
G1 X5.3351 Y14.7265
G3 X5.3976 Y14.664 I0.0625 J0
G1 X5.2726 Y14.664
G3 X5.2101 Y14.6015 I0 J-0.0625
G1 X5.2101 Y13.6015
G3 X5.2726 Y13.539 I0.0625 J0
G1 X5.3976 Y13.539
G3 X5.3351 Y13.4765 I0 J-0.0625
G1 X5.3351 Y12.8486
G1 Z-0.05 F15
G1 X5.3351 Y12.3486 F30
G1 Z-0.15 F15
G1 X5.3351 Y12.077 F30
G1 X5.3351 Y11.977
G1 X5.3351 Y11.7265
G3 X5.3976 Y11.664 I0.0625 J0
G1 X5.2726 Y11.664
G3 X5.2101 Y11.6015 I0 J-0.0625
G1 X5.2101 Y10.6015
G3 X5.2726 Y10.539 I0.0625 J0
G1 X5.3976 Y10.539
G3 X5.3351 Y10.4765 I0 J-0.0625
G0 Z0.5
G0 X2.9777 Y6.3299
G1 Z-0.075 F15
G1 X2.9777 Y4.5799 F30
G3 X3.0401 Y4.5174 I0.0625 J0
G1 X2.9152 Y4.5174
G3 X2.8527 Y4.4549 I0 J-0.0625
G1 X2.8527 Y4.1971
G1 Z-0.05 F15
G1 X2.8527 Y3.6971 F30
G1 Z-0.075 F15
G1 X2.8527 Y3.4549 F30
G3 X2.9152 Y3.3924 I0.0625 J0
G1 X3.0402 Y3.3924
G3 X2.9777 Y3.3299 I0 J-0.0625
G1 X2.9777 Y1.5799
G3 X3.0402 Y1.5174 I0.0625 J0
G1 X2.9152 Y1.5174
G3 X2.8527 Y1.4549 I0 J-0.0625
G1 X2.8527 Y0.9394
G3 X2.9152 Y0.8769 I0.0625 J0
G1 X3.2902 Y0.8769
G3 X3.2277 Y0.8144 I0 J-0.0625
G1 X3.2277 Y0.4549
G3 X3.2902 Y0.3924 I0.0625 J0
G1 X3.6764 Y0.3924
G1 Z-0.05 F15
G1 X4.1764 Y0.3924 F30
G1 Z-0.075 F15
G1 X4.4152 Y0.3924 F30
G3 X4.4777 Y0.4549 I0 J0.0625
G1 X4.4777 Y1.4549
G3 X4.4152 Y1.5174 I-0.0625 J0
G1 X4.2902 Y1.5174
G3 X4.3527 Y1.5799 I0 J0.0625
G1 X4.3527 Y2.2307
G1 Z-0.05 F15
G1 X4.3527 Y2.7307 F30
G1 Z-0.075 F15
G1 X4.3527 Y3.3299 F30
G3 X4.2902 Y3.3924 I-0.0625 J0
G1 X4.4152 Y3.3924
G3 X4.4777 Y3.4549 I0 J0.0625
G1 X4.4777 Y4.4549
G3 X4.4152 Y4.5174 I-0.0625 J0
G1 X4.2902 Y4.5174
G3 X4.3527 Y4.5799 I0 J0.0625
G1 X4.3527 Y6.3299
G3 X4.2902 Y6.3924 I-0.0625 J0
G1 X4.4152 Y6.3924
G3 X4.4777 Y6.4549 I0 J0.0625
G1 X4.4777 Y6.6612
G1 Z-0.05 F15
G1 X4.4777 Y7.1612 F30
G1 Z-0.075 F15
G1 X4.4777 Y7.4549 F30
G3 X4.4152 Y7.5174 I-0.0625 J0
G1 X4.2902 Y7.5174
G3 X4.3527 Y7.5799 I0 J0.0625
G1 X4.3527 Y9.3299
G3 X4.2902 Y9.3924 I-0.0625 J0
G1 X4.4152 Y9.3924
G3 X4.4777 Y9.4549 I0 J0.0625
G1 X4.4777 Y10.4549
G3 X4.4152 Y10.5174 I-0.0625 J0
G1 X4.2902 Y10.5174
G3 X4.3527 Y10.5799 I0 J0.0625
G1 X4.3527 Y11.0917
G1 Z-0.05 F15
G1 X4.3527 Y11.5917 F30
G1 Z-0.075 F15
G1 X4.3527 Y12.3299 F30
G3 X4.2902 Y12.3924 I-0.0625 J0
G1 X4.4152 Y12.3924
G3 X4.4777 Y12.4549 I0 J0.0625
G1 X4.4777 Y13.4549
G3 X4.4152 Y13.5174 I-0.0625 J0
G1 X4.2902 Y13.5174
G3 X4.3527 Y13.5799 I0 J0.0625
G1 X4.3527 Y15.3299
G3 X4.2902 Y15.3924 I-0.0625 J0
G1 X4.4152 Y15.3924
G3 X4.4777 Y15.4549 I0 J0.0625
G1 X4.4777 Y15.7063
G1 Z-0.05 F15
G1 X4.4777 Y16.2063 F30
G1 Z-0.075 F15
G1 X4.4777 Y16.4549 F30
G3 X4.4152 Y16.5174 I-0.0625 J0
G1 X4.2902 Y16.5174
G3 X4.3527 Y16.5799 I0 J0.0625
G1 X4.3527 Y18.3299
G3 X4.2902 Y18.3924 I-0.0625 J0
G1 X4.4152 Y18.3924
G3 X4.4777 Y18.4549 I0 J0.0625
G1 X4.4777 Y19.3924
G3 X4.4152 Y19.4549 I-0.0625 J0
G1 X4.0385 Y19.4549
G1 Z-0.05 F15
G1 X3.5385 Y19.4549 F30
G1 Z-0.075 F15
G1 X2.9152 Y19.4549 F30
G3 X2.8527 Y19.3924 I0 J-0.0625
G1 X2.8527 Y18.4549
G3 X2.9152 Y18.3924 I0.0625 J0
G1 X3.0402 Y18.3924
G3 X2.9777 Y18.3299 I0 J-0.0625
G1 X2.9777 Y16.5799
G3 X3.0402 Y16.5174 I0.0625 J0
G1 X2.9152 Y16.5174
G3 X2.8527 Y16.4549 I0 J-0.0625
G1 X2.8527 Y16.1199
G1 Z-0.05 F15
G1 X2.8527 Y15.6199 F30
G1 Z-0.075 F15
G1 X2.8527 Y15.4549 F30
G3 X2.9152 Y15.3924 I0.0625 J0
G1 X3.0402 Y15.3924
G3 X2.9777 Y15.3299 I0 J-0.0625
G1 X2.9777 Y13.5799
G3 X3.0402 Y13.5174 I0.0625 J0
G1 X2.9152 Y13.5174
G3 X2.8527 Y13.4549 I0 J-0.0625
G1 X2.8527 Y12.4549
G3 X2.9152 Y12.3924 I0.0625 J0
G1 X3.0402 Y12.3924
G3 X2.9777 Y12.3299 I0 J-0.0625
G1 X2.9777 Y11.5956
G1 Z-0.05 F15
G1 X2.9777 Y11.0956 F30
G1 Z-0.075 F15
G1 X2.9777 Y10.5799 F30
G3 X3.0402 Y10.5174 I0.0625 J0
G1 X2.9152 Y10.5174
G3 X2.8527 Y10.4549 I0 J-0.0625
G1 X2.8527 Y9.4549
G3 X2.9152 Y9.3924 I0.0625 J0
G1 X3.0402 Y9.3924
G3 X2.9777 Y9.3299 I0 J-0.0625
G1 X2.9777 Y7.5799
G3 X3.0401 Y7.5174 I0.0625 J0
G1 X2.9152 Y7.5174
G3 X2.8527 Y7.4549 I0 J-0.0625
G1 X2.8527 Y6.4549
G3 X2.9152 Y6.3924 I0.0625 J0
G1 X3.0403 Y6.3924
G3 X2.9777 Y6.3299 I0 J-0.0625
G1 Z-0.15 F15
G1 X2.9777 Y4.5799 F30
G3 X3.0401 Y4.5174 I0.0625 J0
G1 X2.9152 Y4.5174
G3 X2.8527 Y4.4549 I0 J-0.0625
G1 X2.8527 Y4.1971
G1 Z-0.05 F15
G1 X2.8527 Y3.6971 F30
G1 Z-0.15 F15
G1 X2.8527 Y3.4549 F30
G3 X2.9152 Y3.3924 I0.0625 J0
G1 X3.0402 Y3.3924
G3 X2.9777 Y3.3299 I0 J-0.0625
G1 X2.9777 Y1.5799
G3 X3.0402 Y1.5174 I0.0625 J0
G1 X2.9152 Y1.5174
G3 X2.8527 Y1.4549 I0 J-0.0625
G1 X2.8527 Y0.9394
G3 X2.9152 Y0.8769 I0.0625 J0
G1 X3.2902 Y0.8769
G3 X3.2277 Y0.8144 I0 J-0.0625
G1 X3.2277 Y0.4549
G3 X3.2902 Y0.3924 I0.0625 J0
G1 X3.6764 Y0.3924
G1 Z-0.05 F15
G1 X4.1764 Y0.3924 F30
G1 Z-0.15 F15
G1 X4.4152 Y0.3924 F30
G3 X4.4777 Y0.4549 I0 J0.0625
G1 X4.4777 Y1.4549
G3 X4.4152 Y1.5174 I-0.0625 J0
G1 X4.2902 Y1.5174
G3 X4.3527 Y1.5799 I0 J0.0625
G1 X4.3527 Y2.2307
G1 Z-0.05 F15
G1 X4.3527 Y2.7307 F30
G1 Z-0.15 F15
G1 X4.3527 Y3.3299 F30
G3 X4.2902 Y3.3924 I-0.0625 J0
G1 X4.4152 Y3.3924
G3 X4.4777 Y3.4549 I0 J0.0625
G1 X4.4777 Y4.4549
G3 X4.4152 Y4.5174 I-0.0625 J0
G1 X4.2902 Y4.5174
G3 X4.3527 Y4.5799 I0 J0.0625
G1 X4.3527 Y6.3299
G3 X4.2902 Y6.3924 I-0.0625 J0
G1 X4.4152 Y6.3924
G3 X4.4777 Y6.4549 I0 J0.0625
G1 X4.4777 Y6.6612
G1 Z-0.05 F15
G1 X4.4777 Y7.1612 F30
G1 Z-0.15 F15
G1 X4.4777 Y7.4549 F30
G3 X4.4152 Y7.5174 I-0.0625 J0
G1 X4.2902 Y7.5174
G3 X4.3527 Y7.5799 I0 J0.0625
G1 X4.3527 Y9.3299
G3 X4.2902 Y9.3924 I-0.0625 J0
G1 X4.4152 Y9.3924
G3 X4.4777 Y9.4549 I0 J0.0625
G1 X4.4777 Y10.4549
G3 X4.4152 Y10.5174 I-0.0625 J0
G1 X4.2902 Y10.5174
G3 X4.3527 Y10.5799 I0 J0.0625
G1 X4.3527 Y11.0917
G1 Z-0.05 F15
G1 X4.3527 Y11.5917 F30
G1 Z-0.15 F15
G1 X4.3527 Y12.3299 F30
G3 X4.2902 Y12.3924 I-0.0625 J0
G1 X4.4152 Y12.3924
G3 X4.4777 Y12.4549 I0 J0.0625
G1 X4.4777 Y13.4549
G3 X4.4152 Y13.5174 I-0.0625 J0
G1 X4.2902 Y13.5174
G3 X4.3527 Y13.5799 I0 J0.0625
G1 X4.3527 Y15.3299
G3 X4.2902 Y15.3924 I-0.0625 J0
G1 X4.4152 Y15.3924
G3 X4.4777 Y15.4549 I0 J0.0625
G1 X4.4777 Y15.7063
G1 Z-0.05 F15
G1 X4.4777 Y16.2063 F30
G1 Z-0.15 F15
G1 X4.4777 Y16.4549 F30
G3 X4.4152 Y16.5174 I-0.0625 J0
G1 X4.2902 Y16.5174
G3 X4.3527 Y16.5799 I0 J0.0625
G1 X4.3527 Y18.3299
G3 X4.2902 Y18.3924 I-0.0625 J0
G1 X4.4152 Y18.3924
G3 X4.4777 Y18.4549 I0 J0.0625
G1 X4.4777 Y19.3924
G3 X4.4152 Y19.4549 I-0.0625 J0
G1 X4.0385 Y19.4549
G1 Z-0.05 F15
G1 X3.5385 Y19.4549 F30
G1 Z-0.15 F15
G1 X2.9152 Y19.4549 F30
G3 X2.8527 Y19.3924 I0 J-0.0625
G1 X2.8527 Y18.4549
G3 X2.9152 Y18.3924 I0.0625 J0
G1 X3.0402 Y18.3924
G3 X2.9777 Y18.3299 I0 J-0.0625
G1 X2.9777 Y16.5799
G3 X3.0402 Y16.5174 I0.0625 J0
G1 X2.9152 Y16.5174
G3 X2.8527 Y16.4549 I0 J-0.0625
G1 X2.8527 Y16.1199
G1 Z-0.05 F15
G1 X2.8527 Y15.6199 F30
G1 Z-0.15 F15
G1 X2.8527 Y15.4549 F30
G3 X2.9152 Y15.3924 I0.0625 J0
G1 X3.0402 Y15.3924
G3 X2.9777 Y15.3299 I0 J-0.0625
G1 X2.9777 Y13.5799
G3 X3.0402 Y13.5174 I0.0625 J0
G1 X2.9152 Y13.5174
G3 X2.8527 Y13.4549 I0 J-0.0625
G1 X2.8527 Y12.4549
G3 X2.9152 Y12.3924 I0.0625 J0
G1 X3.0402 Y12.3924
G3 X2.9777 Y12.3299 I0 J-0.0625
G1 X2.9777 Y11.5956
G1 Z-0.05 F15
G1 X2.9777 Y11.0956 F30
G1 Z-0.15 F15
G1 X2.9777 Y10.5799 F30
G3 X3.0402 Y10.5174 I0.0625 J0
G1 X2.9152 Y10.5174
G3 X2.8527 Y10.4549 I0 J-0.0625
G1 X2.8527 Y9.4549
G3 X2.9152 Y9.3924 I0.0625 J0
G1 X3.0402 Y9.3924
G3 X2.9777 Y9.3299 I0 J-0.0625
G1 X2.9777 Y7.5799
G3 X3.0401 Y7.5174 I0.0625 J0
G1 X2.9152 Y7.5174
G3 X2.8527 Y7.4549 I0 J-0.0625
G1 X2.8527 Y6.4549
G3 X2.9152 Y6.3924 I0.0625 J0
G1 X3.0403 Y6.3924
G3 X2.9777 Y6.3299 I0 J-0.0625
G0 Z0.5
G0 X9.1995 Y8.7081
G1 Z-0.075 F15
G1 X9.1995 Y10.4581 F30
G3 X9.137 Y10.5206 I-0.0625 J0
G1 X9.262 Y10.5206
G3 X9.3245 Y10.5831 I0 J0.0625
G1 X9.3245 Y10.7764
G1 Z-0.05 F15
G1 X9.3245 Y11.2764 F30
G1 Z-0.075 F15
G1 X9.3245 Y11.5831 F30
G3 X9.262 Y11.6456 I-0.0625 J0
G1 X9.137 Y11.6456
G3 X9.1995 Y11.7081 I0 J0.0625
G1 X9.1995 Y11.9586
G1 X9.1995 Y12.0586
G1 X9.1995 Y13.4581
G3 X9.137 Y13.5206 I-0.0625 J0
G1 X9.262 Y13.5206
G3 X9.3245 Y13.5831 I0 J0.0625
G1 X9.3245 Y14.5831
G3 X9.262 Y14.6456 I-0.0625 J0
G1 X9.137 Y14.6456
G3 X9.1995 Y14.7081 I0 J0.0625
G1 X9.1995 Y15.3592
G1 Z-0.05 F15
G1 X9.1995 Y15.8592 F30
G1 Z-0.075 F15
G1 X9.1995 Y16.4581 F30
G3 X9.137 Y16.5206 I-0.0625 J0
G1 X9.262 Y16.5206
G3 X9.3245 Y16.5831 I0 J0.0625
G1 X9.3245 Y17.5831
G3 X9.262 Y17.6456 I-0.0625 J0
G1 X9.137 Y17.6456
G3 X9.1995 Y17.7081 I0 J0.0625
G1 X9.1995 Y19.4581
G3 X9.137 Y19.5206 I-0.0625 J0
G1 X9.262 Y19.5206
G3 X9.3245 Y19.5831 I0 J0.0625
G1 X9.3245 Y20.0831
G3 X9.262 Y20.1456 I-0.0625 J0
G1 X8.7896 Y20.1456
G1 Z-0.05 F15
G1 X8.2896 Y20.1456 F30
G1 Z-0.075 F15
G1 X7.762 Y20.1456 F30
G3 X7.6995 Y20.0831 I0 J-0.0625
G1 X7.6995 Y19.5831
G3 X7.762 Y19.5206 I0.0625 J0
G1 X7.887 Y19.5206
G3 X7.8245 Y19.4581 I0 J-0.0625
G1 X7.8245 Y19.0328
G1 Z-0.05 F15
G1 X7.8245 Y18.5328 F30
G1 Z-0.075 F15
G1 X7.8245 Y17.7081 F30
G3 X7.887 Y17.6456 I0.0625 J0
G1 X7.762 Y17.6456
G3 X7.6995 Y17.5831 I0 J-0.0625
G1 X7.6995 Y16.5831
G3 X7.762 Y16.5206 I0.0625 J0
G1 X7.887 Y16.5206
G3 X7.8245 Y16.4581 I0 J-0.0625
G1 X7.8245 Y15.7721
G1 Z-0.05 F15
G1 X7.8245 Y15.2721 F30
G1 Z-0.075 F15
G1 X7.8245 Y14.7081 F30
G3 X7.887 Y14.6456 I0.0625 J0
G1 X7.762 Y14.6456
G3 X7.6995 Y14.5831 I0 J-0.0625
G1 X7.6995 Y13.5831
G3 X7.762 Y13.5206 I0.0625 J0
G1 X7.887 Y13.5206
G3 X7.8245 Y13.4581 I0 J-0.0625
G1 X7.8245 Y12.0586
G1 X7.8245 Y11.9586
G1 X7.8245 Y11.7081
G3 X7.887 Y11.6456 I0.0625 J0
G1 X7.762 Y11.6456
G3 X7.6995 Y11.5831 I0 J-0.0625
G1 X7.6995 Y11.2843
G1 Z-0.05 F15
G1 X7.6995 Y10.7843 F30
G1 Z-0.075 F15
G1 X7.6995 Y10.5831 F30
G3 X7.762 Y10.5206 I0.0625 J0
G1 X7.887 Y10.5206
G3 X7.8245 Y10.4581 I0 J-0.0625
G1 X7.8245 Y8.7081
G3 X7.887 Y8.6456 I0.0625 J0
G1 X7.762 Y8.6456
G3 X7.6995 Y8.5831 I0 J-0.0625
G1 X7.6995 Y7.5831
G3 X7.762 Y7.5206 I0.0625 J0
G1 X7.887 Y7.5206
G3 X7.8245 Y7.4581 I0 J-0.0625
G1 X7.8245 Y7.3081
G1 X7.8245 Y6.5341
G1 X7.8245 Y5.7081
G3 X7.887 Y5.6456 I0.0625 J0
G1 X7.762 Y5.6456
G3 X7.6995 Y5.5831 I0 J-0.0625
G1 X7.6995 Y5.2847
G1 Z-0.05 F15
G1 X7.6995 Y4.7847 F30
G1 Z-0.075 F15
G1 X7.6995 Y4.5831 F30
G3 X7.762 Y4.5206 I0.0625 J0
G1 X7.887 Y4.5206
G3 X7.8245 Y4.4581 I0 J-0.0625
G1 X7.8245 Y2.7081
G3 X7.887 Y2.6456 I0.0625 J0
G1 X7.762 Y2.6456
G3 X7.6995 Y2.5831 I0 J-0.0625
G1 X7.6995 Y1.5831
G3 X7.762 Y1.5206 I0.0625 J0
G1 X7.887 Y1.5206
G3 X7.8245 Y1.4581 I0 J-0.0625
G1 X7.8245 Y0.4831
G3 X7.887 Y0.4206 I0.0625 J0
G1 X8.2815 Y0.4206
G1 Z-0.05 F15
G1 X8.7815 Y0.4206 F30
G1 Z-0.075 F15
G1 X9.137 Y0.4206 F30
G3 X9.1995 Y0.4831 I0 J0.0625
G1 X9.1995 Y1.4581
G3 X9.137 Y1.5206 I-0.0625 J0
G1 X9.262 Y1.5206
G3 X9.3245 Y1.5831 I0 J0.0625
G1 X9.3245 Y2.5831
G3 X9.262 Y2.6456 I-0.0625 J0
G1 X9.137 Y2.6456
G3 X9.1995 Y2.7081 I0 J0.0625
G1 X9.1995 Y4.4581
G3 X9.137 Y4.5206 I-0.0625 J0
G1 X9.262 Y4.5206
G3 X9.3245 Y4.5831 I0 J0.0625
G1 X9.3245 Y4.8713
G1 Z-0.05 F15
G1 X9.3245 Y5.3713 F30
G1 Z-0.075 F15
G1 X9.3245 Y5.5831 F30
G3 X9.262 Y5.6456 I-0.0625 J0
G1 X9.1371 Y5.6456
G3 X9.1995 Y5.7081 I-0.0001 J0.0625
G1 X9.1995 Y6.5341
G1 X9.1995 Y7.3081
G1 X9.1995 Y7.4581
G3 X9.137 Y7.5206 I-0.0625 J0
G1 X9.262 Y7.5206
G3 X9.3245 Y7.5831 I0 J0.0625
G1 X9.3245 Y8.5831
G3 X9.262 Y8.6456 I-0.0625 J0
G1 X9.1371 Y8.6456
G3 X9.1995 Y8.7081 I-0.0001 J0.0625
G1 Z-0.15 F15
G1 X9.1995 Y10.4581 F30
G3 X9.137 Y10.5206 I-0.0625 J0
G1 X9.262 Y10.5206
G3 X9.3245 Y10.5831 I0 J0.0625
G1 X9.3245 Y10.7764
G1 Z-0.05 F15
G1 X9.3245 Y11.2764 F30
G1 Z-0.15 F15
G1 X9.3245 Y11.5831 F30
G3 X9.262 Y11.6456 I-0.0625 J0
G1 X9.137 Y11.6456
G3 X9.1995 Y11.7081 I0 J0.0625
G1 X9.1995 Y11.9586
G1 X9.1995 Y12.0586
G1 X9.1995 Y13.4581
G3 X9.137 Y13.5206 I-0.0625 J0
G1 X9.262 Y13.5206
G3 X9.3245 Y13.5831 I0 J0.0625
G1 X9.3245 Y14.5831
G3 X9.262 Y14.6456 I-0.0625 J0
G1 X9.137 Y14.6456
G3 X9.1995 Y14.7081 I0 J0.0625
G1 X9.1995 Y15.3592
G1 Z-0.05 F15
G1 X9.1995 Y15.8592 F30
G1 Z-0.15 F15
G1 X9.1995 Y16.4581 F30
G3 X9.137 Y16.5206 I-0.0625 J0
G1 X9.262 Y16.5206
G3 X9.3245 Y16.5831 I0 J0.0625
G1 X9.3245 Y17.5831
G3 X9.262 Y17.6456 I-0.0625 J0
G1 X9.137 Y17.6456
G3 X9.1995 Y17.7081 I0 J0.0625
G1 X9.1995 Y19.4581
G3 X9.137 Y19.5206 I-0.0625 J0
G1 X9.262 Y19.5206
G3 X9.3245 Y19.5831 I0 J0.0625
G1 X9.3245 Y20.0831
G3 X9.262 Y20.1456 I-0.0625 J0
G1 X8.7896 Y20.1456
G1 Z-0.05 F15
G1 X8.2896 Y20.1456 F30
G1 Z-0.15 F15
G1 X7.762 Y20.1456 F30
G3 X7.6995 Y20.0831 I0 J-0.0625
G1 X7.6995 Y19.5831
G3 X7.762 Y19.5206 I0.0625 J0
G1 X7.887 Y19.5206
G3 X7.8245 Y19.4581 I0 J-0.0625
G1 X7.8245 Y19.0328
G1 Z-0.05 F15
G1 X7.8245 Y18.5328 F30
G1 Z-0.15 F15
G1 X7.8245 Y17.7081 F30
G3 X7.887 Y17.6456 I0.0625 J0
G1 X7.762 Y17.6456
G3 X7.6995 Y17.5831 I0 J-0.0625
G1 X7.6995 Y16.5831
G3 X7.762 Y16.5206 I0.0625 J0
G1 X7.887 Y16.5206
G3 X7.8245 Y16.4581 I0 J-0.0625
G1 X7.8245 Y15.7721
G1 Z-0.05 F15
G1 X7.8245 Y15.2721 F30
G1 Z-0.15 F15
G1 X7.8245 Y14.7081 F30
G3 X7.887 Y14.6456 I0.0625 J0
G1 X7.762 Y14.6456
G3 X7.6995 Y14.5831 I0 J-0.0625
G1 X7.6995 Y13.5831
G3 X7.762 Y13.5206 I0.0625 J0
G1 X7.887 Y13.5206
G3 X7.8245 Y13.4581 I0 J-0.0625
G1 X7.8245 Y12.0586
G1 X7.8245 Y11.9586
G1 X7.8245 Y11.7081
G3 X7.887 Y11.6456 I0.0625 J0
G1 X7.762 Y11.6456
G3 X7.6995 Y11.5831 I0 J-0.0625
G1 X7.6995 Y11.2843
G1 Z-0.05 F15
G1 X7.6995 Y10.7843 F30
G1 Z-0.15 F15
G1 X7.6995 Y10.5831 F30
G3 X7.762 Y10.5206 I0.0625 J0
G1 X7.887 Y10.5206
G3 X7.8245 Y10.4581 I0 J-0.0625
G1 X7.8245 Y8.7081
G3 X7.887 Y8.6456 I0.0625 J0
G1 X7.762 Y8.6456
G3 X7.6995 Y8.5831 I0 J-0.0625
G1 X7.6995 Y7.5831
G3 X7.762 Y7.5206 I0.0625 J0
G1 X7.887 Y7.5206
G3 X7.8245 Y7.4581 I0 J-0.0625
G1 X7.8245 Y7.3081
G1 X7.8245 Y6.5341
G1 X7.8245 Y5.7081
G3 X7.887 Y5.6456 I0.0625 J0
G1 X7.762 Y5.6456
G3 X7.6995 Y5.5831 I0 J-0.0625
G1 X7.6995 Y5.2847
G1 Z-0.05 F15
G1 X7.6995 Y4.7847 F30
G1 Z-0.15 F15
G1 X7.6995 Y4.5831 F30
G3 X7.762 Y4.5206 I0.0625 J0
G1 X7.887 Y4.5206
G3 X7.8245 Y4.4581 I0 J-0.0625
G1 X7.8245 Y2.7081
G3 X7.887 Y2.6456 I0.0625 J0
G1 X7.762 Y2.6456
G3 X7.6995 Y2.5831 I0 J-0.0625
G1 X7.6995 Y1.5831
G3 X7.762 Y1.5206 I0.0625 J0
G1 X7.887 Y1.5206
G3 X7.8245 Y1.4581 I0 J-0.0625
G1 X7.8245 Y0.4831
G3 X7.887 Y0.4206 I0.0625 J0
G1 X8.2815 Y0.4206
G1 Z-0.05 F15
G1 X8.7815 Y0.4206 F30
G1 Z-0.15 F15
G1 X9.137 Y0.4206 F30
G3 X9.1995 Y0.4831 I0 J0.0625
G1 X9.1995 Y1.4581
G3 X9.137 Y1.5206 I-0.0625 J0
G1 X9.262 Y1.5206
G3 X9.3245 Y1.5831 I0 J0.0625
G1 X9.3245 Y2.5831
G3 X9.262 Y2.6456 I-0.0625 J0
G1 X9.137 Y2.6456
G3 X9.1995 Y2.7081 I0 J0.0625
G1 X9.1995 Y4.4581
G3 X9.137 Y4.5206 I-0.0625 J0
G1 X9.262 Y4.5206
G3 X9.3245 Y4.5831 I0 J0.0625
G1 X9.3245 Y4.8713
G1 Z-0.05 F15
G1 X9.3245 Y5.3713 F30
G1 Z-0.15 F15
G1 X9.3245 Y5.5831 F30
G3 X9.262 Y5.6456 I-0.0625 J0
G1 X9.1371 Y5.6456
G3 X9.1995 Y5.7081 I-0.0001 J0.0625
G1 X9.1995 Y6.5341
G1 X9.1995 Y7.3081
G1 X9.1995 Y7.4581
G3 X9.137 Y7.5206 I-0.0625 J0
G1 X9.262 Y7.5206
G3 X9.3245 Y7.5831 I0 J0.0625
G1 X9.3245 Y8.5831
G3 X9.262 Y8.6456 I-0.0625 J0
G1 X9.1371 Y8.6456
G3 X9.1995 Y8.7081 I-0.0001 J0.0625
G0 Z0.5
M5
M30
