(Generated by PartKam Version 0.05)

G20 G90 G40

(Rectangle)
G0 Z0.5
T0 M6
G17
M3
G0 X4.5784 Y8.6761
G1 Z-0.075 F15
G1 X4.5784 Y6.8011 F30
G1 X4.7034 Y6.8011
G1 X4.7034 Y8.6761
G1 X4.5784 Y8.6761
G1 Z-0.15 F15
G1 X4.5784 Y6.8011 F30
G1 X4.7034 Y6.8011
G1 X4.7034 Y8.6761
G1 X4.5784 Y8.6761
G0 Z0.5
G0 X1.634 Y8.6761
G1 Z-0.075 F15
G1 X1.634 Y6.8011 F30
G1 X1.759 Y6.8011
G1 X1.759 Y8.6761
G1 X1.634 Y8.6761
G1 Z-0.15 F15
G1 X1.634 Y6.8011 F30
G1 X1.759 Y6.8011
G1 X1.759 Y8.6761
G1 X1.634 Y8.6761

(Circle)
G0 Z0.5
G0 X3.687 Y0.9546
G1 Z-0.075 F15
G1 X5.6192 Y3.4718 F30
G3 X5.6321 Y3.5098 I-0.0496 J0.0381
G1 X5.6321 Y3.5951
G1 X5.6321 Y4.5951
G1 X5.6321 Y5.2451
G1 X5.6321 Y5.2475
G1 Z-0.05 F15
G1 X5.6321 Y5.4975 F30
G1 Z-0.075 F15
G1 X5.6321 Y6.2451 F30
G1 X5.6321 Y6.9951
G1 X5.6321 Y7.9951
G1 X5.6321 Y8.7431
G3 X5.5696 Y8.8056 I-0.0625 J0
G1 X4.1721 Y8.8056
G1 X3.4721 Y8.8056
G1 X3.348 Y8.8056
G1 Z-0.05 F15
G1 X3.098 Y8.8056 F30
G1 Z-0.075 F15
G1 X2.8721 Y8.8056 F30
G1 X2.1721 Y8.8056
G1 X0.7746 Y8.8056
G3 X0.7121 Y8.7431 I0 J-0.0625
G1 X0.7121 Y7.9951
G1 X0.7121 Y6.9951
G1 X0.7121 Y6.2451
G1 X0.7121 Y5.4147
G1 Z-0.05 F15
G1 X0.7121 Y5.2451 F30
G1 X0.7121 Y5.1647
G1 Z-0.075 F15
G1 X0.7121 Y4.5951 F30
G1 X0.7121 Y3.5951
G1 X0.7121 Y3.5098
G3 X0.725 Y3.4718 I0.0625 J0
G1 X2.6571 Y0.9548
G3 X2.7995 Y0.8177 I0.515 J0.3925
G3 X2.9767 Y0.7299 I0.3726 J0.5296
G3 X3.0888 Y0.7051 I0.1954 J0.6173
G1 Z-0.05 F15
G3 X3.1721 Y0.6997 I0.0834 J0.6421 F30
G3 X3.3367 Y0.721 I0 J0.6475
G1 Z-0.075 F15
G3 X3.3675 Y0.7299 I-0.1646 J0.6262 F30
G3 X3.5447 Y0.8177 I-0.1954 J0.6173
G3 X3.687 Y0.9546 I-0.3726 J0.5296
G1 Z-0.15 F15
G1 X5.6192 Y3.4718 F30
G3 X5.6321 Y3.5098 I-0.0496 J0.0381
G1 X5.6321 Y3.5951
G1 X5.6321 Y4.5951
G1 X5.6321 Y5.2451
G1 X5.6321 Y5.2475
G1 Z-0.05 F15
G1 X5.6321 Y5.4975 F30
G1 Z-0.15 F15
G1 X5.6321 Y6.2451 F30
G1 X5.6321 Y6.9951
G1 X5.6321 Y7.9951
G1 X5.6321 Y8.7431
G3 X5.5696 Y8.8056 I-0.0625 J0
G1 X4.1721 Y8.8056
G1 X3.4721 Y8.8056
G1 X3.348 Y8.8056
G1 Z-0.05 F15
G1 X3.098 Y8.8056 F30
G1 Z-0.15 F15
G1 X2.8721 Y8.8056 F30
G1 X2.1721 Y8.8056
G1 X0.7746 Y8.8056
G3 X0.7121 Y8.7431 I0 J-0.0625
G1 X0.7121 Y7.9951
G1 X0.7121 Y6.9951
G1 X0.7121 Y6.2451
G1 X0.7121 Y5.4147
G1 Z-0.05 F15
G1 X0.7121 Y5.2451 F30
G1 X0.7121 Y5.1647
G1 Z-0.15 F15
G1 X0.7121 Y4.5951 F30
G1 X0.7121 Y3.5951
G1 X0.7121 Y3.5098
G3 X0.725 Y3.4718 I0.0625 J0
G1 X2.6571 Y0.9548
G3 X2.7995 Y0.8177 I0.515 J0.3925
G3 X2.9767 Y0.7299 I0.3726 J0.5296
G3 X3.0888 Y0.7051 I0.1954 J0.6173
G1 Z-0.05 F15
G3 X3.1721 Y0.6997 I0.0834 J0.6421 F30
G3 X3.3367 Y0.721 I0 J0.6475
G1 Z-0.15 F15
G3 X3.3675 Y0.7299 I-0.1646 J0.6262 F30
G3 X3.5447 Y0.8177 I-0.1954 J0.6173
G3 X3.687 Y0.9546 I-0.3726 J0.5296

(Circles)
G0 Z0.5
G0 X1.7955 Y7.3938
G1 Z-0.075 F15
G3 X1.8259 Y7.4394 I-0.0993 J0.0993 F30
G3 X1.8366 Y7.4931 I-0.1298 J0.0538
G3 X1.8259 Y7.5469 I-0.1405 J0
G3 X1.7955 Y7.5925 I-0.1298 J-0.0538
G3 X1.7499 Y7.6229 I-0.0993 J-0.0993
G3 X1.6961 Y7.6336 I-0.0538 J-0.1298
G3 X1.6423 Y7.6229 I0 J-0.1405
G3 X1.5968 Y7.5925 I0.0538 J-0.1298
G3 X1.5663 Y7.5469 I0.0993 J-0.0993
G3 X1.5556 Y7.4931 I0.1298 J-0.0538
G3 X1.5663 Y7.4394 I0.1405 J0
G3 X1.5968 Y7.3938 I0.1298 J0.0538
G3 X1.6423 Y7.3633 I0.0993 J0.0993
G3 X1.6961 Y7.3526 I0.0538 J0.1298
G3 X1.7499 Y7.3633 I0 J0.1405
G3 X1.7955 Y7.3938 I-0.0538 J0.1298
G1 Z-0.15 F15
G3 X1.8259 Y7.4394 I-0.0993 J0.0993 F30
G3 X1.8366 Y7.4931 I-0.1298 J0.0538
G3 X1.8259 Y7.5469 I-0.1405 J0
G3 X1.7955 Y7.5925 I-0.1298 J-0.0538
G3 X1.7499 Y7.6229 I-0.0993 J-0.0993
G3 X1.6961 Y7.6336 I-0.0538 J-0.1298
G3 X1.6423 Y7.6229 I0 J-0.1405
G3 X1.5968 Y7.5925 I0.0538 J-0.1298
G3 X1.5663 Y7.5469 I0.0993 J-0.0993
G3 X1.5556 Y7.4931 I0.1298 J-0.0538
G3 X1.5663 Y7.4394 I0.1405 J0
G3 X1.5968 Y7.3938 I0.1298 J0.0538
G3 X1.6423 Y7.3633 I0.0993 J0.0993
G3 X1.6961 Y7.3526 I0.0538 J0.1298
G3 X1.7499 Y7.3633 I0 J0.1405
G3 X1.7955 Y7.3938 I-0.0538 J0.1298
G0 Z0.5
G0 X4.5943 Y7.6229
G1 Z-0.075 F15
G3 X4.5488 Y7.5925 I0.0538 J-0.1298 F30
G3 X4.5183 Y7.5469 I0.0993 J-0.0993
G3 X4.5076 Y7.4931 I0.1298 J-0.0538
G3 X4.5183 Y7.4394 I0.1405 J0
G3 X4.5488 Y7.3938 I0.1298 J0.0538
G3 X4.5943 Y7.3633 I0.0993 J0.0993
G3 X4.6481 Y7.3526 I0.0538 J0.1298
G3 X4.7019 Y7.3633 I0 J0.1405
G3 X4.7475 Y7.3938 I-0.0538 J0.1298
G3 X4.7779 Y7.4394 I-0.0993 J0.0993
G3 X4.7886 Y7.4931 I-0.1298 J0.0538
G3 X4.7779 Y7.5469 I-0.1405 J0
G3 X4.7475 Y7.5925 I-0.1298 J-0.0538
G3 X4.7019 Y7.6229 I-0.0993 J-0.0993
G3 X4.6481 Y7.6336 I-0.0538 J-0.1298
G3 X4.5943 Y7.6229 I0 J-0.1405
G1 Z-0.15 F15
G3 X4.5488 Y7.5925 I0.0538 J-0.1298 F30
G3 X4.5183 Y7.5469 I0.0993 J-0.0993
G3 X4.5076 Y7.4931 I0.1298 J-0.0538
G3 X4.5183 Y7.4394 I0.1405 J0
G3 X4.5488 Y7.3938 I0.1298 J0.0538
G3 X4.5943 Y7.3633 I0.0993 J0.0993
G3 X4.6481 Y7.3526 I0.0538 J0.1298
G3 X4.7019 Y7.3633 I0 J0.1405
G3 X4.7475 Y7.3938 I-0.0538 J0.1298
G3 X4.7779 Y7.4394 I-0.0993 J0.0993
G3 X4.7886 Y7.4931 I-0.1298 J0.0538
G3 X4.7779 Y7.5469 I-0.1405 J0
G3 X4.7475 Y7.5925 I-0.1298 J-0.0538
G3 X4.7019 Y7.6229 I-0.0993 J-0.0993
G3 X4.6481 Y7.6336 I-0.0538 J-0.1298
G3 X4.5943 Y7.6229 I0 J-0.1405

(Bottom Circle)
G0 Z0.5
G0 X3.0837 Y1.4355
G1 Z-0.075 F15
G3 X3.0566 Y1.395 I0.0884 J-0.0884 F30
G3 X3.0471 Y1.3471 I0.1155 J-0.0478
G3 X3.0566 Y1.2993 I0.125 J0
G3 X3.0837 Y1.2587 I0.1155 J0.0478
G3 X3.1243 Y1.2316 I0.0884 J0.0884
G3 X3.1721 Y1.2221 I0.0478 J0.1155
G3 X3.22 Y1.2316 I0 J0.125
G3 X3.2605 Y1.2587 I-0.0478 J0.1155
G3 X3.2876 Y1.2993 I-0.0884 J0.0884
G3 X3.2971 Y1.3471 I-0.1155 J0.0478
G3 X3.2876 Y1.395 I-0.125 J0
G3 X3.2605 Y1.4355 I-0.1155 J-0.0478
G3 X3.22 Y1.4626 I-0.0884 J-0.0884
G3 X3.1721 Y1.4721 I-0.0478 J-0.1155
G3 X3.1243 Y1.4626 I0 J-0.125
G3 X3.0837 Y1.4355 I0.0478 J-0.1155
G1 Z-0.15 F15
G3 X3.0566 Y1.395 I0.0884 J-0.0884 F30
G3 X3.0471 Y1.3471 I0.1155 J-0.0478
G3 X3.0566 Y1.2993 I0.125 J0
G3 X3.0837 Y1.2587 I0.1155 J0.0478
G3 X3.1243 Y1.2316 I0.0884 J0.0884
G3 X3.1721 Y1.2221 I0.0478 J0.1155
G3 X3.22 Y1.2316 I0 J0.125
G3 X3.2605 Y1.2587 I-0.0478 J0.1155
G3 X3.2876 Y1.2993 I-0.0884 J0.0884
G3 X3.2971 Y1.3471 I-0.1155 J0.0478
G3 X3.2876 Y1.395 I-0.125 J0
G3 X3.2605 Y1.4355 I-0.1155 J-0.0478
G3 X3.22 Y1.4626 I-0.0884 J-0.0884
G3 X3.1721 Y1.4721 I-0.0478 J-0.1155
G3 X3.1243 Y1.4626 I0 J-0.125
G3 X3.0837 Y1.4355 I0.0478 J-0.1155
G0 Z0.5
M5
M30
