(Generated by PartKam Version 0.05)

G20 G90 G40

(Lines 1)
G0 Z0.5
T0 M6
G17
M3
G0 X3.0573 Y7.8996
G1 Z-0.075 F15
G1 X3.0573 Y6.8996 F30
G0 Z0.5
G0 X3.0573 Y7.8996
G1 Z-0.15 F15
G1 X3.0573 Y6.8996 F30
G0 Z0.5
G0 X1.8573 Y7.8996
G1 Z-0.075 F15
G1 X1.8573 Y6.8996 F30
G0 Z0.5
G0 X1.8573 Y7.8996
G1 Z-0.15 F15
G1 X1.8573 Y6.8996 F30
G0 Z0.5
G0 X4.2573 Y7.8996
G1 Z-0.075 F15
G1 X4.2573 Y6.8996 F30
G1 X4.2573 Y7.8718
G0 Z0.5
G0 X4.2573 Y7.8996
G1 Z-0.15 F15
G1 X4.2573 Y6.8996 F30
G1 X4.2573 Y7.8718
G0 Z0.5
G0 X4.2573 Y6.1496
G1 Z-0.075 F15
G1 X4.2573 Y5.1496 F30
G0 Z0.5
G0 X4.2573 Y6.1496
G1 Z-0.15 F15
G1 X4.2573 Y5.1496 F30
G0 Z0.5
G0 X3.0573 Y6.1496
G1 Z-0.075 F15
G1 X3.0573 Y5.1496 F30
G0 Z0.5
G0 X3.0573 Y6.1496
G1 Z-0.15 F15
G1 X3.0573 Y5.1496 F30
G0 Z0.5
G0 X1.8573 Y6.1496
G1 Z-0.075 F15
G1 X1.8573 Y5.1496 F30
G0 Z0.5
G0 X1.8573 Y6.1496
G1 Z-0.15 F15
G1 X1.8573 Y5.1496 F30
G0 Z0.5
G0 X1.8573 Y4.4996
G1 Z-0.075 F15
G1 X1.8573 Y3.4996 F30
G0 Z0.5
G0 X1.8573 Y4.4996
G1 Z-0.15 F15
G1 X1.8573 Y3.4996 F30
G0 Z0.5
G0 X3.0573 Y4.4996
G1 Z-0.075 F15
G1 X3.0573 Y3.4996 F30
G0 Z0.5
G0 X3.0573 Y4.4996
G1 Z-0.15 F15
G1 X3.0573 Y3.4996 F30
G0 Z0.5
G0 X4.2573 Y4.4996
G1 Z-0.075 F15
G1 X4.2573 Y3.4996 F30
G0 Z0.5
G0 X4.2573 Y4.4996
G1 Z-0.15 F15
G1 X4.2573 Y3.4996 F30
G0 Z0.5
G0 X2.0573 Y8.5851
G1 Z-0.075 F15
G1 X2.7573 Y8.5851 F30
G0 Z0.5
G0 X2.0573 Y8.5851
G1 Z-0.15 F15
G1 X2.7573 Y8.5851 F30
G0 Z0.5
G0 X3.3573 Y8.5851
G1 Z-0.075 F15
G1 X4.0573 Y8.5851 F30
G0 Z0.5
G0 X3.3573 Y8.5851
G1 Z-0.15 F15
G1 X4.0573 Y8.5851 F30

(Lines 2)
G0 Z0.5
G0 X5.3923 Y7.8996
G1 Z-0.075 F15
G1 X5.3923 Y6.8996 F30
G0 Z0.5
G0 X5.3923 Y7.8996
G1 Z-0.15 F15
G1 X5.3923 Y6.8996 F30
G0 Z0.5
G0 X5.3923 Y6.1496
G1 Z-0.075 F15
G1 X5.3923 Y5.1496 F30
G0 Z0.5
G0 X5.3923 Y6.1496
G1 Z-0.15 F15
G1 X5.3923 Y5.1496 F30
G0 Z0.5
G0 X5.3923 Y4.4996
G1 Z-0.075 F15
G1 X5.3923 Y3.4996 F30
G0 Z0.5
G0 X5.3923 Y4.4996
G1 Z-0.15 F15
G1 X5.3923 Y3.4996 F30

(Lines 3)
G0 Z0.5
G0 X0.7223 Y6.1496
G1 Z-0.075 F15
G1 X0.7223 Y5.1496 F30
G0 Z0.5
G0 X0.7223 Y6.1496
G1 Z-0.15 F15
G1 X0.7223 Y5.1496 F30
G0 Z0.5
G0 X0.7223 Y7.8996
G1 Z-0.075 F15
G1 X0.7223 Y6.8996 F30
G0 Z0.5
G0 X0.7223 Y7.8996
G1 Z-0.15 F15
G1 X0.7223 Y6.8996 F30
G0 Z0.5
G0 X0.7223 Y4.4996
G1 Z-0.075 F15
G1 X0.7223 Y3.4996 F30
G0 Z0.5
G0 X0.7223 Y4.4996
G1 Z-0.15 F15
G1 X0.7223 Y3.4996 F30

(Circles)
G0 Z0.5
G0 X4.5333 Y7.2571
G1 Z-0.075 F15
G3 X4.5871 Y7.2678 I0 J0.1405 F30
G3 X4.6327 Y7.2983 I-0.0538 J0.1298
G3 X4.6631 Y7.3439 I-0.0993 J0.0993
G3 X4.6738 Y7.3976 I-0.1298 J0.0538
G3 X4.6631 Y7.4514 I-0.1405 J0
G3 X4.6327 Y7.497 I-0.1298 J-0.0538
G3 X4.5871 Y7.5274 I-0.0993 J-0.0993
G3 X4.5333 Y7.5381 I-0.0538 J-0.1298
G3 X4.4796 Y7.5274 I0 J-0.1405
G3 X4.434 Y7.497 I0.0538 J-0.1298
G3 X4.4035 Y7.4514 I0.0993 J-0.0993
G3 X4.3928 Y7.3976 I0.1298 J-0.0538
G3 X4.4035 Y7.3439 I0.1405 J0
G3 X4.434 Y7.2983 I0.1298 J0.0538
G3 X4.4796 Y7.2678 I0.0993 J0.0993
G3 X4.5333 Y7.2571 I0.0538 J0.1298
G1 Z-0.15 F15
G3 X4.5871 Y7.2678 I0 J0.1405 F30
G3 X4.6327 Y7.2983 I-0.0538 J0.1298
G3 X4.6631 Y7.3439 I-0.0993 J0.0993
G3 X4.6738 Y7.3976 I-0.1298 J0.0538
G3 X4.6631 Y7.4514 I-0.1405 J0
G3 X4.6327 Y7.497 I-0.1298 J-0.0538
G3 X4.5871 Y7.5274 I-0.0993 J-0.0993
G3 X4.5333 Y7.5381 I-0.0538 J-0.1298
G3 X4.4796 Y7.5274 I0 J-0.1405
G3 X4.434 Y7.497 I0.0538 J-0.1298
G3 X4.4035 Y7.4514 I0.0993 J-0.0993
G3 X4.3928 Y7.3976 I0.1298 J-0.0538
G3 X4.4035 Y7.3439 I0.1405 J0
G3 X4.434 Y7.2983 I0.1298 J0.0538
G3 X4.4796 Y7.2678 I0.0993 J0.0993
G3 X4.5333 Y7.2571 I0.0538 J0.1298
G0 Z0.5
G0 X1.6351 Y7.2678
G1 Z-0.075 F15
G3 X1.6807 Y7.2983 I-0.0538 J0.1298 F30
G3 X1.7111 Y7.3439 I-0.0993 J0.0993
G3 X1.7218 Y7.3976 I-0.1298 J0.0538
G3 X1.7111 Y7.4514 I-0.1405 J0
G3 X1.6807 Y7.497 I-0.1298 J-0.0538
G3 X1.6351 Y7.5274 I-0.0993 J-0.0993
G3 X1.5813 Y7.5381 I-0.0538 J-0.1298
G3 X1.5276 Y7.5274 I0 J-0.1405
G3 X1.482 Y7.497 I0.0538 J-0.1298
G3 X1.4515 Y7.4514 I0.0993 J-0.0993
G3 X1.4408 Y7.3976 I0.1298 J-0.0538
G3 X1.4515 Y7.3439 I0.1405 J0
G3 X1.482 Y7.2983 I0.1298 J0.0538
G3 X1.5276 Y7.2678 I0.0993 J0.0993
G3 X1.5813 Y7.2571 I0.0538 J0.1298
G3 X1.6351 Y7.2678 I0 J0.1405
G1 Z-0.15 F15
G3 X1.6807 Y7.2983 I-0.0538 J0.1298 F30
G3 X1.7111 Y7.3439 I-0.0993 J0.0993
G3 X1.7218 Y7.3976 I-0.1298 J0.0538
G3 X1.7111 Y7.4514 I-0.1405 J0
G3 X1.6807 Y7.497 I-0.1298 J-0.0538
G3 X1.6351 Y7.5274 I-0.0993 J-0.0993
G3 X1.5813 Y7.5381 I-0.0538 J-0.1298
G3 X1.5276 Y7.5274 I0 J-0.1405
G3 X1.482 Y7.497 I0.0538 J-0.1298
G3 X1.4515 Y7.4514 I0.0993 J-0.0993
G3 X1.4408 Y7.3976 I0.1298 J-0.0538
G3 X1.4515 Y7.3439 I0.1405 J0
G3 X1.482 Y7.2983 I0.1298 J0.0538
G3 X1.5276 Y7.2678 I0.0993 J0.0993
G3 X1.5813 Y7.2571 I0.0538 J0.1298
G3 X1.6351 Y7.2678 I0 J0.1405
G0 Z0.5
G0 X2.9689 Y1.1633
G1 Z-0.075 F15
G3 X3.0095 Y1.1362 I0.0884 J0.0884 F30
G3 X3.0573 Y1.1266 I0.0478 J0.1155
G3 X3.1052 Y1.1362 I0 J0.125
G3 X3.1457 Y1.1633 I-0.0478 J0.1155
G3 X3.1728 Y1.2038 I-0.0884 J0.0884
G3 X3.1823 Y1.2516 I-0.1155 J0.0478
G3 X3.1728 Y1.2995 I-0.125 J0
G3 X3.1457 Y1.34 I-0.1155 J-0.0478
G3 X3.1052 Y1.3671 I-0.0884 J-0.0884
G3 X3.0573 Y1.3766 I-0.0478 J-0.1155
G3 X3.0095 Y1.3671 I0 J-0.125
G3 X2.9689 Y1.34 I0.0478 J-0.1155
G3 X2.9419 Y1.2995 I0.0884 J-0.0884
G3 X2.9323 Y1.2516 I0.1155 J-0.0478
G3 X2.9419 Y1.2038 I0.125 J0
G3 X2.9689 Y1.1633 I0.1155 J0.0478
G1 Z-0.15 F15
G3 X3.0095 Y1.1362 I0.0884 J0.0884 F30
G3 X3.0573 Y1.1266 I0.0478 J0.1155
G3 X3.1052 Y1.1362 I0 J0.125
G3 X3.1457 Y1.1633 I-0.0478 J0.1155
G3 X3.1728 Y1.2038 I-0.0884 J0.0884
G3 X3.1823 Y1.2516 I-0.1155 J0.0478
G3 X3.1728 Y1.2995 I-0.125 J0
G3 X3.1457 Y1.34 I-0.1155 J-0.0478
G3 X3.1052 Y1.3671 I-0.0884 J-0.0884
G3 X3.0573 Y1.3766 I-0.0478 J-0.1155
G3 X3.0095 Y1.3671 I0 J-0.125
G3 X2.9689 Y1.34 I0.0478 J-0.1155
G3 X2.9419 Y1.2995 I0.0884 J-0.0884
G3 X2.9323 Y1.2516 I0.1155 J-0.0478
G3 X2.9419 Y1.2038 I0.125 J0
G3 X2.9689 Y1.1633 I0.1155 J0.0478

(Outside)
G0 Z0.5
G0 X3.5722 Y0.8591
G1 Z-0.075 F15
G1 X5.5044 Y3.3763 F30
G3 X5.5173 Y3.4143 I-0.0496 J0.0381
G1 X5.5173 Y3.4996
G1 X5.5173 Y4.4996
G1 X5.5173 Y5.1496
G1 X5.5173 Y5.1751
G1 Z-0.05 F15
G1 X5.5173 Y5.4251 F30
G1 Z-0.075 F15
G1 X5.5173 Y6.1496 F30
G1 X5.5173 Y6.8996
G1 X5.5173 Y7.8996
G1 X5.5173 Y8.6476
G3 X5.4548 Y8.7101 I-0.0625 J0
G1 X4.0573 Y8.7101
G1 X3.3573 Y8.7101
G1 X3.2332 Y8.7101
G1 Z-0.05 F15
G1 X2.9832 Y8.7101 F30
G1 Z-0.075 F15
G1 X2.7573 Y8.7101 F30
G1 X2.0573 Y8.7101
G1 X0.6598 Y8.7101
G3 X0.5973 Y8.6476 I0 J-0.0625
G1 X0.5973 Y7.8996
G1 X0.5973 Y6.8996
G1 X0.5973 Y6.1496
G1 X0.5973 Y5.4577
G1 Z-0.05 F15
G1 X0.5973 Y5.2077 F30
G1 Z-0.075 F15
G1 X0.5973 Y5.1496 F30
G1 X0.5973 Y4.4996
G1 X0.5973 Y3.4996
G1 X0.5973 Y3.4143
G3 X0.6103 Y3.3763 I0.0625 J0
G1 X2.5423 Y0.8593
G3 X2.6848 Y0.7222 I0.515 J0.3925
G3 X2.8619 Y0.6344 I0.3726 J0.5296
G3 X2.9511 Y0.613 I0.1954 J0.6173
G1 Z-0.05 F15
G3 X3.0573 Y0.6043 I0.1062 J0.6387 F30
G3 X3.1995 Y0.6201 I0 J0.6475
G1 Z-0.075 F15
G3 X3.2527 Y0.6344 I-0.1422 J0.6317 F30
G3 X3.4299 Y0.7222 I-0.1954 J0.6173
G3 X3.5722 Y0.8591 I-0.3726 J0.5296
G1 Z-0.15 F15
G1 X5.5044 Y3.3763 F30
G3 X5.5173 Y3.4143 I-0.0496 J0.0381
G1 X5.5173 Y3.4996
G1 X5.5173 Y4.4996
G1 X5.5173 Y5.1496
G1 X5.5173 Y5.1751
G1 Z-0.05 F15
G1 X5.5173 Y5.4251 F30
G1 Z-0.15 F15
G1 X5.5173 Y6.1496 F30
G1 X5.5173 Y6.8996
G1 X5.5173 Y7.8996
G1 X5.5173 Y8.6476
G3 X5.4548 Y8.7101 I-0.0625 J0
G1 X4.0573 Y8.7101
G1 X3.3573 Y8.7101
G1 X3.2332 Y8.7101
G1 Z-0.05 F15
G1 X2.9832 Y8.7101 F30
G1 Z-0.15 F15
G1 X2.7573 Y8.7101 F30
G1 X2.0573 Y8.7101
G1 X0.6598 Y8.7101
G3 X0.5973 Y8.6476 I0 J-0.0625
G1 X0.5973 Y7.8996
G1 X0.5973 Y6.8996
G1 X0.5973 Y6.1496
G1 X0.5973 Y5.4577
G1 Z-0.05 F15
G1 X0.5973 Y5.2077 F30
G1 Z-0.15 F15
G1 X0.5973 Y5.1496 F30
G1 X0.5973 Y4.4996
G1 X0.5973 Y3.4996
G1 X0.5973 Y3.4143
G3 X0.6103 Y3.3763 I0.0625 J0
G1 X2.5423 Y0.8593
G3 X2.6848 Y0.7222 I0.515 J0.3925
G3 X2.8619 Y0.6344 I0.3726 J0.5296
G3 X2.9511 Y0.613 I0.1954 J0.6173
G1 Z-0.05 F15
G3 X3.0573 Y0.6043 I0.1062 J0.6387 F30
G3 X3.1995 Y0.6201 I0 J0.6475
G1 Z-0.15 F15
G3 X3.2527 Y0.6344 I-0.1422 J0.6317 F30
G3 X3.4299 Y0.7222 I-0.1954 J0.6173
G3 X3.5722 Y0.8591 I-0.3726 J0.5296
G0 Z0.5
M5
M30
