(Generated by PartKam Version 0.05)

G20 G90 G40

(Circles)
G0 Z0.5
T0 M6
G17
M3
G0 X1.4507 Y6.8077
G1 Z-0.075 F15
G3 X1.4812 Y6.8533 I-0.0993 J0.0993 F30
G3 X1.4919 Y6.9071 I-0.1298 J0.0538
G3 X1.4812 Y6.9608 I-0.1405 J0
G3 X1.4507 Y7.0064 I-0.1298 J-0.0538
G3 X1.4051 Y7.0369 I-0.0993 J-0.0993
G3 X1.3514 Y7.0476 I-0.0538 J-0.1298
G3 X1.2976 Y7.0369 I0 J-0.1405
G3 X1.252 Y7.0064 I0.0538 J-0.1298
G3 X1.2216 Y6.9608 I0.0993 J-0.0993
G3 X1.2109 Y6.9071 I0.1298 J-0.0538
G3 X1.2216 Y6.8533 I0.1405 J0
G3 X1.252 Y6.8077 I0.1298 J0.0538
G3 X1.2976 Y6.7773 I0.0993 J0.0993
G3 X1.3514 Y6.7666 I0.0538 J0.1298
G3 X1.4051 Y6.7773 I0 J0.1405
G3 X1.4507 Y6.8077 I-0.0538 J0.1298
G1 Z-0.15 F15
G3 X1.4812 Y6.8533 I-0.0993 J0.0993 F30
G3 X1.4919 Y6.9071 I-0.1298 J0.0538
G3 X1.4812 Y6.9608 I-0.1405 J0
G3 X1.4507 Y7.0064 I-0.1298 J-0.0538
G3 X1.4051 Y7.0369 I-0.0993 J-0.0993
G3 X1.3514 Y7.0476 I-0.0538 J-0.1298
G3 X1.2976 Y7.0369 I0 J-0.1405
G3 X1.252 Y7.0064 I0.0538 J-0.1298
G3 X1.2216 Y6.9608 I0.0993 J-0.0993
G3 X1.2109 Y6.9071 I0.1298 J-0.0538
G3 X1.2216 Y6.8533 I0.1405 J0
G3 X1.252 Y6.8077 I0.1298 J0.0538
G3 X1.2976 Y6.7773 I0.0993 J0.0993
G3 X1.3514 Y6.7666 I0.0538 J0.1298
G3 X1.4051 Y6.7773 I0 J0.1405
G3 X1.4507 Y6.8077 I-0.0538 J0.1298
G0 Z0.5
G0 X4.2496 Y7.0369
G1 Z-0.075 F15
G3 X4.204 Y7.0064 I0.0538 J-0.1298 F30
G3 X4.1736 Y6.9608 I0.0993 J-0.0993
G3 X4.1629 Y6.9071 I0.1298 J-0.0538
G3 X4.1736 Y6.8533 I0.1405 J0
G3 X4.204 Y6.8077 I0.1298 J0.0538
G3 X4.2496 Y6.7773 I0.0993 J0.0993
G3 X4.3034 Y6.7666 I0.0538 J0.1298
G3 X4.3571 Y6.7773 I0 J0.1405
G3 X4.4027 Y6.8077 I-0.0538 J0.1298
G3 X4.4332 Y6.8533 I-0.0993 J0.0993
G3 X4.4439 Y6.9071 I-0.1298 J0.0538
G3 X4.4332 Y6.9608 I-0.1405 J0
G3 X4.4027 Y7.0064 I-0.1298 J-0.0538
G3 X4.3571 Y7.0369 I-0.0993 J-0.0993
G3 X4.3034 Y7.0476 I-0.0538 J-0.1298
G3 X4.2496 Y7.0369 I0 J-0.1405
G1 Z-0.15 F15
G3 X4.204 Y7.0064 I0.0538 J-0.1298 F30
G3 X4.1736 Y6.9608 I0.0993 J-0.0993
G3 X4.1629 Y6.9071 I0.1298 J-0.0538
G3 X4.1736 Y6.8533 I0.1405 J0
G3 X4.204 Y6.8077 I0.1298 J0.0538
G3 X4.2496 Y6.7773 I0.0993 J0.0993
G3 X4.3034 Y6.7666 I0.0538 J0.1298
G3 X4.3571 Y6.7773 I0 J0.1405
G3 X4.4027 Y6.8077 I-0.0538 J0.1298
G3 X4.4332 Y6.8533 I-0.0993 J0.0993
G3 X4.4439 Y6.9071 I-0.1298 J0.0538
G3 X4.4332 Y6.9608 I-0.1405 J0
G3 X4.4027 Y7.0064 I-0.1298 J-0.0538
G3 X4.3571 Y7.0369 I-0.0993 J-0.0993
G3 X4.3034 Y7.0476 I-0.0538 J-0.1298
G3 X4.2496 Y7.0369 I0 J-0.1405
G0 Z0.5
G0 X2.739 Y0.8495
G1 Z-0.075 F15
G3 X2.7119 Y0.8089 I0.0884 J-0.0884 F30
G3 X2.7024 Y0.7611 I0.1155 J-0.0478
G3 X2.7119 Y0.7132 I0.125 J0
G3 X2.739 Y0.6727 I0.1155 J0.0478
G3 X2.7795 Y0.6456 I0.0884 J0.0884
G3 X2.8274 Y0.6361 I0.0478 J0.1155
G3 X2.8752 Y0.6456 I0 J0.125
G3 X2.9158 Y0.6727 I-0.0478 J0.1155
G3 X2.9429 Y0.7132 I-0.0884 J0.0884
G3 X2.9524 Y0.7611 I-0.1155 J0.0478
G3 X2.9429 Y0.8089 I-0.125 J0
G3 X2.9158 Y0.8495 I-0.1155 J-0.0478
G3 X2.8752 Y0.8766 I-0.0884 J-0.0884
G3 X2.8274 Y0.8861 I-0.0478 J-0.1155
G3 X2.7795 Y0.8766 I0 J-0.125
G3 X2.739 Y0.8495 I0.0478 J-0.1155
G1 Z-0.15 F15
G3 X2.7119 Y0.8089 I0.0884 J-0.0884 F30
G3 X2.7024 Y0.7611 I0.1155 J-0.0478
G3 X2.7119 Y0.7132 I0.125 J0
G3 X2.739 Y0.6727 I0.1155 J0.0478
G3 X2.7795 Y0.6456 I0.0884 J0.0884
G3 X2.8274 Y0.6361 I0.0478 J0.1155
G3 X2.8752 Y0.6456 I0 J0.125
G3 X2.9158 Y0.6727 I-0.0478 J0.1155
G3 X2.9429 Y0.7132 I-0.0884 J0.0884
G3 X2.9524 Y0.7611 I-0.1155 J0.0478
G3 X2.9429 Y0.8089 I-0.125 J0
G3 X2.9158 Y0.8495 I-0.1155 J-0.0478
G3 X2.8752 Y0.8766 I-0.0884 J-0.0884
G3 X2.8274 Y0.8861 I-0.0478 J-0.1155
G3 X2.7795 Y0.8766 I0 J-0.125
G3 X2.739 Y0.8495 I0.0478 J-0.1155

(Outer Edge)
G0 Z0.5
G0 X3.3423 Y0.3686
G1 Z-0.075 F15
G1 X3.8083 Y0.9757 F30
G1 Z-0.05 F15
G1 X4.1128 Y1.3723 F30
G1 Z-0.075 F15
G1 X5.2745 Y2.8857 F30
G3 X5.2874 Y2.9238 I-0.0496 J0.0381
G1 X5.2874 Y3.0091
G1 X5.2874 Y4.0091
G1 X5.2874 Y4.6591
G1 X5.2874 Y4.7903
G1 Z-0.05 F15
G1 X5.2874 Y5.2903 F30
G1 Z-0.075 F15
G1 X5.2874 Y5.6591 F30
G1 X5.2874 Y6.4091
G1 X5.2874 Y7.4091
G1 X5.2874 Y8.1571
G3 X5.2249 Y8.2196 I-0.0625 J0
G1 X3.8274 Y8.2196
G1 X3.1274 Y8.2196
G1 X3.0591 Y8.2196
G1 Z-0.05 F15
G1 X2.5591 Y8.2196 F30
G1 Z-0.075 F15
G1 X2.5274 Y8.2196 F30
G1 X1.8274 Y8.2196
G1 X0.4299 Y8.2196
G3 X0.3674 Y8.1571 I0 J-0.0625
G1 X0.3674 Y7.4091
G1 X0.3674 Y6.4091
G1 X0.3674 Y5.6591
G1 X0.3674 Y5.3229
G1 Z-0.05 F15
G1 X0.3674 Y4.8229 F30
G1 Z-0.075 F15
G1 X0.3674 Y4.6591 F30
G1 X0.3674 Y4.0091
G1 X0.3674 Y3.0091
G1 X0.3674 Y2.9238
G3 X0.3803 Y2.8857 I0.0625 J0
G1 X2.3124 Y0.3687
G3 X2.4548 Y0.2316 I0.515 J0.3925
G3 X2.632 Y0.1439 I0.3726 J0.5296
G3 X2.8274 Y0.1137 I0.1954 J0.6173
G3 X3.0228 Y0.1439 I0 J0.6475
G3 X3.2 Y0.2316 I-0.1954 J0.6173
G3 X3.3423 Y0.3686 I-0.3726 J0.5296
G1 Z-0.15 F15
G1 X3.8083 Y0.9757 F30
G1 Z-0.05 F15
G1 X4.1128 Y1.3723 F30
G1 Z-0.15 F15
G1 X5.2745 Y2.8857 F30
G3 X5.2874 Y2.9238 I-0.0496 J0.0381
G1 X5.2874 Y3.0091
G1 X5.2874 Y4.0091
G1 X5.2874 Y4.6591
G1 X5.2874 Y4.7903
G1 Z-0.05 F15
G1 X5.2874 Y5.2903 F30
G1 Z-0.15 F15
G1 X5.2874 Y5.6591 F30
G1 X5.2874 Y6.4091
G1 X5.2874 Y7.4091
G1 X5.2874 Y8.1571
G3 X5.2249 Y8.2196 I-0.0625 J0
G1 X3.8274 Y8.2196
G1 X3.1274 Y8.2196
G1 X3.0591 Y8.2196
G1 Z-0.05 F15
G1 X2.5591 Y8.2196 F30
G1 Z-0.15 F15
G1 X2.5274 Y8.2196 F30
G1 X1.8274 Y8.2196
G1 X0.4299 Y8.2196
G3 X0.3674 Y8.1571 I0 J-0.0625
G1 X0.3674 Y7.4091
G1 X0.3674 Y6.4091
G1 X0.3674 Y5.6591
G1 X0.3674 Y5.3229
G1 Z-0.05 F15
G1 X0.3674 Y4.8229 F30
G1 Z-0.15 F15
G1 X0.3674 Y4.6591 F30
G1 X0.3674 Y4.0091
G1 X0.3674 Y3.0091
G1 X0.3674 Y2.9238
G3 X0.3803 Y2.8857 I0.0625 J0
G1 X2.3124 Y0.3687
G3 X2.4548 Y0.2316 I0.515 J0.3925
G3 X2.632 Y0.1439 I0.3726 J0.5296
G3 X2.8274 Y0.1137 I0.1954 J0.6173
G3 X3.0228 Y0.1439 I0 J0.6475
G3 X3.2 Y0.2316 I-0.1954 J0.6173
G3 X3.3423 Y0.3686 I-0.3726 J0.5296
G0 Z0.5
M5
M30
