(Generated by PartKam Version 0.05)

G20 G90 G40

(Right Circle)
G0 Z0.5
T0 M6
G17
M3
G0 X4.258 Y7.3323
G1 Z-0.075 F15
G3 X4.2124 Y7.3018 I0.0538 J-0.1298 F30
G3 X4.1819 Y7.2563 I0.0993 J-0.0993
G3 X4.1712 Y7.2025 I0.1298 J-0.0538
G3 X4.1819 Y7.1487 I0.1405 J0
G3 X4.2124 Y7.1031 I0.1298 J0.0538
G3 X4.258 Y7.0727 I0.0993 J0.0993
G3 X4.3117 Y7.062 I0.0538 J0.1298
G3 X4.3655 Y7.0727 I0 J0.1405
G3 X4.4111 Y7.1031 I-0.0538 J0.1298
G3 X4.4415 Y7.1487 I-0.0993 J0.0993
G3 X4.4522 Y7.2025 I-0.1298 J0.0538
G3 X4.4415 Y7.2563 I-0.1405 J0
G3 X4.4111 Y7.3018 I-0.1298 J-0.0538
G3 X4.3655 Y7.3323 I-0.0993 J-0.0993
G3 X4.3117 Y7.343 I-0.0538 J-0.1298
G3 X4.258 Y7.3323 I0 J-0.1405
G1 Z-0.15 F15
G3 X4.2124 Y7.3018 I0.0538 J-0.1298 F30
G3 X4.1819 Y7.2563 I0.0993 J-0.0993
G3 X4.1712 Y7.2025 I0.1298 J-0.0538
G3 X4.1819 Y7.1487 I0.1405 J0
G3 X4.2124 Y7.1031 I0.1298 J0.0538
G3 X4.258 Y7.0727 I0.0993 J0.0993
G3 X4.3117 Y7.062 I0.0538 J0.1298
G3 X4.3655 Y7.0727 I0 J0.1405
G3 X4.4111 Y7.1031 I-0.0538 J0.1298
G3 X4.4415 Y7.1487 I-0.0993 J0.0993
G3 X4.4522 Y7.2025 I-0.1298 J0.0538
G3 X4.4415 Y7.2563 I-0.1405 J0
G3 X4.4111 Y7.3018 I-0.1298 J-0.0538
G3 X4.3655 Y7.3323 I-0.0993 J-0.0993
G3 X4.3117 Y7.343 I-0.0538 J-0.1298
G3 X4.258 Y7.3323 I0 J-0.1405
G0 Z0.5
M5
M30
