(Generated by PartKam Version 0.05)

G20 G90 G40

(Outer)
G0 Z0.5
T0 M6
G17
M3
G0 X4.7267 Y5.2092
G1 Z-0.075 F15
G1 X4.7267 Y5.9648 F30
G1 Z-0.05 F15
G1 X4.7267 Y6.4648 F30
G1 Z-0.075 F15
G1 X4.7267 Y7.0208 F30
G3 X4.6642 Y7.0833 I-0.0625 J0
G1 X4.6017 Y7.0833
G1 X4.6017 Y7.4583
G1 X4.6642 Y7.4583
G3 X4.7267 Y7.5208 I0 J0.0625
G1 X4.7267 Y8.2708
G3 X4.6642 Y8.3333 I-0.0625 J0
G1 X4.6017 Y8.3333
G1 X4.6017 Y8.5208
G3 X4.5392 Y8.5833 I-0.0625 J0
G1 X4.4137 Y8.5833
G1 Z-0.05 F15
G1 X3.9137 Y8.5833 F30
G1 Z-0.075 F15
G1 X3.7892 Y8.5833 F30
G3 X3.7267 Y8.5208 I0 J-0.0625
G1 X3.7267 Y7.8958
G3 X3.7892 Y7.8333 I0.0625 J0
G1 X3.6692 Y7.8333
G3 X3.6067 Y7.7708 I0 J-0.0625
G1 X3.6067 Y6.7708
G3 X3.6692 Y6.7083 I0.0625 J0
G1 X3.7892 Y6.7083
G3 X3.7267 Y6.6458 I0 J-0.0625
G1 X3.7267 Y6.1458
G3 X3.7892 Y6.0833 I0.0625 J0
G1 X3.6692 Y6.0833
G3 X3.6067 Y6.0208 I0 J-0.0625
G1 X3.6067 Y5.8095
G1 Z-0.05 F15
G1 X3.6067 Y5.3095 F30
G1 Z-0.075 F15
G1 X3.6067 Y5.0208 F30
G3 X3.6692 Y4.9583 I0.0625 J0
G1 X3.7892 Y4.9583
G3 X3.7267 Y4.8958 I0 J-0.0625
G1 X3.7267 Y4.4958
G3 X3.7892 Y4.4333 I0.0625 J0
G1 X3.6692 Y4.4333
G3 X3.6067 Y4.3708 I0 J-0.0625
G1 X3.6067 Y3.3708
G3 X3.6692 Y3.3083 I0.0625 J0
G1 X3.7892 Y3.3083
G3 X3.7267 Y3.2458 I0 J-0.0625
G1 X3.7267 Y3.2458
G1 X3.7267 Y3.1458
G3 X3.7892 Y3.0833 I0.0625 J0
G1 X3.8435 Y3.0833
G1 Z-0.05 F15
G1 X4.3435 Y3.0833 F30
G1 Z-0.075 F15
G1 X4.4142 Y3.0833 F30
G3 X4.4767 Y3.1458 I0 J0.0625
G1 X4.4767 Y3.3958
G3 X4.4142 Y3.4583 I-0.0625 J0
G1 X4.4767 Y3.4583
G3 X4.5392 Y3.5208 I0 J0.0625
G1 X4.5392 Y4.0208
G3 X4.4767 Y4.0833 I-0.0625 J0
G1 X4.4142 Y4.0833
G3 X4.4767 Y4.1458 I0 J0.0625
G1 X4.4767 Y4.5168
G3 X4.4736 Y4.5362 I-0.0625 J0
G1 X4.5904 Y4.7029
G3 X4.6017 Y4.7388 I-0.0512 J0.0358
G1 X4.6017 Y5.1467
G1 X4.6642 Y5.1467
G3 X4.7267 Y5.2092 I0 J0.0625
G1 Z-0.15 F15
G1 X4.7267 Y5.9648 F30
G1 Z-0.05 F15
G1 X4.7267 Y6.4648 F30
G1 Z-0.15 F15
G1 X4.7267 Y7.0208 F30
G3 X4.6642 Y7.0833 I-0.0625 J0
G1 X4.6017 Y7.0833
G1 X4.6017 Y7.4583
G1 X4.6642 Y7.4583
G3 X4.7267 Y7.5208 I0 J0.0625
G1 X4.7267 Y8.2708
G3 X4.6642 Y8.3333 I-0.0625 J0
G1 X4.6017 Y8.3333
G1 X4.6017 Y8.5208
G3 X4.5392 Y8.5833 I-0.0625 J0
G1 X4.4137 Y8.5833
G1 Z-0.05 F15
G1 X3.9137 Y8.5833 F30
G1 Z-0.15 F15
G1 X3.7892 Y8.5833 F30
G3 X3.7267 Y8.5208 I0 J-0.0625
G1 X3.7267 Y7.8958
G3 X3.7892 Y7.8333 I0.0625 J0
G1 X3.6692 Y7.8333
G3 X3.6067 Y7.7708 I0 J-0.0625
G1 X3.6067 Y6.7708
G3 X3.6692 Y6.7083 I0.0625 J0
G1 X3.7892 Y6.7083
G3 X3.7267 Y6.6458 I0 J-0.0625
G1 X3.7267 Y6.1458
G3 X3.7892 Y6.0833 I0.0625 J0
G1 X3.6692 Y6.0833
G3 X3.6067 Y6.0208 I0 J-0.0625
G1 X3.6067 Y5.8095
G1 Z-0.05 F15
G1 X3.6067 Y5.3095 F30
G1 Z-0.15 F15
G1 X3.6067 Y5.0208 F30
G3 X3.6692 Y4.9583 I0.0625 J0
G1 X3.7892 Y4.9583
G3 X3.7267 Y4.8958 I0 J-0.0625
G1 X3.7267 Y4.4958
G3 X3.7892 Y4.4333 I0.0625 J0
G1 X3.6692 Y4.4333
G3 X3.6067 Y4.3708 I0 J-0.0625
G1 X3.6067 Y3.3708
G3 X3.6692 Y3.3083 I0.0625 J0
G1 X3.7892 Y3.3083
G3 X3.7267 Y3.2458 I0 J-0.0625
G1 X3.7267 Y3.2458
G1 X3.7267 Y3.1458
G3 X3.7892 Y3.0833 I0.0625 J0
G1 X3.8435 Y3.0833
G1 Z-0.05 F15
G1 X4.3435 Y3.0833 F30
G1 Z-0.15 F15
G1 X4.4142 Y3.0833 F30
G3 X4.4767 Y3.1458 I0 J0.0625
G1 X4.4767 Y3.3958
G3 X4.4142 Y3.4583 I-0.0625 J0
G1 X4.4767 Y3.4583
G3 X4.5392 Y3.5208 I0 J0.0625
G1 X4.5392 Y4.0208
G3 X4.4767 Y4.0833 I-0.0625 J0
G1 X4.4142 Y4.0833
G3 X4.4767 Y4.1458 I0 J0.0625
G1 X4.4767 Y4.5168
G3 X4.4736 Y4.5362 I-0.0625 J0
G1 X4.5904 Y4.7029
G3 X4.6017 Y4.7388 I-0.0512 J0.0358
G1 X4.6017 Y5.1467
G1 X4.6642 Y5.1467
G3 X4.7267 Y5.2092 I0 J0.0625
G0 Z0.5
M5
M30
