(Generated by PartKam Version 0.05)

G20 G90 G40

(Outer Rim)
G0 Z0.5
T0 M6
G17
M3
G0 X1.5392 Y2.5217
G1 Z-0.075 F15
G1 X1.5392 Y3.0762 F30
G1 Z-0.05 F15
G1 X1.5392 Y3.5762 F30
G1 Z-0.075 F15
G1 X1.5392 Y4.3333 F30
G3 X1.4767 Y4.3958 I-0.0625 J0
G1 X1.4142 Y4.3958
G1 X1.4142 Y4.7708
G1 X1.4767 Y4.7708
G3 X1.5392 Y4.8333 I0 J0.0625
G1 X1.5392 Y5.5833
G3 X1.4767 Y5.6458 I-0.0625 J0
G1 X1.4142 Y5.6458
G1 X1.4142 Y5.8333
G3 X1.3517 Y5.8958 I-0.0625 J0
G1 X1.2118 Y5.8958
G1 Z-0.05 F15
G1 X0.7118 Y5.8958 F30
G1 Z-0.075 F15
G1 X0.6017 Y5.8958 F30
G3 X0.5392 Y5.8333 I0 J-0.0625
G1 X0.5392 Y5.2083
G3 X0.6017 Y5.1458 I0.0625 J0
G1 X0.4817 Y5.1458
G3 X0.4192 Y5.0833 I0 J-0.0625
G1 X0.4192 Y4.0833
G3 X0.4817 Y4.0208 I0.0625 J0
G1 X0.6017 Y4.0208
G3 X0.5392 Y3.9583 I0 J-0.0625
G1 X0.5392 Y3.4583
G3 X0.6017 Y3.3958 I0.0625 J0
G1 X0.4817 Y3.3958
G3 X0.4192 Y3.3333 I0 J-0.0625
G1 X0.4192 Y2.3333
G3 X0.4817 Y2.2708 I0.0625 J0
G1 X0.6017 Y2.2708
G3 X0.5392 Y2.2083 I0 J-0.0625
G1 X0.5392 Y1.8083
G3 X0.6017 Y1.7458 I0.0625 J0
G1 X0.4817 Y1.7458
G3 X0.4192 Y1.6833 I0 J-0.0625
G1 X0.4192 Y1.4217
G1 Z-0.05 F15
G1 X0.4192 Y0.9217 F30
G1 Z-0.075 F15
G1 X0.4192 Y0.6833 F30
G3 X0.4817 Y0.6208 I0.0625 J0
G1 X0.6017 Y0.6208
G3 X0.5392 Y0.5583 I0 J-0.0625
G1 X0.5392 Y0.5583
G1 X0.5392 Y0.4583
G3 X0.6017 Y0.3958 I0.0625 J0
G1 X1.2267 Y0.3958
G3 X1.2892 Y0.4583 I0 J0.0625
G1 X1.2892 Y0.7083
G3 X1.2267 Y0.7708 I-0.0625 J0
G1 X1.2892 Y0.7708
G3 X1.3517 Y0.8333 I0 J0.0625
G1 X1.3517 Y1.3333
G3 X1.2892 Y1.3958 I-0.0625 J0
G1 X1.2267 Y1.3958
G3 X1.2892 Y1.4583 I0 J0.0625
G1 X1.2892 Y1.8293
G3 X1.2861 Y1.8487 I-0.0625 J0
G1 X1.4029 Y2.0154
G3 X1.4142 Y2.0513 I-0.0512 J0.0358
G1 X1.4142 Y2.4592
G1 X1.4767 Y2.4592
G3 X1.5392 Y2.5217 I0 J0.0625
G1 Z-0.15 F15
G1 X1.5392 Y3.0762 F30
G1 Z-0.05 F15
G1 X1.5392 Y3.5762 F30
G1 Z-0.15 F15
G1 X1.5392 Y4.3333 F30
G3 X1.4767 Y4.3958 I-0.0625 J0
G1 X1.4142 Y4.3958
G1 X1.4142 Y4.7708
G1 X1.4767 Y4.7708
G3 X1.5392 Y4.8333 I0 J0.0625
G1 X1.5392 Y5.5833
G3 X1.4767 Y5.6458 I-0.0625 J0
G1 X1.4142 Y5.6458
G1 X1.4142 Y5.8333
G3 X1.3517 Y5.8958 I-0.0625 J0
G1 X1.2118 Y5.8958
G1 Z-0.05 F15
G1 X0.7118 Y5.8958 F30
G1 Z-0.15 F15
G1 X0.6017 Y5.8958 F30
G3 X0.5392 Y5.8333 I0 J-0.0625
G1 X0.5392 Y5.2083
G3 X0.6017 Y5.1458 I0.0625 J0
G1 X0.4817 Y5.1458
G3 X0.4192 Y5.0833 I0 J-0.0625
G1 X0.4192 Y4.0833
G3 X0.4817 Y4.0208 I0.0625 J0
G1 X0.6017 Y4.0208
G3 X0.5392 Y3.9583 I0 J-0.0625
G1 X0.5392 Y3.4583
G3 X0.6017 Y3.3958 I0.0625 J0
G1 X0.4817 Y3.3958
G3 X0.4192 Y3.3333 I0 J-0.0625
G1 X0.4192 Y2.3333
G3 X0.4817 Y2.2708 I0.0625 J0
G1 X0.6017 Y2.2708
G3 X0.5392 Y2.2083 I0 J-0.0625
G1 X0.5392 Y1.8083
G3 X0.6017 Y1.7458 I0.0625 J0
G1 X0.4817 Y1.7458
G3 X0.4192 Y1.6833 I0 J-0.0625
G1 X0.4192 Y1.4217
G1 Z-0.05 F15
G1 X0.4192 Y0.9217 F30
G1 Z-0.15 F15
G1 X0.4192 Y0.6833 F30
G3 X0.4817 Y0.6208 I0.0625 J0
G1 X0.6017 Y0.6208
G3 X0.5392 Y0.5583 I0 J-0.0625
G1 X0.5392 Y0.5583
G1 X0.5392 Y0.4583
G3 X0.6017 Y0.3958 I0.0625 J0
G1 X1.2267 Y0.3958
G3 X1.2892 Y0.4583 I0 J0.0625
G1 X1.2892 Y0.7083
G3 X1.2267 Y0.7708 I-0.0625 J0
G1 X1.2892 Y0.7708
G3 X1.3517 Y0.8333 I0 J0.0625
G1 X1.3517 Y1.3333
G3 X1.2892 Y1.3958 I-0.0625 J0
G1 X1.2267 Y1.3958
G3 X1.2892 Y1.4583 I0 J0.0625
G1 X1.2892 Y1.8293
G3 X1.2861 Y1.8487 I-0.0625 J0
G1 X1.4029 Y2.0154
G3 X1.4142 Y2.0513 I-0.0512 J0.0358
G1 X1.4142 Y2.4592
G1 X1.4767 Y2.4592
G3 X1.5392 Y2.5217 I0 J0.0625
G0 Z0.5
M5
M30
