(Generated by PartKam Version 0.05)

G20 G90 G40

(Piece 1)
G0 Z0.5
T0 M6
G17
M3
G0 X1.4913 Y3.0834
G1 Z-0.075 F15
G1 X1.8912 Y3.6546 F30
G1 Z-0.05 F15
G1 X2.178 Y4.0642 F30
G1 Z-0.075 F15
G1 X2.8181 Y4.9783 F30
G3 X2.8294 Y5.0141 I-0.0512 J0.0358
G1 X2.8294 Y5.7556
G3 X2.7669 Y5.8181 I-0.0625 J0
G3 X2.8294 Y5.8806 I0 J0.0625
G1 X2.8294 Y6.9431
G3 X2.7669 Y7.0056 I-0.0625 J0
G1 X2.2819 Y7.0056
G3 X2.2194 Y6.9431 I0 J-0.0625
G1 X2.2194 Y7.0681
G3 X2.1569 Y7.1306 I-0.0625 J0
G1 X1.9079 Y7.1306
G1 Z-0.05 F15
G1 X1.4079 Y7.1306 F30
G1 Z-0.075 F15
G1 X0.8069 Y7.1306 F30
G3 X0.7444 Y7.0681 I0 J-0.0625
G1 X0.7444 Y6.4431
G3 X0.8069 Y6.3806 I0.0625 J0
G1 X0.6869 Y6.3806
G3 X0.6244 Y6.3181 I0 J-0.0625
G1 X0.6244 Y5.3181
G3 X0.6869 Y5.2556 I0.0625 J0
G1 X0.8069 Y5.2556
G3 X0.7444 Y5.1931 I0 J-0.0625
G1 X0.7444 Y4.6931
G3 X0.8069 Y4.6306 I0.0625 J0
G1 X0.6869 Y4.6306
G3 X0.6244 Y4.5681 I0 J-0.0625
G1 X0.6244 Y4.3465
G1 Z-0.05 F15
G1 X0.6244 Y3.8465 F30
G1 Z-0.075 F15
G1 X0.6244 Y3.5681 F30
G3 X0.6869 Y3.5056 I0.0625 J0
G1 X0.8069 Y3.5056
G3 X0.7444 Y3.4431 I0 J-0.0625
G1 X0.7444 Y3.0431
G3 X0.8069 Y2.9806 I0.0625 J0
G1 X0.6869 Y2.9806
G3 X0.6244 Y2.9181 I0 J-0.0625
G1 X0.6244 Y1.9181
G3 X0.6869 Y1.8556 I0.0625 J0
G1 X0.8069 Y1.8556
G3 X0.7444 Y1.7931 I0 J-0.0625
G1 X0.7444 Y0.6101
G3 X0.8069 Y0.5476 I0.0625 J0
G1 X1.4319 Y0.5476
G3 X1.4944 Y0.6101 I0 J0.0625
G1 X1.4944 Y1.9431
G3 X1.4319 Y2.0056 I-0.0625 J0
G1 X1.4944 Y2.0056
G3 X1.5569 Y2.0681 I0 J0.0625
G1 X1.5569 Y2.5681
G3 X1.4944 Y2.6306 I-0.0625 J0
G1 X1.4319 Y2.6306
G3 X1.4944 Y2.6931 I0 J0.0625
G1 X1.4944 Y3.0641
G3 X1.4913 Y3.0834 I-0.0625 J0
G1 Z-0.15 F15
G1 X1.8912 Y3.6546 F30
G1 Z-0.05 F15
G1 X2.178 Y4.0642 F30
G1 Z-0.15 F15
G1 X2.8181 Y4.9783 F30
G3 X2.8294 Y5.0141 I-0.0512 J0.0358
G1 X2.8294 Y5.7556
G3 X2.7669 Y5.8181 I-0.0625 J0
G3 X2.8294 Y5.8806 I0 J0.0625
G1 X2.8294 Y6.9431
G3 X2.7669 Y7.0056 I-0.0625 J0
G1 X2.2819 Y7.0056
G3 X2.2194 Y6.9431 I0 J-0.0625
G1 X2.2194 Y7.0681
G3 X2.1569 Y7.1306 I-0.0625 J0
G1 X1.9079 Y7.1306
G1 Z-0.05 F15
G1 X1.4079 Y7.1306 F30
G1 Z-0.15 F15
G1 X0.8069 Y7.1306 F30
G3 X0.7444 Y7.0681 I0 J-0.0625
G1 X0.7444 Y6.4431
G3 X0.8069 Y6.3806 I0.0625 J0
G1 X0.6869 Y6.3806
G3 X0.6244 Y6.3181 I0 J-0.0625
G1 X0.6244 Y5.3181
G3 X0.6869 Y5.2556 I0.0625 J0
G1 X0.8069 Y5.2556
G3 X0.7444 Y5.1931 I0 J-0.0625
G1 X0.7444 Y4.6931
G3 X0.8069 Y4.6306 I0.0625 J0
G1 X0.6869 Y4.6306
G3 X0.6244 Y4.5681 I0 J-0.0625
G1 X0.6244 Y4.3465
G1 Z-0.05 F15
G1 X0.6244 Y3.8465 F30
G1 Z-0.15 F15
G1 X0.6244 Y3.5681 F30
G3 X0.6869 Y3.5056 I0.0625 J0
G1 X0.8069 Y3.5056
G3 X0.7444 Y3.4431 I0 J-0.0625
G1 X0.7444 Y3.0431
G3 X0.8069 Y2.9806 I0.0625 J0
G1 X0.6869 Y2.9806
G3 X0.6244 Y2.9181 I0 J-0.0625
G1 X0.6244 Y1.9181
G3 X0.6869 Y1.8556 I0.0625 J0
G1 X0.8069 Y1.8556
G3 X0.7444 Y1.7931 I0 J-0.0625
G1 X0.7444 Y0.6101
G3 X0.8069 Y0.5476 I0.0625 J0
G1 X1.4319 Y0.5476
G3 X1.4944 Y0.6101 I0 J0.0625
G1 X1.4944 Y1.9431
G3 X1.4319 Y2.0056 I-0.0625 J0
G1 X1.4944 Y2.0056
G3 X1.5569 Y2.0681 I0 J0.0625
G1 X1.5569 Y2.5681
G3 X1.4944 Y2.6306 I-0.0625 J0
G1 X1.4319 Y2.6306
G3 X1.4944 Y2.6931 I0 J0.0625
G1 X1.4944 Y3.0641
G3 X1.4913 Y3.0834 I-0.0625 J0

(Piece 2)
G0 Z0.5
G0 X4.2998 Y3.0738
G1 Z-0.075 F15
G1 X5.4173 Y4.6697 F30
G3 X5.4286 Y4.7055 I-0.0512 J0.0358
G1 X5.4286 Y5.7459
G3 X5.3661 Y5.8084 I-0.0625 J0
G3 X5.4286 Y5.8709 I0 J0.0625
G1 X5.4286 Y6.9334
G3 X5.3661 Y6.9959 I-0.0625 J0
G1 X5.0904 Y6.9959
G3 X5.0279 Y6.9334 I0 J-0.0625
G1 X5.0279 Y7.0584
G3 X4.9654 Y7.1209 I-0.0625 J0
G1 X4.5757 Y7.1209
G1 Z-0.05 F15
G1 X4.0757 Y7.1209 F30
G1 Z-0.075 F15
G1 X3.6154 Y7.1209 F30
G3 X3.5529 Y7.0584 I0 J-0.0625
G1 X3.5529 Y6.4334
G3 X3.6154 Y6.3709 I0.0625 J0
G1 X3.4954 Y6.3709
G3 X3.4329 Y6.3084 I0 J-0.0625
G1 X3.4329 Y5.3084
G3 X3.4954 Y5.2459 I0.0625 J0
G1 X3.6154 Y5.2459
G3 X3.5529 Y5.1834 I0 J-0.0625
G1 X3.5529 Y4.6834
G3 X3.6154 Y4.6209 I0.0625 J0
G1 X3.4954 Y4.6209
G3 X3.4329 Y4.5584 I0 J-0.0625
G1 X3.4329 Y4.2907
G1 Z-0.05 F15
G1 X3.4329 Y3.7907 F30
G1 Z-0.075 F15
G1 X3.4329 Y3.5584 F30
G3 X3.4954 Y3.4959 I0.0625 J0
G1 X3.6154 Y3.4959
G3 X3.5529 Y3.4334 I0 J-0.0625
G1 X3.5529 Y3.0334
G3 X3.6154 Y2.9709 I0.0625 J0
G1 X3.4954 Y2.9709
G3 X3.4329 Y2.9084 I0 J-0.0625
G1 X3.4329 Y1.9084
G3 X3.4954 Y1.8459 I0.0625 J0
G1 X3.6154 Y1.8459
G3 X3.5529 Y1.7834 I0 J-0.0625
G1 X3.5529 Y0.8052
G3 X3.6154 Y0.7427 I0.0625 J0
G1 X4.2404 Y0.7427
G3 X4.3029 Y0.8052 I0 J0.0625
G1 X4.3029 Y1.0464
G1 Z-0.05 F15
G1 X4.3029 Y1.5464 F30
G1 Z-0.075 F15
G1 X4.3029 Y1.9334 F30
G3 X4.2404 Y1.9959 I-0.0625 J0
G1 X4.3029 Y1.9959
G3 X4.3654 Y2.0584 I0 J0.0625
G1 X4.3654 Y2.5584
G3 X4.3029 Y2.6209 I-0.0625 J0
G1 X4.2404 Y2.6209
G3 X4.3029 Y2.6834 I0 J0.0625
G1 X4.3029 Y3.0544
G3 X4.2998 Y3.0738 I-0.0625 J0
G1 Z-0.15 F15
G1 X5.4173 Y4.6697 F30
G3 X5.4286 Y4.7055 I-0.0512 J0.0358
G1 X5.4286 Y5.7459
G3 X5.3661 Y5.8084 I-0.0625 J0
G3 X5.4286 Y5.8709 I0 J0.0625
G1 X5.4286 Y6.9334
G3 X5.3661 Y6.9959 I-0.0625 J0
G1 X5.0904 Y6.9959
G3 X5.0279 Y6.9334 I0 J-0.0625
G1 X5.0279 Y7.0584
G3 X4.9654 Y7.1209 I-0.0625 J0
G1 X4.5757 Y7.1209
G1 Z-0.05 F15
G1 X4.0757 Y7.1209 F30
G1 Z-0.15 F15
G1 X3.6154 Y7.1209 F30
G3 X3.5529 Y7.0584 I0 J-0.0625
G1 X3.5529 Y6.4334
G3 X3.6154 Y6.3709 I0.0625 J0
G1 X3.4954 Y6.3709
G3 X3.4329 Y6.3084 I0 J-0.0625
G1 X3.4329 Y5.3084
G3 X3.4954 Y5.2459 I0.0625 J0
G1 X3.6154 Y5.2459
G3 X3.5529 Y5.1834 I0 J-0.0625
G1 X3.5529 Y4.6834
G3 X3.6154 Y4.6209 I0.0625 J0
G1 X3.4954 Y4.6209
G3 X3.4329 Y4.5584 I0 J-0.0625
G1 X3.4329 Y4.2907
G1 Z-0.05 F15
G1 X3.4329 Y3.7907 F30
G1 Z-0.15 F15
G1 X3.4329 Y3.5584 F30
G3 X3.4954 Y3.4959 I0.0625 J0
G1 X3.6154 Y3.4959
G3 X3.5529 Y3.4334 I0 J-0.0625
G1 X3.5529 Y3.0334
G3 X3.6154 Y2.9709 I0.0625 J0
G1 X3.4954 Y2.9709
G3 X3.4329 Y2.9084 I0 J-0.0625
G1 X3.4329 Y1.9084
G3 X3.4954 Y1.8459 I0.0625 J0
G1 X3.6154 Y1.8459
G3 X3.5529 Y1.7834 I0 J-0.0625
G1 X3.5529 Y0.8052
G3 X3.6154 Y0.7427 I0.0625 J0
G1 X4.2404 Y0.7427
G3 X4.3029 Y0.8052 I0 J0.0625
G1 X4.3029 Y1.0464
G1 Z-0.05 F15
G1 X4.3029 Y1.5464 F30
G1 Z-0.15 F15
G1 X4.3029 Y1.9334 F30
G3 X4.2404 Y1.9959 I-0.0625 J0
G1 X4.3029 Y1.9959
G3 X4.3654 Y2.0584 I0 J0.0625
G1 X4.3654 Y2.5584
G3 X4.3029 Y2.6209 I-0.0625 J0
G1 X4.2404 Y2.6209
G3 X4.3029 Y2.6834 I0 J0.0625
G1 X4.3029 Y3.0544
G3 X4.2998 Y3.0738 I-0.0625 J0

(Piece 3)
G0 Z0.5
G0 X7.0516 Y2.8841
G1 Z-0.075 F15
G1 X7.0516 Y4.6958 F30
G3 X6.9891 Y4.7583 I-0.0625 J0
G1 X6.9266 Y4.7583
G1 X6.9266 Y5.1333
G1 X6.9891 Y5.1333
G3 X7.0516 Y5.1958 I0 J0.0625
G1 X7.0516 Y5.9458
G3 X6.9891 Y6.0083 I-0.0625 J0
G1 X6.9266 Y6.0083
G1 X6.9266 Y6.1958
G3 X6.8641 Y6.2583 I-0.0625 J0
G1 X6.7817 Y6.2583
G1 Z-0.05 F15
G1 X6.2817 Y6.2583 F30
G1 Z-0.075 F15
G1 X6.1141 Y6.2583 F30
G3 X6.0516 Y6.1958 I0 J-0.0625
G1 X6.0516 Y5.5708
G3 X6.1141 Y5.5083 I0.0625 J0
G1 X5.9941 Y5.5083
G3 X5.9316 Y5.4458 I0 J-0.0625
G1 X5.9316 Y4.4458
G3 X5.9941 Y4.3833 I0.0625 J0
G1 X6.1141 Y4.3833
G3 X6.0516 Y4.3208 I0 J-0.0625
G1 X6.0516 Y3.8208
G3 X6.1141 Y3.7583 I0.0625 J0
G1 X5.9941 Y3.7583
G3 X5.9316 Y3.6958 I0 J-0.0625
G1 X5.9316 Y2.6958
G3 X5.9941 Y2.6333 I0.0625 J0
G1 X6.1141 Y2.6333
G3 X6.0516 Y2.5708 I0 J-0.0625
G1 X6.0516 Y2.1708
G3 X6.1141 Y2.1083 I0.0625 J0
G1 X5.9941 Y2.1083
G3 X5.9316 Y2.0458 I0 J-0.0625
G1 X5.9316 Y1.0458
G3 X5.9941 Y0.9833 I0.0625 J0
G1 X6.1141 Y0.9833
G3 X6.0516 Y0.9208 I0 J-0.0625
G1 X6.0516 Y0.9208
G1 X6.0516 Y0.8208
G3 X6.1141 Y0.7583 I0.0625 J0
G1 X6.1972 Y0.7583
G1 Z-0.05 F15
G1 X6.6972 Y0.7583 F30
G1 Z-0.075 F15
G1 X6.7391 Y0.7583 F30
G3 X6.8016 Y0.8208 I0 J0.0625
G1 X6.8016 Y1.0708
G3 X6.7391 Y1.1333 I-0.0625 J0
G1 X6.8016 Y1.1333
G3 X6.8641 Y1.1958 I0 J0.0625
G1 X6.8641 Y1.6958
G3 X6.8016 Y1.7583 I-0.0625 J0
G1 X6.7391 Y1.7583
G3 X6.8016 Y1.8208 I0 J0.0625
G1 X6.8016 Y2.1918
G3 X6.7985 Y2.2111 I-0.0625 J0
G1 X6.9153 Y2.3779
G3 X6.9266 Y2.4137 I-0.0512 J0.0358
G1 X6.9266 Y2.8216
G1 X6.9891 Y2.8216
G3 X7.0516 Y2.8841 I0 J0.0625
G1 Z-0.15 F15
G1 X7.0516 Y4.6958 F30
G3 X6.9891 Y4.7583 I-0.0625 J0
G1 X6.9266 Y4.7583
G1 X6.9266 Y5.1333
G1 X6.9891 Y5.1333
G3 X7.0516 Y5.1958 I0 J0.0625
G1 X7.0516 Y5.9458
G3 X6.9891 Y6.0083 I-0.0625 J0
G1 X6.9266 Y6.0083
G1 X6.9266 Y6.1958
G3 X6.8641 Y6.2583 I-0.0625 J0
G1 X6.7817 Y6.2583
G1 Z-0.05 F15
G1 X6.2817 Y6.2583 F30
G1 Z-0.15 F15
G1 X6.1141 Y6.2583 F30
G3 X6.0516 Y6.1958 I0 J-0.0625
G1 X6.0516 Y5.5708
G3 X6.1141 Y5.5083 I0.0625 J0
G1 X5.9941 Y5.5083
G3 X5.9316 Y5.4458 I0 J-0.0625
G1 X5.9316 Y4.4458
G3 X5.9941 Y4.3833 I0.0625 J0
G1 X6.1141 Y4.3833
G3 X6.0516 Y4.3208 I0 J-0.0625
G1 X6.0516 Y3.8208
G3 X6.1141 Y3.7583 I0.0625 J0
G1 X5.9941 Y3.7583
G3 X5.9316 Y3.6958 I0 J-0.0625
G1 X5.9316 Y2.6958
G3 X5.9941 Y2.6333 I0.0625 J0
G1 X6.1141 Y2.6333
G3 X6.0516 Y2.5708 I0 J-0.0625
G1 X6.0516 Y2.1708
G3 X6.1141 Y2.1083 I0.0625 J0
G1 X5.9941 Y2.1083
G3 X5.9316 Y2.0458 I0 J-0.0625
G1 X5.9316 Y1.0458
G3 X5.9941 Y0.9833 I0.0625 J0
G1 X6.1141 Y0.9833
G3 X6.0516 Y0.9208 I0 J-0.0625
G1 X6.0516 Y0.9208
G1 X6.0516 Y0.8208
G3 X6.1141 Y0.7583 I0.0625 J0
G1 X6.1972 Y0.7583
G1 Z-0.05 F15
G1 X6.6972 Y0.7583 F30
G1 Z-0.15 F15
G1 X6.7391 Y0.7583 F30
G3 X6.8016 Y0.8208 I0 J0.0625
G1 X6.8016 Y1.0708
G3 X6.7391 Y1.1333 I-0.0625 J0
G1 X6.8016 Y1.1333
G3 X6.8641 Y1.1958 I0 J0.0625
G1 X6.8641 Y1.6958
G3 X6.8016 Y1.7583 I-0.0625 J0
G1 X6.7391 Y1.7583
G3 X6.8016 Y1.8208 I0 J0.0625
G1 X6.8016 Y2.1918
G3 X6.7985 Y2.2111 I-0.0625 J0
G1 X6.9153 Y2.3779
G3 X6.9266 Y2.4137 I-0.0512 J0.0358
G1 X6.9266 Y2.8216
G1 X6.9891 Y2.8216
G3 X7.0516 Y2.8841 I0 J0.0625
G0 Z0.5
M5
M30
